; generated by Slic3r 0.7.2b on 2012-06-06 at 16:50:12

; layer_height = 0.20
; perimeters = 2
; solid_layers = 3
; fill_density = .6
; nozzle_diameter = 0.5
; filament_diameter = 1.81
; extrusion_multiplier = 1.02
; perimeter_speed = 60
; infill_speed = 75
; travel_speed = 100
; extrusion_width_ratio = 0
; scale = 1
; single wall width = 0.70mm

M104 S187 ; set temperature
G28 ; home all
M140 S70 ; turn on bed
M109 S187 ; wait for temperature to be reached
G90 ; use absolute coordinates
G21 ; set units to millimeters
G92 E0 ; reset extrusion distance
M82 ; use absolute distances for extrusion
M107
G1 Z0.200 F6000.000
G1 X51.970 Y91.243
G1 F1200.000 E1.00000
G1 X54.290 Y89.183 F2160.000 E1.16163
G1 X54.900 Y88.753 E1.20051
G1 X57.810 Y87.083 E1.37530
G1 X58.030 Y86.973 E1.38811
G1 X58.490 Y86.783 E1.41404
G1 X61.680 Y85.753 E1.58867
G1 X62.160 Y85.643 E1.61433
G1 X65.490 Y85.263 E1.78893
G1 X66.160 Y85.223 E1.82390
G1 X148.120 Y85.533 E6.09369
G1 X148.620 Y85.603 E6.11999
G1 X149.120 Y85.713 E6.14666
G1 X149.600 Y85.863 E6.17286
G1 X150.070 Y86.053 E6.19927
G1 X150.530 Y86.283 E6.22606
G1 X150.960 Y86.543 E6.25224
G1 X151.560 Y87.013 E6.29194
G1 X151.750 Y87.183 E6.30522
G1 X152.100 Y87.553 E6.33176
G1 X152.420 Y87.943 E6.35804
G1 X152.700 Y88.363 E6.38433
G1 X152.830 Y88.583 E6.39765
G1 X153.060 Y89.043 E6.42444
G1 X153.250 Y89.513 E6.45085
G1 X153.330 Y89.753 E6.46403
G1 X153.500 Y90.493 E6.50358
G1 X153.570 Y90.993 E6.52989
G1 X153.700 Y149.093 E9.55665
G1 X153.620 Y149.853 E9.59646
G1 X153.510 Y150.353 E9.62313
G1 X153.360 Y150.843 E9.64983
G1 X153.170 Y151.313 E9.67624
G1 X152.940 Y151.773 E9.70303
G1 X152.680 Y152.203 E9.72921
G1 X152.530 Y152.413 E9.74265
G1 X152.210 Y152.813 E9.76934
G1 X152.040 Y153.003 E9.78262
G1 X151.860 Y153.183 E9.79588
G1 X151.470 Y153.523 E9.82283
G1 X150.850 Y153.963 E9.86244
G1 X150.630 Y154.093 E9.87575
G1 X150.170 Y154.323 E9.90255
G1 X149.700 Y154.513 E9.92896
G1 X148.970 Y154.723 E9.96853
G1 X148.210 Y154.833 E10.00853
G1 X147.700 Y154.853 E10.03512
G1 X60.560 Y154.833 E14.57473
G1 X60.050 Y154.763 E14.60155
G1 X59.540 Y154.653 E14.62873
G1 X59.050 Y154.503 E14.65543
G1 X58.340 Y154.203 E14.69558
G1 X57.680 Y153.803 E14.73579
G1 X57.470 Y153.653 E14.74923
G1 X57.070 Y153.333 E14.77592
G1 X56.530 Y152.783 E14.81607
G1 X56.210 Y152.373 E14.84317
G1 X55.800 Y151.723 E14.88320
G1 X55.680 Y151.493 E14.89672
G1 X53.440 Y146.333 E15.18977
G1 X51.430 Y140.143 E15.52881
G1 X50.150 Y134.373 E15.83671
G1 X46.420 Y107.113 E17.27007
G1 X46.360 Y106.203 E17.31758
G1 X46.420 Y103.083 E17.48015
G1 X46.470 Y102.593 E17.50581
G1 X47.250 Y99.073 E17.69363
G1 X47.400 Y98.593 E17.71983
G1 X48.900 Y95.303 E17.90820
G1 X49.140 Y94.883 E17.93340
G1 X51.280 Y91.963 E18.12200
G1 X51.440 Y91.773 E18.13494
G1 X51.780 Y91.413 E18.16074
G1 X51.892 Y91.313 E18.16855
G1 F1200.000 E17.16855
G92 E0
G1 X84.973 Y105.171 F6000.000
G1 F1200.000 E1.00000
G1 X88.822 Y98.403 F2160.000 E1.40564
G1 X89.462 Y97.750 E1.45326
G1 X90.247 Y97.283 E1.50085
G1 X91.128 Y97.036 E1.54851
G1 X92.042 Y97.024 E1.59614
G1 X92.929 Y97.251 E1.64385
G1 X93.726 Y97.699 E1.69144
G1 X94.379 Y98.339 E1.73911
G1 X94.846 Y99.124 E1.78670
G1 X95.093 Y100.005 E1.83435
G1 X95.105 Y100.919 E1.88198
G1 X94.856 Y101.891 E1.93425
G1 X91.827 Y103.929 E2.12444
G1 X89.207 Y106.248 E2.30669
G1 X87.164 Y108.609 E2.46937
G1 X88.923 Y109.788 E2.57971
G1 X91.089 Y111.040 E2.71004
G1 X93.334 Y112.144 E2.84036
G1 X95.646 Y113.095 E2.97062
G1 X98.020 Y113.889 E3.10102
G1 X100.439 Y114.524 E3.23132
G1 X102.896 Y114.995 E3.36165
G1 X105.379 Y115.300 E3.49196
G1 X107.878 Y115.439 E3.62233
G1 X110.378 Y115.411 E3.75261
G1 X112.873 Y115.215 E3.88297
G1 X115.311 Y114.860 E4.01132
G1 X116.044 Y114.529 E4.05322
G1 X116.931 Y114.384 E4.10003
G1 X117.826 Y114.473 E4.14690
G1 X118.669 Y114.790 E4.19380
G1 X119.398 Y115.316 E4.24062
G1 X119.968 Y116.011 E4.28746
G1 X120.338 Y116.831 E4.33434
G1 X120.483 Y117.720 E4.38126
G1 X120.394 Y118.613 E4.42802
G1 X120.077 Y119.456 E4.47490
G1 X119.551 Y120.187 E4.52183
G1 X118.803 Y120.798 E4.57214
G1 X115.704 Y120.975 E4.73387
G1 X112.702 Y120.975 E4.89025
G1 X109.706 Y120.806 E5.04657
G1 X106.725 Y120.468 E5.20289
G1 X103.765 Y119.962 E5.35930
G1 X100.840 Y119.290 E5.51567
G1 X97.959 Y118.455 E5.67194
G1 X95.129 Y117.458 E5.82827
G1 X92.358 Y116.304 E5.98460
G1 X89.658 Y114.994 E6.14094
G1 X87.035 Y113.536 E6.29728
G1 X84.839 Y112.145 E6.43272
G1 X83.483 Y114.962 E6.59557
G1 X82.468 Y118.065 E6.76564
G1 X84.609 Y119.607 E6.90309
G1 X87.040 Y121.159 E7.05334
G1 X89.555 Y122.573 E7.20366
G1 X92.143 Y123.843 E7.35385
G1 X94.799 Y124.967 E7.50410
G1 X97.515 Y125.940 E7.65438
G1 X100.280 Y126.761 E7.80464
G1 X103.087 Y127.424 E7.95490
G1 X105.928 Y127.931 E8.10522
G1 X108.786 Y128.276 E8.25519
G1 X115.556 Y128.534 E8.60815
G1 X116.544 Y128.724 E8.66057
G1 X117.494 Y129.050 E8.71290
G1 X118.392 Y129.504 E8.76530
G1 X119.216 Y130.078 E8.81764
G1 X119.952 Y130.764 E8.87004
G1 X120.585 Y131.543 E8.92235
G1 X121.104 Y132.403 E8.97468
G1 X121.500 Y133.328 E9.02709
G1 X121.760 Y134.300 E9.07949
G1 X121.884 Y135.296 E9.13181
G1 X121.861 Y136.693 E9.20456
G1 X114.333 Y135.258 E9.60381
G1 X107.330 Y133.333 E9.98218
G1 X100.503 Y130.851 E10.36057
G1 X93.900 Y127.832 E10.73885
G1 X87.557 Y124.292 E11.11724
G1 X81.973 Y120.559 E11.46717
G1 X81.756 Y121.722 E11.52880
G1 X81.579 Y125.214 E11.71094
G1 X81.861 Y128.700 E11.89312
G1 X82.603 Y132.116 E12.07526
G1 X83.787 Y135.407 E12.25744
G1 X85.459 Y138.628 E12.44651
G1 X85.317 Y139.706 E12.50319
G1 X84.926 Y140.653 E12.55657
G1 X84.302 Y141.467 E12.60998
G1 X83.488 Y142.091 E12.66339
G1 X82.541 Y142.482 E12.71677
G1 X81.526 Y142.616 E12.77012
G1 X80.511 Y142.482 E12.82347
G1 X79.564 Y142.091 E12.87685
G1 X78.750 Y141.467 E12.93026
G1 X78.126 Y140.653 E12.98367
G1 X77.735 Y139.706 E13.03705
G1 X77.604 Y138.711 E13.08933
G1 X77.710 Y131.768 E13.45109
G1 X78.510 Y124.877 E13.81249
G1 X80.000 Y118.103 E14.17384
G1 X82.161 Y111.511 E14.53521
G1 X84.931 Y105.267 E14.89106
G1 X84.367 Y104.865 F6000.000
G1 X88.276 Y97.991 F2160.000 E15.30305
G1 X89.039 Y97.212 E15.35987
G1 X89.977 Y96.653 E15.41674
G1 X91.030 Y96.358 E15.47372
G1 X92.123 Y96.345 E15.53066
G1 X93.184 Y96.616 E15.58768
G1 X94.136 Y97.151 E15.64460
G1 X94.917 Y97.916 E15.70156
G1 X95.476 Y98.854 E15.75843
G1 X95.771 Y99.907 E15.81541
G1 X95.784 Y101.000 E15.87235
G1 X95.449 Y102.310 E15.94275
G1 X92.243 Y104.466 E16.14408
G1 X89.691 Y106.726 E16.32163
G1 X88.179 Y108.472 E16.44197
G1 X89.282 Y109.212 E16.51115
G1 X91.409 Y110.441 E16.63912
G1 X93.613 Y111.525 E16.76707
G1 X95.883 Y112.459 E16.89496
G1 X98.214 Y113.239 E17.02300
G1 X100.590 Y113.861 E17.15094
G1 X103.002 Y114.324 E17.27890
G1 X105.439 Y114.624 E17.40684
G1 X107.893 Y114.760 E17.53485
G1 X110.348 Y114.733 E17.66276
G1 X112.797 Y114.540 E17.79076
G1 X115.119 Y114.202 E17.91297
G1 X115.847 Y113.874 E17.95456
G1 X116.909 Y113.700 E18.01067
G1 X117.982 Y113.807 E18.06681
G1 X118.992 Y114.187 E18.12305
G1 X119.866 Y114.817 E18.17920
G1 X120.550 Y115.650 E18.23531
G1 X120.993 Y116.634 E18.29154
G1 X121.167 Y117.699 E18.34775
G1 X121.060 Y118.769 E18.40377
G1 X120.681 Y119.779 E18.45997
G1 X120.050 Y120.656 E18.51625
G1 X119.062 Y121.463 E18.58270
G1 X115.723 Y121.654 E18.75693
G1 X112.683 Y121.654 E18.91532
G1 X109.649 Y121.482 E19.07363
G1 X106.629 Y121.140 E19.23194
G1 X103.632 Y120.628 E19.39035
G1 X100.669 Y119.947 E19.54872
G1 X97.752 Y119.101 E19.70698
G1 X94.885 Y118.092 E19.86529
G1 X92.079 Y116.923 E20.02363
G1 X89.345 Y115.596 E20.18197
G1 X86.689 Y114.120 E20.34030
G1 X85.120 Y113.126 E20.43704
G1 X84.114 Y115.216 E20.55783
G1 X83.267 Y117.804 E20.69972
G1 X84.990 Y119.046 E20.81033
G1 X87.389 Y120.577 E20.95860
G1 X89.871 Y121.972 E21.10694
G1 X92.425 Y123.225 E21.25515
G1 X95.046 Y124.335 E21.40342
G1 X97.726 Y125.295 E21.55173
G1 X100.455 Y126.105 E21.70000
G1 X103.225 Y126.760 E21.84829
G1 X106.028 Y127.259 E21.99663
G1 X108.839 Y127.599 E22.14415
G1 X115.633 Y127.858 E22.49834
G1 X116.719 Y128.067 E22.55594
G1 X117.759 Y128.423 E22.61320
G1 X118.741 Y128.920 E22.67052
G1 X119.644 Y129.549 E22.72785
G1 X120.450 Y130.299 E22.78522
G1 X121.142 Y131.152 E22.84245
G1 X121.710 Y132.093 E22.89969
G1 X122.142 Y133.106 E22.95708
G1 X122.428 Y134.169 E23.01443
G1 X122.564 Y135.260 E23.07169
G1 X122.526 Y137.510 E23.18893
G1 X114.179 Y135.920 E23.63159
G1 X107.123 Y133.980 E24.01280
G1 X100.246 Y131.480 E24.39403
G1 X93.593 Y128.437 E24.77515
G1 X87.203 Y124.871 E25.15637
G1 X82.452 Y121.695 E25.45409
G1 X82.432 Y121.802 E25.45974
G1 X82.259 Y125.204 E25.63719
G1 X82.534 Y128.600 E25.81469
G1 X83.257 Y131.929 E25.99215
G1 X84.411 Y135.134 E26.16964
G1 X86.160 Y138.505 E26.36747
G1 X85.978 Y139.883 E26.43991
G1 X85.519 Y140.995 E26.50260
G1 X84.786 Y141.951 E26.56533
G1 X83.830 Y142.684 E26.62806
G1 X82.718 Y143.143 E26.69075
G1 X81.526 Y143.301 E26.75339
G1 X80.334 Y143.143 E26.81604
G1 X79.222 Y142.684 E26.87873
G1 X78.266 Y141.951 E26.94146
G1 X77.533 Y140.995 E27.00419
G1 X77.074 Y139.883 E27.06688
G1 X76.924 Y138.751 E27.12638
G1 X77.032 Y131.724 E27.49251
G1 X77.840 Y124.765 E27.85747
G1 X79.345 Y117.924 E28.22237
G1 X81.527 Y111.267 E28.58730
G1 X84.324 Y104.961 E28.94670
G1 F1200.000 E27.94670
G92 E0
G1 X76.777 Y92.196 F6000.000
G1 F1200.000 E1.00000
G1 X109.666 Y92.196 F2160.000 E2.71339
G1 X114.855 Y92.196 E2.98370
G1 X146.915 Y92.196 E4.65390
G1 X147.024 Y148.178 E7.57034
G1 X117.407 Y148.177 E9.11325
G1 X104.367 Y148.177 E9.79261
G1 X101.940 Y148.177 E9.91905
G1 X99.402 Y148.178 E10.05123
G1 X82.597 Y148.178 E10.92674
G1 X77.077 Y148.178 E11.21428
G1 X61.518 Y148.177 E12.02485
G1 X59.779 Y144.212 E12.25041
G1 X57.951 Y138.663 E12.55475
G1 X56.688 Y132.963 E12.85894
G1 X55.999 Y127.165 E13.16309
G1 X55.890 Y121.324 E13.46745
G1 X56.408 Y114.031 E13.84833
G1 X54.636 Y111.464 E14.01079
G1 X54.622 Y111.465 E14.01154
G1 X54.608 Y111.445 E14.01280
G1 X53.555 Y108.927 E14.15497
G1 X53.040 Y106.248 E14.29711
G1 X53.088 Y103.523 E14.43909
G1 X53.695 Y100.865 E14.58112
G1 X54.833 Y98.391 E14.72301
G1 X56.454 Y96.202 E14.86490
G1 X58.489 Y94.394 E15.00673
G1 X60.851 Y93.040 E15.14855
G1 X63.441 Y92.201 E15.29035
G1 X66.146 Y91.910 E15.43209
G1 X69.006 Y92.196 E15.58181
G1 X73.292 Y92.196 E15.80511
G1 X76.672 Y92.196 E15.98119
G1 X76.777 Y91.517 F6000.000
G1 X109.666 Y91.518 F2160.000 E17.69458
G1 X114.855 Y91.517 E17.96488
G1 X147.592 Y91.518 E19.67037
G1 X147.704 Y148.857 E22.65751
G1 X117.407 Y148.855 E24.23584
G1 X104.367 Y148.856 E24.91519
G1 X101.940 Y148.856 E25.04163
G1 X99.403 Y148.856 E25.17381
G1 X82.597 Y148.856 E26.04933
G1 X77.077 Y148.857 E26.33686
G1 X61.074 Y148.856 E27.17054
G1 X59.145 Y144.455 E27.42088
G1 X57.296 Y138.843 E27.72867
G1 X56.018 Y133.076 E28.03639
G1 X55.322 Y127.212 E28.34407
G1 X55.211 Y121.306 E28.65177
G1 X55.714 Y114.220 E29.02183
G1 X54.288 Y112.155 E29.15258
G1 X54.274 Y112.155 E29.15335
G1 X54.009 Y111.772 E29.17761
G1 X52.902 Y109.124 E29.32712
G1 X52.361 Y106.307 E29.47659
G1 X52.410 Y103.441 E29.62593
G1 X53.049 Y100.646 E29.77529
G1 X54.246 Y98.044 E29.92450
G1 X55.951 Y95.741 E30.07373
G1 X58.091 Y93.840 E30.22288
G1 X60.575 Y92.416 E30.37203
G1 X63.298 Y91.534 E30.52115
G1 X66.143 Y91.228 E30.67022
G1 X69.039 Y91.517 E30.82185
G1 X73.292 Y91.517 E31.04338
G1 X76.672 Y91.517 E31.21946
G1 X77.105 Y92.676 F6000.000
G1 X85.854 Y101.424 F2700.000 E31.86866
G1 X86.202 Y100.811 F6000.000
G1 X78.068 Y92.677 F2700.000 E32.47230
G1 X79.031 Y92.677 F6000.000
G1 X86.551 Y100.197 F2700.000 E33.03038
G1 X86.900 Y99.583 F6000.000
G1 X79.994 Y92.677 F2700.000 E33.54291
G1 X80.957 Y92.676 F6000.000
G1 X87.249 Y98.969 F2700.000 E34.00988
G1 X87.599 Y98.355 F6000.000
G1 X81.920 Y92.676 F2700.000 E34.43130
G1 X82.883 Y92.676 F6000.000
G1 X87.955 Y97.749 F2700.000 E34.80770
G1 X88.432 Y97.262 F6000.000
G1 X83.846 Y92.676 F2700.000 E35.14801
G1 X84.809 Y92.676 F6000.000
G1 X88.933 Y96.801 F2700.000 E35.45408
G1 X89.537 Y96.441 F6000.000
G1 X85.772 Y92.676 F2700.000 E35.73349
G1 X86.735 Y92.676 F6000.000
G1 X90.199 Y96.140 F2700.000 E35.99054
G1 X90.951 Y95.929 F6000.000
G1 X87.698 Y92.676 F2700.000 E36.23194
G1 X88.661 Y92.676 F6000.000
G1 X91.855 Y95.870 F2700.000 E36.46894
G1 X92.951 Y96.003 F6000.000
G1 X89.624 Y92.676 F2700.000 E36.71584
G1 X90.587 Y92.676 F6000.000
G1 X94.669 Y96.758 F2700.000 E37.01878
G1 X95.334 Y97.423 F6000.000
G1 X112.043 Y114.132 F2700.000 E38.25879
G1 X112.934 Y114.062 F6000.000
G1 X91.549 Y92.677 F2700.000 E39.84575
G1 X92.513 Y92.677 F6000.000
G1 X113.775 Y113.939 F2700.000 E41.42363
G1 X114.616 Y113.817 F6000.000
G1 X93.476 Y92.677 F2700.000 E42.99244
G1 X94.439 Y92.677 F6000.000
G1 X115.387 Y113.625 F2700.000 E44.54699
G1 X116.100 Y113.375 F6000.000
G1 X95.402 Y92.677 F2700.000 E46.08301
G1 X96.365 Y92.677 F6000.000
G1 X116.928 Y113.240 F2700.000 E47.60901
G1 X117.951 Y113.300 F6000.000
G1 X97.328 Y92.676 F2700.000 E49.13947
G1 X98.291 Y92.676 F6000.000
G1 X119.325 Y113.710 F2700.000 E50.70038
G1 X121.121 Y115.506 F6000.000
G1 X146.529 Y140.915 F2700.000 E52.58592
G1 X146.528 Y139.950 F6000.000
G1 X99.254 Y92.676 F2700.000 E56.09408
G1 X100.217 Y92.676 F6000.000
G1 X146.525 Y138.985 F2700.000 E59.53062
G1 X146.524 Y138.021 F6000.000
G1 X101.180 Y92.676 F2700.000 E62.89559
G1 X102.143 Y92.676 F6000.000
G1 X146.522 Y137.055 F2700.000 E66.18893
G1 X146.520 Y136.090 F6000.000
G1 X103.106 Y92.676 F2700.000 E69.41065
G1 X104.068 Y92.677 F6000.000
G1 X146.518 Y135.126 F2700.000 E72.56080
G1 X146.516 Y134.161 F6000.000
G1 X105.031 Y92.677 F2700.000 E75.63932
G1 X105.994 Y92.677 F6000.000
G1 X146.514 Y133.197 F2700.000 E78.64627
G1 X146.512 Y132.231 F6000.000
G1 X106.957 Y92.677 F2700.000 E81.58161
G1 X107.920 Y92.677 F6000.000
G1 X146.511 Y131.267 F2700.000 E84.44538
G1 X146.509 Y130.302 F6000.000
G1 X108.883 Y92.677 F2700.000 E87.23752
G1 X109.846 Y92.677 F6000.000
G1 X146.506 Y129.337 F2700.000 E89.95803
G1 X146.505 Y128.372 F6000.000
G1 X110.810 Y92.677 F2700.000 E92.60697
G1 X111.773 Y92.677 F6000.000
G1 X146.503 Y127.407 F2700.000 E95.18428
G1 X146.501 Y126.442 F6000.000
G1 X112.735 Y92.676 F2700.000 E97.69006
G1 X113.698 Y92.676 F6000.000
G1 X146.499 Y125.477 F2700.000 E100.12422
G1 X146.497 Y124.512 F6000.000
G1 X114.661 Y92.676 F2700.000 E102.48676
G1 X115.624 Y92.676 F6000.000
G1 X146.496 Y123.547 F2700.000 E104.77772
G1 X146.494 Y122.582 F6000.000
G1 X116.587 Y92.676 F2700.000 E106.99705
G1 X117.550 Y92.677 F6000.000
G1 X146.492 Y121.618 F2700.000 E109.14481
G1 X146.489 Y120.653 F6000.000
G1 X118.513 Y92.677 F2700.000 E111.22094
G1 X119.476 Y92.677 F6000.000
G1 X146.487 Y119.688 F2700.000 E113.22544
G1 X146.486 Y118.724 F6000.000
G1 X120.439 Y92.677 F2700.000 E115.15837
G1 X121.402 Y92.677 F6000.000
G1 X146.484 Y117.758 F2700.000 E117.01968
G1 X146.482 Y116.794 F6000.000
G1 X122.365 Y92.677 F2700.000 E118.80941
G1 X123.328 Y92.677 F6000.000
G1 X146.480 Y115.829 F2700.000 E120.52751
G1 X146.478 Y114.863 F6000.000
G1 X124.291 Y92.677 F2700.000 E122.17398
G1 X125.254 Y92.676 F6000.000
G1 X146.477 Y113.899 F2700.000 E123.74893
G1 X146.475 Y112.934 F6000.000
G1 X126.217 Y92.676 F2700.000 E125.25226
G1 X127.180 Y92.676 F6000.000
G1 X146.473 Y111.969 F2700.000 E126.68401
G1 X146.471 Y111.004 F6000.000
G1 X128.143 Y92.676 F2700.000 E128.04414
G1 X129.106 Y92.676 F6000.000
G1 X146.470 Y110.040 F2700.000 E129.33269
G1 X146.467 Y109.075 F6000.000
G1 X130.068 Y92.677 F2700.000 E130.54961
G1 X131.031 Y92.677 F6000.000
G1 X146.465 Y108.110 F2700.000 E131.69490
G1 X146.463 Y107.145 F6000.000
G1 X131.994 Y92.677 F2700.000 E132.76863
G1 X132.958 Y92.677 F6000.000
G1 X146.461 Y106.180 F2700.000 E133.77072
G1 X146.460 Y105.216 F6000.000
G1 X133.921 Y92.677 F2700.000 E134.70124
G1 X134.884 Y92.677 F6000.000
G1 X146.458 Y104.251 F2700.000 E135.56013
G1 X146.455 Y103.285 F6000.000
G1 X135.847 Y92.677 F2700.000 E136.34740
G1 X136.810 Y92.677 F6000.000
G1 X146.454 Y102.321 F2700.000 E137.06309
G1 X146.452 Y101.356 F6000.000
G1 X137.773 Y92.677 F2700.000 E137.70716
G1 X138.736 Y92.677 F6000.000
