; generated by Slic3r 0.7.2b on 2012-06-06 at 08:10:18

; layer_height = 0.20
; perimeters = 2
; solid_layers = 3
; fill_density = .6
; nozzle_diameter = 0.5
; filament_diameter = 1.81
; extrusion_multiplier = 1.02
; perimeter_speed = 60
; infill_speed = 75
; travel_speed = 100
; extrusion_width_ratio = 0
; scale = 1
; single wall width = 0.70mm

M104 S187 ; set temperature
G28 ; home all
M140 S70 ; turn on bed
M109 S187 ; wait for temperature to be reached
G90 ; use absolute coordinates
G21 ; set units to millimeters
G92 E0 ; reset extrusion distance
M82 ; use absolute distances for extrusion
M107
G1 Z0.200 F6000.000
G1 X76.730 Y144.174
G1 F1200.000 E1.00000
G1 X77.190 Y143.964 F600.000 E1.02634
G1 X77.670 Y143.794 E1.05287
G1 X78.170 Y143.664 E1.07978
G1 X78.920 Y143.554 E1.11927
G1 X79.430 Y143.534 E1.14586
G1 X105.680 Y143.554 E2.51337
G1 X106.430 Y143.664 E2.55286
G1 X106.930 Y143.794 E2.57978
G1 X107.410 Y143.964 E2.60631
G1 X107.870 Y144.174 E2.63265
G1 X108.100 Y144.294 E2.64616
G1 X108.320 Y144.424 E2.65948
G1 X108.940 Y144.864 E2.69908
G1 X109.320 Y145.204 E2.72565
G1 X109.500 Y145.384 E2.73891
G1 X109.840 Y145.764 E2.76547
G1 X110.280 Y146.384 E2.80508
G1 X110.410 Y146.604 E2.81839
G1 X110.640 Y147.064 E2.84518
G1 X110.830 Y147.534 E2.87159
G1 X110.980 Y148.024 E2.89829
G1 X111.040 Y148.274 E2.91168
G1 X111.150 Y149.024 E2.95117
G1 X111.170 Y150.334 E3.01942
G1 X111.150 Y150.844 E3.04601
G1 X111.040 Y151.594 E3.08550
G1 X110.910 Y152.094 E3.11242
G1 X110.740 Y152.574 E3.13895
G1 X110.530 Y153.034 E3.16529
G1 X110.410 Y153.264 E3.17880
G1 X110.280 Y153.484 E3.19212
G1 X109.840 Y154.104 E3.23172
G1 X109.500 Y154.484 E3.25829
G1 X109.320 Y154.664 E3.27155
G1 X108.940 Y155.004 E3.29811
G1 X108.320 Y155.444 E3.33772
G1 X108.100 Y155.574 E3.35103
G1 X107.640 Y155.804 E3.37782
G1 X107.170 Y155.994 E3.40423
G1 X106.680 Y156.144 E3.43093
G1 X106.430 Y156.204 E3.44432
G1 X105.680 Y156.314 E3.48381
G1 X105.170 Y156.334 E3.51040
G1 X78.920 Y156.314 E4.87791
G1 X78.170 Y156.204 E4.91740
G1 X77.670 Y156.074 E4.94431
G1 X77.190 Y155.904 E4.97084
G1 X76.730 Y155.694 E4.99719
G1 X76.500 Y155.574 E5.01070
G1 X76.280 Y155.444 E5.02401
G1 X75.660 Y155.004 E5.06362
G1 X75.280 Y154.664 E5.09018
G1 X75.100 Y154.484 E5.10344
G1 X74.760 Y154.104 E5.13001
G1 X74.320 Y153.484 E5.16961
G1 X74.190 Y153.264 E5.18293
G1 X73.960 Y152.804 E5.20972
G1 X73.770 Y152.334 E5.23613
G1 X73.620 Y151.844 E5.26283
G1 X73.560 Y151.594 E5.27622
G1 X73.450 Y150.844 E5.31571
G1 X73.430 Y149.534 E5.38396
G1 X73.450 Y149.024 E5.41055
G1 X73.560 Y148.274 E5.45004
G1 X73.690 Y147.774 E5.47695
G1 X73.860 Y147.294 E5.50348
G1 X74.070 Y146.834 E5.52983
G1 X74.190 Y146.604 E5.54334
G1 X74.320 Y146.384 E5.55665
G1 X74.760 Y145.764 E5.59626
G1 X75.100 Y145.384 E5.62282
G1 X75.280 Y145.204 E5.63608
G1 X75.660 Y144.864 E5.66265
G1 X76.280 Y144.424 E5.70225
G1 X76.500 Y144.294 E5.71557
G1 X76.637 Y144.222 E5.72361
G1 F1200.000 E4.72361
G92 E0
G1 X79.433 Y149.538 F6000.000
G1 F1200.000 E1.00000
G1 X105.179 Y149.539 F600.000 E2.34124
G1 X105.179 Y150.339 E2.38291
G1 X79.433 Y150.338 E3.72415
G1 X79.433 Y149.643 E3.76036
M104 S180 ; set temperature
G1 F1200.000 E2.76036
G92 E0
G1 Z0.400 F6000.000
G1 X79.433 Y149.538
G1 F1200.000 E1.00000
G1 X105.179 Y149.539 F600.000 E2.34124
G1 X105.179 Y150.339 E2.38291
G1 X79.433 Y150.338 E3.72415
G1 X79.433 Y149.643 E3.76036
G1 F1200.000 E2.76036
G92 E0
G1 Z0.600 F6000.000
G1 X79.433 Y149.538
G1 F1200.000 E1.00000
G1 X105.179 Y149.539 F600.000 E2.34124
G1 X105.179 Y150.339 E2.38291
G1 X79.433 Y150.338 E3.72415
G1 X79.433 Y149.643 E3.76036
G1 F1200.000 E2.76036
G92 E0
G1 Z0.800 F6000.000
G1 X79.433 Y149.538
G1 F1200.000 E1.00000
G1 X105.179 Y149.539 F600.000 E2.34124
G1 X105.179 Y150.339 E2.38291
G1 X79.433 Y150.338 E3.72415
G1 X79.433 Y149.643 E3.76036
G1 F1200.000 E2.76036
G92 E0
G1 Z1.000 F6000.000
G1 X79.433 Y149.538
G1 F1200.000 E1.00000
G1 X105.179 Y149.539 F600.000 E2.34124
G1 X105.179 Y150.339 E2.38291
G1 X79.433 Y150.338 E3.72415
G1 X79.433 Y149.643 E3.76036
M106 S255
G1 F1200.000 E2.76036
G92 E0
G1 Z1.200 F6000.000
G1 X79.433 Y149.538
G1 F1200.000 E1.00000
G1 X105.179 Y149.539 F600.000 E2.34124
G1 X105.179 Y150.339 E2.38291
G1 X79.433 Y150.338 E3.72415
G1 X79.433 Y149.643 E3.76036
G1 F1200.000 E2.76036
G92 E0
G1 Z1.400 F6000.000
G1 X79.433 Y149.538
G1 F1200.000 E1.00000
G1 X105.179 Y149.539 F600.000 E2.34124
G1 X105.179 Y150.339 E2.38291
G1 X79.433 Y150.338 E3.72415
G1 X79.433 Y149.643 E3.76036
G1 F1200.000 E2.76036
G92 E0
G1 Z1.600 F6000.000
G1 X79.433 Y149.538
G1 F1200.000 E1.00000
G1 X105.179 Y149.539 F600.000 E2.34124
G1 X105.179 Y150.339 E2.38291
G1 X79.433 Y150.338 E3.72415
G1 X79.433 Y149.643 E3.76036
G1 F1200.000 E2.76036
G92 E0
G1 Z1.800 F6000.000
G1 X79.433 Y149.538
G1 F1200.000 E1.00000
G1 X105.179 Y149.539 F600.000 E2.34124
G1 X105.179 Y150.339 E2.38291
G1 X79.433 Y150.338 E3.72415
G1 X79.433 Y149.643 E3.76036
G1 F1200.000 E2.76036
G92 E0
G1 Z2.000 F6000.000
G1 X79.433 Y149.538
G1 F1200.000 E1.00000
G1 X105.179 Y149.539 F600.000 E2.34124
G1 X105.179 Y150.339 E2.38291
G1 X79.433 Y150.338 E3.72415
G1 X79.433 Y149.643 E3.76036
G1 F1200.000 E2.76036
G92 E0
G1 Z2.200 F6000.000
G1 X79.433 Y149.538
G1 F1200.000 E1.00000
G1 X105.179 Y149.539 F600.000 E2.34124
G1 X105.179 Y150.339 E2.38291
G1 X79.433 Y150.338 E3.72415
G1 X79.433 Y149.643 E3.76036
G1 F1200.000 E2.76036
G92 E0
G1 Z2.400 F6000.000
G1 X79.433 Y149.538
G1 F1200.000 E1.00000
G1 X105.179 Y149.539 F600.000 E2.34124
G1 X105.179 Y150.339 E2.38291
G1 X79.433 Y150.338 E3.72415
G1 X79.433 Y149.643 E3.76036
G1 F1200.000 E2.76036
G92 E0
G1 Z2.600 F6000.000
G1 X79.433 Y149.538
G1 F1200.000 E1.00000
G1 X105.179 Y149.539 F600.000 E2.34124
G1 X105.179 Y150.339 E2.38291
G1 X79.433 Y150.338 E3.72415
G1 X79.433 Y149.643 E3.76036
G1 F1200.000 E2.76036
G92 E0
G1 Z2.800 F6000.000
G1 X79.433 Y149.538
G1 F1200.000 E1.00000
G1 X105.179 Y149.539 F600.000 E2.34124
G1 X105.179 Y150.339 E2.38291
G1 X79.433 Y150.338 E3.72415
G1 X79.433 Y149.643 E3.76036
G1 F1200.000 E2.76036
G92 E0
G1 Z3.000 F6000.000
G1 X79.433 Y149.538
G1 F1200.000 E1.00000
G1 X105.179 Y149.539 F600.000 E2.34124
G1 X105.179 Y150.339 E2.38291
G1 X79.433 Y150.338 E3.72415
G1 X79.433 Y149.643 E3.76036
G1 F1200.000 E2.76036
G92 E0
G1 Z3.200 F6000.000
G1 X79.433 Y149.538
G1 F1200.000 E1.00000
G1 X105.179 Y149.539 F600.000 E2.34124
G1 X105.179 Y150.339 E2.38291
G1 X79.433 Y150.338 E3.72415
G1 X79.433 Y149.643 E3.76036
G1 F1200.000 E2.76036
G92 E0
G1 Z3.400 F6000.000
G1 X79.433 Y149.538
G1 F1200.000 E1.00000
G1 X105.179 Y149.539 F600.000 E2.34124
G1 X105.179 Y150.339 E2.38291
G1 X79.433 Y150.338 E3.72415
G1 X79.433 Y149.643 E3.76036
G1 F1200.000 E2.76036
G92 E0
G1 Z3.600 F6000.000
G1 X79.433 Y149.538
G1 F1200.000 E1.00000
G1 X105.179 Y149.539 F600.000 E2.34124
G1 X105.179 Y150.339 E2.38291
G1 X79.433 Y150.338 E3.72415
G1 X79.433 Y149.643 E3.76036
G1 F1200.000 E2.76036
G92 E0
G1 Z3.800 F6000.000
G1 X79.433 Y149.538
G1 F1200.000 E1.00000
G1 X105.179 Y149.539 F600.000 E2.34124
G1 X105.179 Y150.339 E2.38291
G1 X79.433 Y150.338 E3.72415
G1 X79.433 Y149.643 E3.76036
G1 F1200.000 E2.76036
G92 E0
G1 Z4.000 F6000.000
G1 X79.433 Y149.538
G1 F1200.000 E1.00000
G1 X105.179 Y149.539 F600.000 E2.34124
G1 X105.179 Y150.339 E2.38291
G1 X79.433 Y150.338 E3.72415
G1 X79.433 Y149.643 E3.76036
G1 F1200.000 E2.76036
G92 E0
G1 Z4.200 F6000.000
G1 X79.433 Y149.538
G1 F1200.000 E1.00000
G1 X105.179 Y149.539 F600.000 E2.34124
G1 X105.179 Y150.339 E2.38291
G1 X79.433 Y150.338 E3.72415
G1 X79.433 Y149.643 E3.76036
G1 F1200.000 E2.76036
G92 E0
G1 Z4.400 F6000.000
G1 X79.433 Y149.538
G1 F1200.000 E1.00000
G1 X105.179 Y149.539 F600.000 E2.34124
G1 X105.179 Y150.339 E2.38291
G1 X79.433 Y150.338 E3.72415
G1 X79.433 Y149.643 E3.76036
G1 F1200.000 E2.76036
G92 E0
G1 Z4.600 F6000.000
G1 X79.433 Y149.538
G1 F1200.000 E1.00000
G1 X105.179 Y149.539 F600.000 E2.34124
G1 X105.179 Y150.339 E2.38291
G1 X79.433 Y150.338 E3.72415
G1 X79.433 Y149.643 E3.76036
G1 F1200.000 E2.76036
G92 E0
G1 Z4.800 F6000.000
G1 X79.433 Y149.538
G1 F1200.000 E1.00000
G1 X105.179 Y149.539 F600.000 E2.34124
G1 X105.179 Y150.339 E2.38291
G1 X79.433 Y150.338 E3.72415
G1 X79.433 Y149.643 E3.76036
G1 F1200.000 E2.76036
G92 E0
G1 Z5.000 F6000.000
G1 X79.433 Y149.538
G1 F1200.000 E1.00000
G1 X105.179 Y149.539 F600.000 E2.34124
G1 X105.179 Y150.339 E2.38291
G1 X79.433 Y150.338 E3.72415
G1 X79.433 Y149.643 E3.76036
G1 F1200.000 E2.76036
G92 E0
G1 Z5.200 F6000.000
G1 X79.433 Y149.538
G1 F1200.000 E1.00000
G1 X105.179 Y149.539 F600.000 E2.34124
G1 X105.179 Y150.339 E2.38291
G1 X79.433 Y150.338 E3.72415
G1 X79.433 Y149.643 E3.76036
G1 F1200.000 E2.76036
G92 E0
G1 Z5.400 F6000.000
G1 X79.433 Y149.538
G1 F1200.000 E1.00000
G1 X105.179 Y149.539 F600.000 E2.34124
G1 X105.179 Y150.339 E2.38291
G1 X79.433 Y150.338 E3.72415
G1 X79.433 Y149.643 E3.76036
G1 F1200.000 E2.76036
G92 E0
G1 Z5.600 F6000.000
G1 X79.433 Y149.538
G1 F1200.000 E1.00000
G1 X105.179 Y149.539 F600.000 E2.34124
G1 X105.179 Y150.339 E2.38291
G1 X79.433 Y150.338 E3.72415
G1 X79.433 Y149.643 E3.76036
G1 F1200.000 E2.76036
G92 E0
G1 Z5.800 F6000.000
G1 X79.433 Y149.538
G1 F1200.000 E1.00000
G1 X105.179 Y149.539 F600.000 E2.34124
G1 X105.179 Y150.339 E2.38291
G1 X79.433 Y150.338 E3.72415
G1 X79.433 Y149.643 E3.76036
G1 F1200.000 E2.76036
G92 E0
G1 Z6.000 F6000.000
G1 X79.433 Y149.539
G1 F1200.000 E1.00000
G1 X105.179 Y149.539 F600.000 E2.34124
G1 X105.179 Y150.339 E2.38291
G1 X79.433 Y150.339 E3.72415
G1 X79.433 Y149.644 E3.76036
G1 F1200.000 E2.76036
G92 E0
G1 Z6.200 F6000.000
G1 X79.433 Y149.539
G1 F1200.000 E1.00000
G1 X105.179 Y149.539 F600.000 E2.34124
G1 X105.179 Y150.339 E2.38291
G1 X79.433 Y150.339 E3.72415
G1 X79.433 Y149.644 E3.76036
G1 F1200.000 E2.76036
G92 E0
G1 Z6.400 F6000.000
G1 X79.433 Y149.539
G1 F1200.000 E1.00000
G1 X100.244 Y149.539 F600.000 E2.08416
G1 X100.235 Y150.339 E2.12584
G1 X79.433 Y150.339 E3.20952
G1 X79.433 Y149.644 E3.24573
G1 F1200.000 E2.24573
G92 E0
G1 X101.714 Y149.540 F6000.000
G1 F1200.000 E1.00000
G1 X105.179 Y149.540 F600.000 E1.18053
G1 X105.179 Y150.340 E1.22220
G1 X101.723 Y150.339 E1.40225
G1 X101.715 Y149.644 E1.43846
G1 F1200.000 E0.43846
G92 E0
G1 Z6.600 F6000.000
G1 X99.221 Y149.540
G1 F1200.000 E1.00000
G1 X99.218 Y150.340 F600.000 E1.04168
G1 X79.433 Y150.340 E2.07235
G1 X79.433 Y149.540 E2.11403
G1 X99.116 Y149.540 E3.13939
G1 F1200.000 E2.13939
G92 E0
G1 X102.737 Y149.540 F6000.000
G1 F1200.000 E1.00000
G1 X105.179 Y149.540 F600.000 E1.12719
G1 X105.179 Y150.340 E1.16887
G1 X102.740 Y150.340 E1.29591
G1 X102.738 Y149.645 E1.33212
G1 F1200.000 E0.33212
G92 E0
G1 Z6.800 F6000.000
G1 X98.738 Y149.540
G1 F1200.000 E1.00000
G1 X98.735 Y150.340 F600.000 E1.04168
G1 X79.433 Y150.340 E2.04720
G1 X79.433 Y149.540 E2.08887
G1 X98.633 Y149.540 E3.08908
G1 F1200.000 E2.08908
G92 E0
G1 X103.220 Y149.540 F6000.000
G1 F1200.000 E1.00000
G1 X105.179 Y149.540 F600.000 E1.10204
G1 X105.179 Y150.340 E1.14372
G1 X103.223 Y150.340 E1.24561
G1 X103.221 Y149.645 E1.28181
G1 F1200.000 E0.28181
G92 E0
G1 Z7.000 F6000.000
G1 X103.658 Y149.540
G1 F1200.000 E1.00000
G1 X105.179 Y149.540 F600.000 E1.07926
G1 X105.179 Y150.340 E1.12094
G1 X103.659 Y150.340 E1.20012
G1 X103.658 Y149.645 E1.23633
G1 F1200.000 E0.23633
G92 E0
G1 X98.300 Y149.540 F6000.000
G1 F1200.000 E1.00000
G1 X98.299 Y150.340 F600.000 E1.04168
G1 X79.433 Y150.340 E2.02449
G1 X79.433 Y149.540 E2.06617
G1 X98.195 Y149.540 E3.04359
G1 F1200.000 E2.04359
G92 E0
G1 Z7.200 F6000.000
G1 X103.918 Y149.541
G1 F1200.000 E1.00000
G1 X105.179 Y149.541 F600.000 E1.06568
G1 X105.179 Y150.341 E1.10736
G1 X103.920 Y150.341 E1.17296
G1 X103.918 Y149.646 E1.20917
G1 F1200.000 E0.20917
G92 E0
G1 X98.040 Y149.541 F6000.000
G1 F1200.000 E1.00000
G1 X98.038 Y150.341 F600.000 E1.04168
G1 X79.433 Y150.340 E2.01091
G1 X79.433 Y149.540 E2.05259
G1 X97.935 Y149.541 E3.01644
G1 F1200.000 E2.01644
G92 E0
G1 Z7.400 F6000.000
G1 X104.179 Y149.541
G1 F1200.000 E1.00000
G1 X105.179 Y149.541 F600.000 E1.05211
G1 X105.179 Y150.341 E1.09378
G1 X104.180 Y150.341 E1.14581
G1 X104.179 Y149.646 E1.18201
G1 F1200.000 E0.18201
G92 E0
G1 X97.779 Y149.541 F6000.000
G1 F1200.000 E1.00000
G1 X97.778 Y150.341 F600.000 E1.04168
G1 X79.433 Y150.341 E1.99733
G1 X79.433 Y149.541 E2.03901
G1 X97.674 Y149.541 E2.98928
G1 F1200.000 E1.98928
G92 E0
G1 Z7.600 F6000.000
G1 X104.439 Y149.541
G1 F1200.000 E1.00000
G1 X105.126 Y149.541 F600.000 E1.03576
G1 X105.179 Y149.541 E1.03853
G1 X105.179 Y150.341 E1.08020
G1 X104.441 Y150.341 E1.11865
G1 X104.440 Y149.646 E1.15486
G1 F1200.000 E0.15486
G92 E0
G1 X97.519 Y149.541 F6000.000
G1 F1200.000 E1.00000
G1 X97.517 Y150.341 F600.000 E1.04168
G1 X79.433 Y150.341 E1.98375
G1 X79.433 Y149.541 E2.02543
G1 X97.414 Y149.541 E2.96212
G1 F1200.000 E1.96212
G92 E0
G1 Z7.800 F6000.000
G1 X97.321 Y149.542
G1 F1200.000 E1.00000
G1 X97.320 Y150.342 F600.000 E1.04168
G1 X79.433 Y150.341 E1.97350
G1 X79.433 Y149.541 E2.01518
G1 X97.216 Y149.542 E2.94159
G1 F1200.000 E1.94159
G92 E0
G1 Z8.000 F6000.000
G1 X97.168 Y149.542
G1 F1200.000 E1.00000
G1 X97.167 Y150.342 F600.000 E1.04168
G1 X79.433 Y150.342 E1.96551
G1 X79.433 Y149.542 E2.00719
G1 X97.063 Y149.542 E2.92560
G1 F1200.000 E1.92560
G92 E0
G1 Z8.200 F6000.000
G1 X97.014 Y149.542
G1 F1200.000 E1.00000
G1 X97.013 Y150.342 F600.000 E1.04168
G1 X79.433 Y150.342 E1.95751
G1 X79.433 Y149.542 E1.99919
G1 X96.909 Y149.542 E2.90961
G1 F1200.000 E1.90961
G92 E0
G1 Z8.400 F6000.000
G1 X96.861 Y149.542
G1 F1200.000 E1.00000
G1 X96.860 Y150.342 F600.000 E1.04168
G1 X79.433 Y150.342 E1.94952
G1 X79.433 Y149.542 E1.99120
G1 X96.756 Y149.542 E2.89362
G1 F1200.000 E1.89362
G92 E0
G1 Z8.600 F6000.000
G1 X96.707 Y149.543
G1 F1200.000 E1.00000
G1 X96.706 Y150.343 F600.000 E1.04168
G1 X79.433 Y150.343 E1.94152
G1 X79.433 Y149.543 E1.98320
G1 X96.602 Y149.543 E2.87763
G1 F1200.000 E1.87763
G92 E0
G1 X105.215 Y150.386 F6000.000
G1 F1200.000 E1.00000
G1 X105.215 Y149.507 F600.000 E1.04576
G1 F1200.000 E0.04576
G92 E0
G1 Z8.800 F6000.000
G1 X96.616 Y149.543
G1 F1200.000 E1.00000
G1 X96.615 Y150.343 F600.000 E1.04168
G1 X79.433 Y150.343 E1.93678
G1 X79.433 Y149.543 E1.97846
G1 X96.511 Y149.543 E2.86812
G1 F1200.000 E1.86812
G92 E0
G1 X105.261 Y150.431 F6000.000
G1 F1200.000 E1.00000
G1 X105.261 Y149.463 F600.000 E1.05040
G1 F1200.000 E0.05040
G92 E0
G1 Z9.000 F6000.000
G1 X96.533 Y149.543
G1 F1200.000 E1.00000
G1 X96.532 Y150.343 F600.000 E1.04168
G1 X79.433 Y150.343 E1.93247
G1 X79.433 Y149.543 E1.97414
G1 X96.428 Y149.543 E2.85949
G1 F1200.000 E1.85949
G92 E0
G1 X105.428 Y150.243 F6000.000
G1 F1200.000 E1.00000
G1 X105.334 Y149.405 F600.000 E1.04393
G1 F1200.000 E0.04393
G92 E0
G1 Z9.200 F6000.000
G1 X96.450 Y149.544
G1 F1200.000 E1.00000
G1 X96.450 Y150.344 F600.000 E1.04168
G1 X83.488 Y150.343 E1.71693
G1 X83.483 Y149.544 E1.75860
G1 X96.345 Y149.544 E2.42865
G1 F1200.000 E1.42865
G92 E0
G1 X81.275 Y149.544 F6000.000
G1 F1200.000 E1.00000
G1 X81.270 Y150.343 F600.000 E1.04167
G1 X79.433 Y150.343 E1.13736
G1 X79.433 Y149.543 E1.17904
G1 X81.170 Y149.544 E1.26950
G1 F1200.000 E0.26950
G92 E0
G1 X105.435 Y150.244 F6000.000
G1 F1200.000 E1.00000
G1 X105.366 Y149.387 F600.000 E1.04477
G1 F1200.000 E0.04477
G92 E0
G1 Z9.400 F6000.000
G1 X96.367 Y149.544
G1 F1200.000 E1.00000
G1 X96.367 Y150.344 F600.000 E1.04168
G1 X84.164 Y150.344 E1.67739
G1 X84.161 Y149.544 E1.71906
G1 X96.262 Y149.544 E2.34948
G1 F1200.000 E1.34948
G92 E0
G1 X80.597 Y149.544 F6000.000
G1 F1200.000 E1.00000
G1 X80.594 Y150.344 F600.000 E1.04167
G1 X79.433 Y150.344 E1.10214
G1 X79.433 Y149.544 E1.14382
G1 X80.492 Y149.544 E1.19896
G1 F1200.000 E0.19896
G92 E0
G1 X105.412 Y150.250 F6000.000
G1 F1200.000 E1.00000
G1 X105.283 Y149.644 F600.000 E1.03227
G1 F1200.000 E0.03227
G92 E0
G1 Z9.600 F6000.000
G1 X96.284 Y149.544
G1 F1200.000 E1.00000
G1 X96.284 Y150.344 F600.000 E1.04168
G1 X84.615 Y150.344 E1.64960
G1 X84.613 Y149.544 E1.69127
G1 X96.179 Y149.544 E2.29385
G1 F1200.000 E1.29385
G92 E0
G1 X80.145 Y149.544 F6000.000
G1 F1200.000 E1.00000
