; generated by Slic3r 0.7.2b on 2012-06-06 at 22:36:23

; layer_height = 0.20
; perimeters = 2
; solid_layers = 3
; fill_density = .6
; nozzle_diameter = 0.5
; filament_diameter = 1.81
; extrusion_multiplier = 1.02
; perimeter_speed = 60
; infill_speed = 75
; travel_speed = 100
; extrusion_width_ratio = 0
; scale = 1
; single wall width = 0.70mm

M104 S187 ; set temperature
G28 ; home all
M140 S70 ; turn on bed
M109 S187 ; wait for temperature to be reached
G90 ; use absolute coordinates
G21 ; set units to millimeters
G92 E0 ; reset extrusion distance
M82 ; use absolute distances for extrusion
M107
G1 Z0.200 F6000.000
G1 X48.120 Y85.650
G1 F1200.000 E1.00000
G1 X48.300 Y85.470 F2160.000 E1.01326
G1 X48.680 Y85.130 E1.03983
G1 X49.300 Y84.690 E1.07943
G1 X49.520 Y84.560 E1.09274
G1 X49.980 Y84.330 E1.11954
G1 X50.450 Y84.140 E1.14595
G1 X50.940 Y83.990 E1.17264
G1 X51.190 Y83.930 E1.18604
G1 X51.940 Y83.820 E1.22553
G1 X52.450 Y83.800 E1.25212
G1 X141.560 Y83.820 E5.89436
G1 X142.070 Y83.890 E5.92117
G1 X142.570 Y83.990 E5.94774
G1 X143.050 Y84.140 E5.97394
G1 X143.290 Y84.230 E5.98729
G1 X143.760 Y84.450 E6.01432
G1 X144.420 Y84.830 E6.05400
G1 X144.630 Y84.980 E6.06744
G1 X145.020 Y85.300 E6.09372
G1 X145.390 Y85.660 E6.12062
G1 X145.730 Y86.040 E6.14718
G1 X146.030 Y86.450 E6.17365
G1 X146.420 Y87.110 E6.21358
G1 X146.710 Y87.820 E6.25354
G1 X153.430 Y113.920 E7.65758
G1 X153.520 Y114.520 E7.68919
G1 X153.550 Y130.030 E8.49719
G1 X153.060 Y134.650 E8.73922
G1 X152.320 Y138.560 E8.94653
G1 X151.310 Y142.450 E9.15590
G1 X150.010 Y146.240 E9.36464
G1 X148.460 Y149.890 E9.57122
G1 X146.820 Y153.130 E9.76040
G1 X146.690 Y153.350 E9.77371
G1 X146.250 Y153.970 E9.81332
G1 X145.910 Y154.350 E9.83988
G1 X145.540 Y154.710 E9.86678
G1 X145.150 Y155.030 E9.89306
G1 X144.500 Y155.440 E9.93310
G1 X144.280 Y155.560 E9.94615
G1 X143.820 Y155.770 E9.97249
G1 X143.340 Y155.940 E9.99902
G1 X142.840 Y156.070 E10.02594
G1 X142.090 Y156.180 E10.06543
G1 X141.580 Y156.200 E10.09201
G1 X51.940 Y156.180 E14.76187
G1 X51.190 Y156.070 E14.80135
G1 X50.690 Y155.940 E14.82827
G1 X50.210 Y155.770 E14.85480
G1 X49.750 Y155.560 E14.88114
G1 X49.520 Y155.440 E14.89465
G1 X49.300 Y155.310 E14.90797
G1 X48.680 Y154.870 E14.94757
G1 X48.300 Y154.530 E14.97414
G1 X48.120 Y154.350 E14.98740
G1 X47.780 Y153.970 E15.01396
G1 X47.340 Y153.350 E15.05357
G1 X47.210 Y153.130 E15.06688
G1 X46.980 Y152.670 E15.09367
G1 X46.790 Y152.200 E15.12008
G1 X46.640 Y151.710 E15.14678
G1 X46.580 Y151.460 E15.16017
G1 X46.470 Y150.710 E15.19966
G1 X46.470 Y89.290 E18.39938
G1 X46.580 Y88.540 E18.43886
G1 X46.710 Y88.040 E18.46578
G1 X46.880 Y87.560 E18.49231
G1 X47.090 Y87.100 E18.51865
G1 X47.210 Y86.870 E18.53216
G1 X47.340 Y86.650 E18.54548
G1 X47.780 Y86.030 E18.58508
G1 X48.050 Y85.728 E18.60618
G1 F1200.000 E17.60618
G92 E0
G1 X59.816 Y140.074 F6000.000
G1 F1200.000 E1.00000
G1 X60.950 Y140.133 F2160.000 E1.05917
G1 X62.032 Y140.485 E1.11844
G1 X62.985 Y141.103 E1.17762
G1 X63.508 Y141.684 E1.21831
G1 X71.820 Y141.684 E1.65134
G1 X71.820 Y146.484 E1.90140
G1 X63.960 Y146.484 E2.31088
G1 X63.469 Y147.239 E2.35781
G1 X62.626 Y148.001 E2.41697
G1 X61.612 Y148.517 E2.47626
G1 X60.502 Y148.754 E2.53538
G1 X59.366 Y148.695 E2.59467
G1 X58.286 Y148.343 E2.65383
G1 X57.333 Y147.725 E2.71300
G1 X56.571 Y146.880 E2.77225
G1 X56.055 Y145.868 E2.83143
G1 X55.818 Y144.758 E2.89058
G1 X55.879 Y143.622 E2.94986
G1 X56.229 Y142.542 E3.00897
G1 X56.847 Y141.589 E3.06816
G1 X57.692 Y140.827 E3.12741
G1 X58.704 Y140.311 E3.18659
G1 X59.713 Y140.096 E3.24035
G1 X59.762 Y139.392 F6000.000
G1 X61.075 Y139.460 F2160.000 E3.30886
G1 X62.327 Y139.868 E3.37743
G1 X63.430 Y140.583 E3.44591
G1 X63.810 Y141.005 E3.47553
G1 X72.499 Y141.005 E3.92817
G1 X72.499 Y147.163 E4.24892
G1 X64.328 Y147.163 E4.67458
G1 X63.989 Y147.683 E4.70693
G1 X63.014 Y148.565 E4.77540
G1 X61.840 Y149.162 E4.84401
G1 X60.556 Y149.436 E4.91242
G1 X59.240 Y149.368 E4.98106
G1 X57.991 Y148.960 E5.04954
G1 X56.889 Y148.245 E5.11797
G1 X56.007 Y147.268 E5.18654
G1 X55.410 Y146.097 E5.25502
G1 X55.136 Y144.811 E5.32350
G1 X55.206 Y143.496 E5.39210
G1 X55.611 Y142.248 E5.46049
G1 X56.327 Y141.145 E5.52897
G1 X57.304 Y140.263 E5.59754
G1 X58.475 Y139.666 E5.66603
G1 X59.659 Y139.414 E5.72909
G1 F1200.000 E4.72909
G92 E0
G1 X61.256 Y99.928 F6000.000
G1 F1200.000 E1.00000
G1 X60.122 Y99.867 F2160.000 E1.05916
G1 X59.040 Y99.517 E1.11838
G1 X58.087 Y98.898 E1.17758
G1 X57.327 Y98.054 E1.23674
G1 X56.809 Y97.042 E1.29598
G1 X56.574 Y95.930 E1.35521
G1 X56.633 Y94.796 E1.41435
G1 X56.983 Y93.714 E1.47358
G1 X57.602 Y92.761 E1.53278
G1 X58.446 Y92.001 E1.59196
G1 X59.458 Y91.485 E1.65113
G1 X60.570 Y91.248 E1.71037
G1 X61.704 Y91.307 E1.76952
G1 X62.786 Y91.657 E1.82877
G1 X63.739 Y92.278 E1.88801
G1 X64.263 Y92.858 E1.92876
G1 X72.574 Y92.858 E2.36170
G1 X72.574 Y97.658 E2.61176
G1 X64.714 Y97.658 E3.02122
G1 X64.225 Y98.413 E3.06810
G1 X63.380 Y99.175 E3.12735
G1 X62.368 Y99.691 E3.18653
G1 X61.358 Y99.906 E3.24032
G1 X61.309 Y100.610 F6000.000
G1 X59.997 Y100.540 F2160.000 E3.30878
G1 X58.746 Y100.135 E3.37727
G1 X57.642 Y99.419 E3.44580
G1 X56.764 Y98.442 E3.51426
G1 X56.164 Y97.271 E3.58281
G1 X55.892 Y95.983 E3.65137
G1 X55.960 Y94.672 E3.71978
G1 X56.365 Y93.420 E3.78832
G1 X57.081 Y92.316 E3.85685
G1 X58.059 Y91.437 E3.92535
G1 X59.229 Y90.840 E3.99380
G1 X60.516 Y90.566 E4.06234
G1 X61.828 Y90.634 E4.13080
G1 X63.081 Y91.040 E4.19938
G1 X64.183 Y91.757 E4.26792
G1 X64.565 Y92.179 E4.29757
G1 X73.253 Y92.179 E4.75016
G1 X73.253 Y98.337 E5.07091
G1 X65.083 Y98.337 E5.49652
G1 X64.745 Y98.857 E5.52884
G1 X63.768 Y99.739 E5.59740
G1 X62.597 Y100.336 E5.66590
G1 X61.412 Y100.588 E5.72901
G1 F1200.000 E4.72901
G92 E0
G1 X122.001 Y139.766 F6000.000
G1 F1200.000 E1.00000
G1 X122.620 Y138.813 F2160.000 E1.05920
G1 X123.464 Y138.053 E1.11838
G1 X124.476 Y137.537 E1.17755
G1 X125.588 Y137.300 E1.23679
G1 X126.722 Y137.359 E1.29594
G1 X127.804 Y137.709 E1.35518
G1 X128.757 Y138.327 E1.41437
G1 X129.282 Y138.910 E1.45522
G1 X137.592 Y138.910 E1.88814
G1 X137.592 Y143.710 E2.13820
G1 X129.732 Y143.710 E2.54766
G1 X129.242 Y144.465 E2.59455
G1 X128.398 Y145.225 E2.65372
G1 X127.386 Y145.743 E2.71295
G1 X126.274 Y145.978 E2.77218
G1 X125.138 Y145.919 E2.83143
G1 X124.058 Y145.569 E2.89056
G1 X123.105 Y144.951 E2.94975
G1 X122.343 Y144.106 E3.00900
G1 X121.827 Y143.094 E3.06820
G1 X121.592 Y141.982 E3.12741
G1 X121.651 Y140.848 E3.18655
G1 X121.969 Y139.866 E3.24031
G1 X121.383 Y139.472 F6000.000
G1 X122.099 Y138.368 F2160.000 E3.30885
G1 X123.077 Y137.489 E3.37734
G1 X124.247 Y136.892 E3.44580
G1 X125.534 Y136.618 E3.51433
G1 X126.846 Y136.686 E3.58279
G1 X128.098 Y137.091 E3.65133
G1 X129.201 Y137.807 E3.71985
G1 X129.584 Y138.231 E3.74962
G1 X138.271 Y138.231 E4.20216
G1 X138.271 Y144.389 E4.52292
G1 X130.101 Y144.389 E4.94852
G1 X129.763 Y144.910 E4.98088
G1 X128.786 Y145.788 E5.04933
G1 X127.615 Y146.388 E5.11788
G1 X126.327 Y146.660 E5.18644
G1 X125.013 Y146.592 E5.25497
G1 X123.764 Y146.187 E5.32341
G1 X122.661 Y145.471 E5.39189
G1 X121.779 Y144.494 E5.46046
G1 X121.182 Y143.322 E5.52900
G1 X120.910 Y142.035 E5.59751
G1 X120.978 Y140.724 E5.66592
G1 X121.351 Y139.572 E5.72899
G1 F1200.000 E4.72899
G92 E0
G1 X141.168 Y149.521 F6000.000
G1 F1200.000 E1.00000
G1 X53.129 Y149.521 F2160.000 E5.58648
G1 X53.129 Y90.479 E8.66236
G1 X140.371 Y90.479 E13.20733
G1 X140.371 Y110.566 E14.25378
G1 X141.534 Y110.775 E14.31531
G1 X142.247 Y110.978 E14.35395
G1 X142.936 Y111.247 E14.39249
G1 X143.598 Y111.585 E14.43119
G1 X144.225 Y111.982 E14.46986
G1 X144.808 Y112.436 E14.50836
G1 X145.349 Y112.949 E14.54717
G1 X145.835 Y113.507 E14.58576
G1 X146.266 Y114.112 E14.62444
G1 X146.636 Y114.755 E14.66308
G1 X146.871 Y115.273 E14.69271
G1 X146.871 Y129.994 E15.45961
G1 X146.490 Y133.471 E15.64185
G1 X145.855 Y136.932 E15.82516
G1 X144.974 Y140.336 E16.00836
G1 X143.849 Y143.671 E16.19171
G1 X142.490 Y146.914 E16.37489
G1 X141.216 Y149.428 E16.52170
G1 X141.585 Y150.200 F6000.000
G1 X52.450 Y150.200 F2160.000 E21.16524
G1 X52.450 Y89.800 E24.31182
G1 X141.050 Y89.800 E28.92749
G1 X141.050 Y109.999 E29.97974
G1 X141.687 Y110.113 E30.01346
G1 X142.464 Y110.334 E30.05555
G1 X143.214 Y110.628 E30.09752
G1 X143.935 Y110.994 E30.13962
G1 X144.616 Y111.427 E30.18167
G1 X145.224 Y111.900 E30.22179
G1 X145.228 Y111.900 E30.22200
G1 X145.232 Y111.903 E30.22228
G1 X145.839 Y112.479 E30.26585
G1 X146.369 Y113.087 E30.30787
G1 X146.837 Y113.745 E30.34997
G1 X147.240 Y114.444 E30.39200
G1 X147.550 Y115.126 E30.43100
G1 X147.550 Y130.031 E31.20749
G1 X147.161 Y133.569 E31.39293
G1 X146.518 Y137.078 E31.57880
G1 X145.624 Y140.530 E31.76454
G1 X144.484 Y143.911 E31.95043
G1 X143.106 Y147.199 E32.13615
G1 X141.632 Y150.106 E32.30595
G1 X141.030 Y148.881 F6000.000
G1 X137.018 Y144.869 F2700.000 E32.60337
G1 X136.057 Y144.869 F6000.000
G1 X140.228 Y149.040 F2700.000 E32.91258
G1 X139.266 Y149.041 F6000.000
G1 X135.094 Y144.869 F2700.000 E33.22185
G1 X134.131 Y144.869 F6000.000
G1 X138.303 Y149.040 F2700.000 E33.53112
G1 X137.341 Y149.041 F6000.000
G1 X133.169 Y144.869 F2700.000 E33.84039
G1 X132.206 Y144.869 F6000.000
G1 X136.378 Y149.040 F2700.000 E34.14966
G1 X135.416 Y149.041 F6000.000
G1 X131.244 Y144.869 F2700.000 E34.45893
G1 X130.281 Y144.869 F6000.000
G1 X134.453 Y149.041 F2700.000 E34.76819
G1 X133.491 Y149.040 F6000.000
G1 X129.833 Y145.383 F2700.000 E35.03930
G1 X129.326 Y145.839 F6000.000
G1 X132.528 Y149.041 F2700.000 E35.27665
G1 X131.566 Y149.040 F6000.000
G1 X128.780 Y146.254 F2700.000 E35.48318
G1 X128.143 Y146.580 F6000.000
G1 X130.603 Y149.041 F2700.000 E35.66560
G1 X129.641 Y149.040 F6000.000
G1 X127.472 Y146.872 F2700.000 E35.82636
G1 X126.678 Y147.040 F6000.000
G1 X128.679 Y149.041 F2700.000 E35.97471
G1 X127.716 Y149.041 F6000.000
G1 X125.799 Y147.125 F2700.000 E36.11676
G1 X124.785 Y147.072 F6000.000
G1 X126.753 Y149.040 F2700.000 E36.26269
G1 X125.791 Y149.041 F6000.000
G1 X123.397 Y146.648 F2700.000 E36.44013
G1 X123.866 Y149.041 F6000.000
G1 X73.642 Y98.817 F2700.000 E40.16328
G1 X73.733 Y97.945 F6000.000
G1 X124.829 Y149.040 F2700.000 E43.95100
G1 X122.903 Y149.041 F6000.000
G1 X72.679 Y98.817 F2700.000 E47.67412
G1 X71.717 Y98.817 F6000.000
G1 X121.941 Y149.041 F2700.000 E51.39728
G1 X120.978 Y149.041 F6000.000
G1 X70.754 Y98.817 F2700.000 E55.12041
G1 X69.792 Y98.817 F6000.000
G1 X120.016 Y149.040 F2700.000 E58.84352
G1 X119.054 Y149.041 F6000.000
G1 X68.830 Y98.817 F2700.000 E62.56666
G1 X67.868 Y98.817 F6000.000
G1 X118.091 Y149.040 F2700.000 E66.28977
G1 X117.129 Y149.041 F6000.000
G1 X66.905 Y98.817 F2700.000 E70.01292
G1 X65.942 Y98.817 F6000.000
G1 X116.166 Y149.041 F2700.000 E73.73605
G1 X115.204 Y149.041 F6000.000
G1 X65.146 Y98.983 F2700.000 E77.44689
G1 X64.666 Y99.466 F6000.000
G1 X114.241 Y149.041 F2700.000 E81.12193
G1 X113.279 Y149.040 F6000.000
G1 X64.160 Y99.922 F2700.000 E84.76311
G1 X63.575 Y100.300 F6000.000
G1 X112.316 Y149.041 F2700.000 E88.37634
G1 X111.354 Y149.040 F6000.000
G1 X62.938 Y100.624 F2700.000 E91.96546
G1 X62.220 Y100.870 F6000.000
G1 X110.392 Y149.041 F2700.000 E95.53645
G1 X109.428 Y149.041 F6000.000
G1 X61.426 Y101.039 F2700.000 E99.09487
G1 X60.484 Y101.058 F6000.000
G1 X108.467 Y149.041 F2700.000 E102.65190
G1 X107.504 Y149.041 F6000.000
G1 X59.383 Y100.921 F2700.000 E106.21909
G1 X57.689 Y100.188 F6000.000
G1 X106.541 Y149.040 F2700.000 E109.84058
G1 X105.579 Y149.041 F6000.000
G1 X53.609 Y97.071 F2700.000 E113.69315
G1 X53.609 Y98.033 F6000.000
G1 X104.617 Y149.040 F2700.000 E117.47435
G1 X103.654 Y149.041 F6000.000
G1 X53.609 Y98.996 F2700.000 E121.18423
G1 X53.609 Y99.959 F6000.000
G1 X102.691 Y149.041 F2700.000 E124.82274
G1 X101.729 Y149.040 F6000.000
G1 X53.609 Y100.921 F2700.000 E128.38988
G1 X53.609 Y101.884 F6000.000
G1 X100.766 Y149.041 F2700.000 E131.88570
G1 X99.804 Y149.040 F6000.000
G1 X53.609 Y102.846 F2700.000 E135.31015
G1 X53.609 Y103.809 F6000.000
G1 X98.842 Y149.041 F2700.000 E138.66327
G1 X97.879 Y149.040 F6000.000
G1 X53.609 Y104.771 F2700.000 E141.94503
G1 X53.609 Y105.733 F6000.000
G1 X96.917 Y149.041 F2700.000 E145.15547
G1 X95.954 Y149.041 F6000.000
G1 X53.609 Y106.696 F2700.000 E148.29453
G1 X53.609 Y107.658 F6000.000
G1 X94.991 Y149.040 F2700.000 E151.36223
G1 X94.029 Y149.041 F6000.000
G1 X53.609 Y108.621 F2700.000 E154.35860
G1 X53.609 Y109.583 F6000.000
G1 X93.067 Y149.040 F2700.000 E157.28361
G1 X92.104 Y149.041 F6000.000
G1 X53.609 Y110.546 F2700.000 E160.13729
G1 X53.609 Y111.508 F6000.000
G1 X91.142 Y149.040 F2700.000 E162.91961
G1 X90.180 Y149.041 F6000.000
G1 X53.609 Y112.471 F2700.000 E165.63060
G1 X53.609 Y113.433 F6000.000
G1 X89.216 Y149.041 F2700.000 E168.27022
G1 X88.254 Y149.040 F6000.000
G1 X53.609 Y114.396 F2700.000 E170.83848
G1 X53.609 Y115.358 F6000.000
G1 X87.292 Y149.041 F2700.000 E173.33541
G1 X86.329 Y149.040 F6000.000
G1 X53.609 Y116.320 F2700.000 E175.76097
G1 X53.609 Y117.283 F6000.000
G1 X85.367 Y149.041 F2700.000 E178.11521
G1 X84.404 Y149.041 F6000.000
G1 X53.609 Y118.246 F2700.000 E180.39808
G1 X53.609 Y119.208 F6000.000
G1 X83.442 Y149.041 F2700.000 E182.60963
G1 X82.479 Y149.041 F6000.000
G1 X53.609 Y120.171 F2700.000 E184.74981
G1 X53.609 Y121.133 F6000.000
G1 X73.001 Y140.525 F2700.000 E186.18734
G1 X72.979 Y140.503 F6000.000
G1 X81.517 Y149.040 F2700.000 E186.82024
G1 X80.554 Y149.041 F6000.000
G1 X72.979 Y141.466 F2700.000 E187.38180
G1 X72.979 Y142.428 F6000.000
G1 X79.592 Y149.040 F2700.000 E187.87202
G1 X78.630 Y149.041 F6000.000
G1 X72.979 Y143.391 F2700.000 E188.29089
G1 X72.978 Y144.353 F6000.000
G1 X77.667 Y149.041 F2700.000 E188.63843
G1 X76.705 Y149.041 F6000.000
G1 X72.979 Y145.315 F2700.000 E188.91462
G1 X72.979 Y146.279 F6000.000
G1 X75.742 Y149.041 F2700.000 E189.11942
G1 X74.779 Y149.040 F6000.000
G1 X72.979 Y147.240 F2700.000 E189.25287
G1 X72.419 Y147.643 F6000.000
G1 X73.817 Y149.041 F2700.000 E189.35650
G1 X72.855 Y149.040 F6000.000
G1 X71.457 Y147.643 F2700.000 E189.46013
G1 X70.494 Y147.643 F6000.000
G1 X71.892 Y149.041 F2700.000 E189.56377
G1 X70.929 Y149.041 F6000.000
G1 X69.531 Y147.643 F2700.000 E189.66740
G1 X68.570 Y147.643 F6000.000
G1 X69.968 Y149.041 F2700.000 E189.77103
G1 X69.005 Y149.041 F6000.000
G1 X67.607 Y147.643 F2700.000 E189.87466
G1 X66.644 Y147.643 F6000.000
G1 X68.042 Y149.040 F2700.000 E189.97829
G1 X67.080 Y149.041 F6000.000
G1 X65.682 Y147.643 F2700.000 E190.08192
G1 X64.719 Y147.643 F6000.000
G1 X66.117 Y149.040 F2700.000 E190.18555
G1 X65.155 Y149.041 F6000.000
G1 X64.171 Y148.057 F2700.000 E190.25852
G1 X63.665 Y148.514 F6000.000
G1 X64.192 Y149.041 F2700.000 E190.29757
G1 F1200.000 E189.29757
G92 E0
G1 X56.492 Y149.040 F6000.000
G1 F1200.000 E1.00000
G1 X53.609 Y146.157 F2700.000 E1.21373
G1 X53.609 Y145.195 F6000.000
G1 X54.990 Y146.576 F2700.000 E1.31610
G1 X54.709 Y145.332 F6000.000
G1 X53.609 Y144.233 F2700.000 E1.39763
G1 X53.609 Y143.270 F6000.000
G1 X54.690 Y144.350 F2700.000 E1.47772
G1 X54.765 Y143.464 F6000.000
G1 X53.609 Y142.308 F2700.000 E1.56345
G1 X53.609 Y141.345 F6000.000
G1 X55.002 Y142.737 F2700.000 E1.66667
G1 X55.265 Y142.039 F6000.000
G1 X53.609 Y140.383 F2700.000 E1.78941
G1 X53.609 Y139.420 F6000.000
G1 X55.644 Y141.454 F2700.000 E1.94023
G1 X56.028 Y140.877 F6000.000
G1 X53.609 Y138.458 F2700.000 E2.11956
G1 X53.609 Y137.495 F6000.000
G1 X56.534 Y140.420 F2700.000 E2.33641
G1 X57.041 Y139.964 F6000.000
G1 X53.609 Y136.532 F2700.000 E2.59077
G1 X53.609 Y135.570 F6000.000
G1 X57.659 Y139.620 F2700.000 E2.89096
G1 X58.296 Y139.295 F6000.000
G1 X53.609 Y134.608 F2700.000 E3.23842
G1 X53.609 Y133.645 F6000.000
G1 X59.053 Y139.090 F2700.000 E3.64200
G1 X59.847 Y138.920 F6000.000
G1 X53.609 Y132.683 F2700.000 E4.10439
G1 X53.609 Y131.721 F6000.000
G1 X60.845 Y138.957 F2700.000 E4.64079
G1 X62.048 Y139.197 F6000.000
G1 X53.609 Y130.758 F2700.000 E5.26637
G1 X53.609 Y129.795 F6000.000
G1 X64.339 Y140.525 F2700.000 E6.06177
G1 X65.301 Y140.525 F6000.000
G1 X53.609 Y128.833 F2700.000 E6.92849
G1 X53.609 Y127.870 F6000.000
