; generated by Slic3r 0.7.2b on 2012-06-06 at 08:20:37

; layer_height = 0.20
; perimeters = 2
; solid_layers = 3
; fill_density = .6
; nozzle_diameter = 0.5
; filament_diameter = 1.81
; extrusion_multiplier = 1.02
; perimeter_speed = 60
; infill_speed = 75
; travel_speed = 100
; extrusion_width_ratio = 0
; scale = 1
; single wall width = 0.70mm

M104 S187 ; set temperature
G28 ; home all
M140 S70 ; turn on bed
M109 S187 ; wait for temperature to be reached
G90 ; use absolute coordinates
G21 ; set units to millimeters
G92 E0 ; reset extrusion distance
M82 ; use absolute distances for extrusion
M107
G1 Z0.200 F6000.000
G1 X48.120 Y85.650
G1 F1200.000 E1.00000
G1 X48.300 Y85.470 F2160.000 E1.01326
G1 X48.680 Y85.130 E1.03983
G1 X49.300 Y84.690 E1.07943
G1 X49.520 Y84.560 E1.09274
G1 X49.980 Y84.330 E1.11954
G1 X50.450 Y84.140 E1.14595
G1 X50.940 Y83.990 E1.17264
G1 X51.190 Y83.930 E1.18604
G1 X51.940 Y83.820 E1.22553
G1 X52.450 Y83.800 E1.25212
G1 X141.560 Y83.820 E5.89436
G1 X142.070 Y83.890 E5.92117
G1 X142.570 Y83.990 E5.94774
G1 X143.050 Y84.140 E5.97394
G1 X143.290 Y84.230 E5.98729
G1 X143.760 Y84.450 E6.01432
G1 X144.420 Y84.830 E6.05400
G1 X144.630 Y84.980 E6.06744
G1 X145.020 Y85.300 E6.09372
G1 X145.390 Y85.660 E6.12062
G1 X145.730 Y86.040 E6.14718
G1 X146.030 Y86.450 E6.17365
G1 X146.420 Y87.110 E6.21358
G1 X146.710 Y87.820 E6.25354
G1 X153.430 Y113.920 E7.65758
G1 X153.520 Y114.520 E7.68919
G1 X153.550 Y130.030 E8.49719
G1 X153.080 Y134.550 E8.73393
G1 X152.730 Y136.630 E8.84381
G1 X151.950 Y140.130 E9.03062
G1 X150.690 Y144.350 E9.26006
G1 X149.260 Y148.080 E9.46816
G1 X146.760 Y153.230 E9.76640
G1 X146.480 Y153.670 E9.79357
G1 X146.160 Y154.080 E9.82066
G1 X145.800 Y154.460 E9.84793
G1 X145.420 Y154.810 E9.87484
G1 X145.000 Y155.130 E9.90235
G1 X144.560 Y155.410 E9.92952
G1 X144.340 Y155.530 E9.94258
G1 X143.860 Y155.750 E9.97008
G1 X143.370 Y155.930 E9.99728
G1 X142.870 Y156.060 E10.02419
G1 X142.360 Y156.150 E10.05117
G1 X142.100 Y156.180 E10.06481
G1 X141.580 Y156.200 E10.09192
G1 X51.940 Y156.180 E14.76177
G1 X51.190 Y156.070 E14.80126
G1 X50.690 Y155.940 E14.82817
G1 X50.210 Y155.770 E14.85470
G1 X49.750 Y155.560 E14.88104
G1 X49.520 Y155.440 E14.89456
G1 X49.300 Y155.310 E14.90787
G1 X48.680 Y154.870 E14.94747
G1 X48.300 Y154.530 E14.97404
G1 X48.120 Y154.350 E14.98730
G1 X47.780 Y153.970 E15.01386
G1 X47.340 Y153.350 E15.05347
G1 X47.210 Y153.130 E15.06678
G1 X46.980 Y152.670 E15.09357
G1 X46.790 Y152.200 E15.11998
G1 X46.640 Y151.710 E15.14668
G1 X46.580 Y151.460 E15.16007
G1 X46.470 Y150.710 E15.19956
G1 X46.470 Y89.290 E18.39928
G1 X46.580 Y88.540 E18.43877
G1 X46.710 Y88.040 E18.46568
G1 X46.880 Y87.560 E18.49221
G1 X47.090 Y87.100 E18.51855
G1 X47.210 Y86.870 E18.53207
G1 X47.340 Y86.650 E18.54538
G1 X47.780 Y86.030 E18.58498
G1 X48.050 Y85.728 E18.60608
G1 F1200.000 E17.60608
G92 E0
G1 X57.602 Y92.761 F6000.000
G1 F1200.000 E1.00000
G1 X58.446 Y92.001 F2160.000 E1.05918
G1 X59.458 Y91.485 E1.11835
G1 X60.570 Y91.248 E1.17758
G1 X61.704 Y91.307 E1.23674
G1 X62.786 Y91.657 E1.29599
G1 X63.739 Y92.278 E1.35523
G1 X64.263 Y92.858 E1.39598
G1 X72.574 Y92.858 E1.82892
G1 X72.574 Y97.658 E2.07898
G1 X64.714 Y97.658 E2.48844
G1 X64.225 Y98.413 E2.53532
G1 X63.380 Y99.175 E2.59457
G1 X62.368 Y99.691 E2.65375
G1 X61.256 Y99.928 E2.71301
G1 X60.122 Y99.867 E2.77217
G1 X59.040 Y99.517 E2.83138
G1 X58.087 Y98.898 E2.89059
G1 X57.327 Y98.054 E2.94975
G1 X56.809 Y97.042 E3.00898
G1 X56.574 Y95.930 E3.06821
G1 X56.633 Y94.796 E3.12735
G1 X56.983 Y93.714 E3.18658
G1 X57.544 Y92.849 E3.24032
G1 X57.081 Y92.316 F6000.000
G1 X58.059 Y91.437 F2160.000 E3.30882
G1 X59.229 Y90.840 E3.37727
G1 X60.516 Y90.566 E3.44581
G1 X61.828 Y90.634 E3.51427
G1 X63.081 Y91.040 E3.58285
G1 X64.183 Y91.757 E3.65138
G1 X64.565 Y92.179 E3.68104
G1 X73.253 Y92.179 E4.13362
G1 X73.253 Y98.337 E4.45438
G1 X65.083 Y98.337 E4.87998
G1 X64.745 Y98.857 E4.91230
G1 X63.768 Y99.739 E4.98087
G1 X62.597 Y100.336 E5.04936
G1 X61.309 Y100.610 E5.11795
G1 X59.997 Y100.540 E5.18642
G1 X58.746 Y100.135 E5.25490
G1 X57.642 Y99.419 E5.32344
G1 X56.764 Y98.442 E5.39189
G1 X56.164 Y97.271 E5.46044
G1 X55.892 Y95.983 E5.52900
G1 X55.960 Y94.672 E5.59741
G1 X56.365 Y93.420 E5.66595
G1 X57.024 Y92.404 E5.72901
G1 F1200.000 E4.72901
G92 E0
G1 X74.152 Y99.095 F6000.000
G1 F1200.000 E1.00000
G1 X78.213 Y95.034 F2160.000 E1.29919
G1 X81.867 Y95.034 E1.48955
G1 X81.978 Y95.303 E1.50469
G1 X74.417 Y102.789 E2.05898
G1 X74.152 Y102.678 E2.07392
G1 X74.152 Y99.200 E2.25514
G1 X73.473 Y98.814 F6000.000
G1 X77.932 Y94.355 F2160.000 E2.58361
G1 X82.322 Y94.355 E2.81229
G1 X82.778 Y95.465 E2.87480
G1 X74.573 Y103.589 E3.47633
G1 X73.473 Y103.131 E3.53839
G1 X73.473 Y98.919 E3.75780
G1 F1200.000 E2.75780
G92 E0
G1 X64.572 Y104.834 F6000.000
G1 F1200.000 E1.00000
G1 X64.682 Y105.101 F2160.000 E1.01504
G1 X56.311 Y113.470 E1.63173
G1 X56.044 Y113.360 E1.64677
G1 X56.044 Y108.893 E1.87947
G1 X60.103 Y104.834 E2.17851
G1 X64.467 Y104.834 E2.40584
G1 X65.025 Y104.155 F6000.000
G1 X65.483 Y105.260 F2160.000 E2.46813
G1 X56.470 Y114.271 E3.13206
G1 X55.365 Y113.813 E3.19433
G1 X55.365 Y108.612 E3.46528
G1 X59.822 Y104.155 E3.79361
G1 X64.920 Y104.155 E4.05921
G1 F1200.000 E3.05921
G92 E0
G1 X67.693 Y104.834 F6000.000
G1 F1200.000 E1.00000
G1 X71.940 Y104.834 F2160.000 E1.22123
G1 X72.050 Y105.101 E1.23628
G1 X56.311 Y120.838 E2.39580
G1 X56.044 Y120.728 E2.41084
G1 X56.044 Y116.481 E2.63207
G1 X67.619 Y104.908 E3.48476
G1 X67.412 Y104.155 F6000.000
G1 X72.393 Y104.155 F2160.000 E3.74426
G1 X72.851 Y105.260 E3.80654
G1 X56.470 Y121.639 E5.01330
G1 X55.365 Y121.181 E5.07558
G1 X55.365 Y116.200 E5.33508
G1 X67.338 Y104.230 E6.21705
G1 F1200.000 E5.21705
G92 E0
G1 X84.290 Y95.034 F6000.000
G1 F1200.000 E1.00000
G1 X87.120 Y95.034 F2160.000 E1.14741
G1 X87.230 Y95.286 E1.16171
G1 X56.327 Y128.690 E3.53243
G1 X56.044 Y128.580 E3.54824
G1 X56.044 Y124.038 E3.78485
G1 X84.217 Y95.109 E5.88850
G1 X84.004 Y94.355 F6000.000
G1 X87.564 Y94.355 F2160.000 E6.07395
G1 X88.029 Y95.420 E6.13450
G1 X56.510 Y129.491 E8.55247
G1 X55.365 Y129.043 E8.61652
G1 X55.365 Y123.762 E8.89162
G1 X83.931 Y94.431 E11.02455
G1 F1200.000 E10.02455
G92 E0
G1 X91.338 Y95.034 F6000.000
G1 F1200.000 E1.00000
G1 X97.293 Y95.034 F2160.000 E1.31022
G1 X97.403 Y95.287 E1.32460
G1 X60.246 Y135.134 E4.16293
G1 X56.044 Y135.134 E4.38184
G1 X56.044 Y132.784 E4.50427
G1 X91.266 Y95.111 E7.19105
G1 X91.044 Y94.355 F6000.000
G1 X97.738 Y94.355 F2160.000 E7.53980
G1 X98.203 Y95.424 E7.60052
G1 X60.541 Y135.813 E10.47740
G1 X55.365 Y135.813 E10.74703
G1 X55.365 Y132.516 E10.91876
G1 X90.972 Y94.432 E13.63484
G1 F1200.000 E12.63484
G92 E0
G1 X102.105 Y95.034 F6000.000
G1 F1200.000 E1.00000
G1 X107.463 Y95.034 F2160.000 E1.27917
G1 X107.574 Y95.300 E1.29419
G1 X67.853 Y135.134 E4.22475
G1 X63.329 Y135.134 E4.46042
G1 X63.219 Y134.872 E4.47523
G1 X102.031 Y95.109 E7.36993
G1 X101.819 Y94.355 F6000.000
G1 X107.916 Y94.355 F2160.000 E7.68759
G1 X108.374 Y95.459 E7.74981
G1 X68.135 Y135.813 E10.71865
G1 X62.879 Y135.813 E10.99246
G1 X62.419 Y134.720 E11.05420
G1 X101.745 Y94.431 E13.98725
G1 F1200.000 E12.98725
G92 E0
G1 X111.581 Y95.034 F6000.000
G1 F1200.000 E1.00000
G1 X116.608 Y95.034 F2160.000 E1.26192
G1 X116.719 Y95.305 E1.27717
G1 X76.017 Y135.134 E4.24389
G1 X71.148 Y135.134 E4.49753
G1 X71.037 Y134.864 E4.51274
G1 X111.506 Y95.108 E7.46810
G1 X111.303 Y94.355 F6000.000
G1 X117.065 Y94.355 F2160.000 E7.76824
G1 X117.520 Y95.471 E7.83101
G1 X76.294 Y135.813 E10.83590
G1 X70.692 Y135.813 E11.12769
G1 X70.237 Y134.699 E11.19037
G1 X111.228 Y94.429 E14.18392
G1 F1200.000 E13.18392
G92 E0
G1 X120.321 Y95.462 F6000.000
G1 F1200.000 E1.00000
G1 X126.665 Y95.462 F2160.000 E1.33047
G1 X126.775 Y95.737 E1.34590
G1 X75.783 Y144.757 E5.03080
G1 X75.524 Y144.647 E5.04546
G1 X75.524 Y139.337 E5.32208
G1 X120.246 Y95.535 E8.58322
G1 X120.044 Y94.783 F6000.000
G1 X127.123 Y94.783 F2160.000 E8.95199
G1 X127.576 Y95.908 E9.01516
G1 X75.930 Y145.557 E12.74730
G1 X74.845 Y145.095 E12.80870
G1 X74.845 Y139.052 E13.12355
G1 X119.969 Y94.857 E16.41397
G1 F1200.000 E15.41397
G92 E0
G1 X130.509 Y95.462 F6000.000
G1 F1200.000 E1.00000
G1 X134.364 Y95.462 F2160.000 E1.20081
G1 X134.474 Y95.732 E1.21599
G1 X84.935 Y144.534 E4.83870
G1 X79.859 Y144.534 E5.10314
G1 X79.749 Y144.259 E5.11857
G1 X130.433 Y95.535 E8.78124
G1 X130.236 Y94.783 F6000.000
G1 X134.819 Y94.783 F2160.000 E9.02000
G1 X135.275 Y95.896 E9.08261
G1 X85.214 Y145.213 E12.74352
G1 X79.401 Y145.213 E13.04633
G1 X78.948 Y144.088 E13.10950
G1 X130.160 Y94.856 E16.81027
G1 F1200.000 E15.81027
G92 E0
G1 X137.358 Y95.234 F6000.000
G1 F1200.000 E1.00000
G1 X137.624 Y95.345 F2160.000 E1.01500
G1 X137.624 Y100.072 E1.26126
G1 X93.554 Y144.534 E4.52257
G1 X88.210 Y144.534 E4.80097
G1 X88.099 Y144.266 E4.81606
G1 X137.284 Y95.308 E8.43136
G1 X137.200 Y94.434 F6000.000
G1 X138.303 Y94.892 F2160.000 E8.49354
G1 X138.303 Y100.351 E8.77794
G1 X93.837 Y145.213 E12.06853
G1 X87.756 Y145.213 E12.38532
G1 X87.299 Y144.106 E12.44771
G1 X137.126 Y94.508 E16.11024
G1 F1200.000 E15.11024
G92 E0
G1 X136.878 Y104.606 F6000.000
G1 F1200.000 E1.00000
G1 X137.144 Y104.717 F2160.000 E1.01500
G1 X137.144 Y109.750 E1.27717
G1 X102.174 Y144.534 E3.84672
G1 X97.140 Y144.534 E4.10901
G1 X97.029 Y144.266 E4.12410
G1 X136.804 Y104.680 E7.04752
G1 X136.720 Y103.806 F6000.000
G1 X137.823 Y104.264 F2160.000 E7.10970
G1 X137.823 Y110.032 E7.41016
G1 X102.454 Y145.213 E10.00900
G1 X96.686 Y145.213 E10.30952
G1 X96.229 Y144.106 E10.37191
G1 X136.646 Y103.880 E13.34257
G1 F1200.000 E12.34257
G92 E0
G1 X136.876 Y113.447 F6000.000
G1 F1200.000 E1.00000
G1 X137.144 Y113.558 F2160.000 E1.01509
G1 X137.144 Y118.209 E1.25741
G1 X110.819 Y144.534 E3.19688
G1 X106.321 Y144.534 E3.43121
G1 X106.210 Y144.268 E3.44621
G1 X136.802 Y113.522 E5.70575
G1 X136.715 Y112.647 F6000.000
G1 X137.823 Y113.104 F2160.000 E5.76814
G1 X137.823 Y118.490 E6.04875
G1 X111.100 Y145.213 E8.01751
G1 X105.868 Y145.213 E8.29007
G1 X105.410 Y144.111 E8.35224
G1 X136.641 Y112.721 E10.65902
G1 F1200.000 E9.65902
G92 E0
G1 X120.424 Y139.016 F6000.000
G1 F1200.000 E1.00000
G1 X120.424 Y144.534 F2160.000 E1.28745
G1 X114.906 Y144.534 E1.57490
G1 X114.796 Y144.267 E1.58994
G1 X120.157 Y138.906 E1.98494
G1 X120.327 Y138.976 E1.99451
G1 X122.001 Y139.766 F6000.000
G1 X122.620 Y138.813 F2160.000 E2.05372
G1 X123.464 Y138.053 E2.11290
G1 X124.476 Y137.537 E2.17207
G1 X125.588 Y137.300 E2.23130
G1 X126.722 Y137.359 E2.29046
G1 X127.804 Y137.709 E2.34969
G1 X128.757 Y138.327 E2.40889
G1 X129.282 Y138.910 E2.44973
G1 X137.592 Y138.910 E2.88265
G1 X137.592 Y143.710 E3.13271
G1 X129.732 Y143.710 E3.54217
G1 X129.242 Y144.465 E3.58907
G1 X128.398 Y145.225 E3.64823
G1 X127.386 Y145.743 E3.70746
G1 X126.274 Y145.978 E3.76669
G1 X125.138 Y145.919 E3.82594
G1 X124.058 Y145.569 E3.88508
G1 X123.105 Y144.951 E3.94426
G1 X122.343 Y144.106 E4.00351
G1 X121.827 Y143.094 E4.06271
G1 X121.592 Y141.982 E4.12192
G1 X121.651 Y140.848 E4.18106
G1 X121.969 Y139.866 E4.23483
G1 X121.383 Y139.472 F6000.000
G1 X122.099 Y138.368 F2160.000 E4.30336
G1 X123.077 Y137.489 E4.37186
G1 X124.247 Y136.892 E4.44031
G1 X125.534 Y136.618 E4.50885
G1 X126.846 Y136.686 E4.57731
G1 X128.098 Y137.091 E4.64585
G1 X129.201 Y137.807 E4.71437
G1 X129.584 Y138.231 E4.74414
G1 X138.271 Y138.231 E5.19667
G1 X138.271 Y144.389 E5.51743
G1 X130.101 Y144.389 E5.94303
G1 X129.763 Y144.910 E5.97539
G1 X128.786 Y145.788 E6.04384
G1 X127.615 Y146.388 E6.11239
G1 X126.327 Y146.660 E6.18095
G1 X125.013 Y146.592 E6.24948
G1 X123.764 Y146.187 E6.31792
G1 X122.661 Y145.471 E6.38640
G1 X121.779 Y144.494 E6.45497
G1 X121.182 Y143.322 E6.52352
G1 X121.103 Y142.947 E6.54349
G1 X121.103 Y145.213 E6.66153
G1 X114.453 Y145.213 E7.00795
G1 X113.995 Y144.108 E7.07023
G1 X119.998 Y138.105 E7.51247
G1 X121.103 Y138.563 E7.57475
G1 X121.103 Y140.339 E7.66727
G1 X121.351 Y139.572 E7.70925
G1 F1200.000 E6.70925
G92 E0
G1 X124.196 Y135.134 F6000.000
G1 F1200.000 E1.00000
G1 X124.086 Y134.867 F2160.000 E1.01504
G1 X136.877 Y122.074 E1.95752
G1 X137.144 Y122.184 E1.97256
G1 X137.144 Y126.569 E2.20098
G1 X128.579 Y135.134 E2.83201
G1 X124.301 Y135.134 E3.05486
G1 X123.743 Y135.813 F6000.000
G1 X123.285 Y134.708 F2160.000 E3.11713
G1 X136.718 Y121.273 E4.10685
G1 X137.823 Y121.731 E4.16913
G1 X137.823 Y126.850 E4.43582
G1 X128.860 Y135.813 E5.09613
G1 X123.848 Y135.813 E5.35723
G1 F1200.000 E4.35723
G92 E0
G1 X132.036 Y134.867 F6000.000
G1 F1200.000 E1.00000
G1 X136.877 Y130.026 F2160.000 E1.35669
G1 X137.144 Y130.136 E1.37173
G1 X137.144 Y135.134 E1.63209
G1 X132.146 Y135.134 E1.89245
G1 X132.076 Y134.964 E1.90202
G1 X131.235 Y134.708 F6000.000
G1 X136.718 Y129.225 F2160.000 E2.30595
G1 X137.823 Y129.683 E2.36823
G1 X137.823 Y135.813 E2.68756
G1 X131.693 Y135.813 E3.00689
G1 X131.276 Y134.805 E3.06370
G1 F1200.000 E2.06370
G92 E0
G1 X71.820 Y141.684 F6000.000
G1 F1200.000 E1.00000
G1 X71.820 Y146.484 F2160.000 E1.25006
G1 X63.960 Y146.484 E1.65954
G1 X63.469 Y147.239 E1.70647
G1 X62.626 Y148.001 E1.76563
G1 X61.612 Y148.517 E1.82492
G1 X60.502 Y148.754 E1.88404
G1 X59.366 Y148.695 E1.94333
G1 X58.286 Y148.343 E2.00249
G1 X57.333 Y147.725 E2.06166
G1 X56.571 Y146.880 E2.12091
G1 X56.055 Y145.868 E2.18009
G1 X55.818 Y144.758 E2.23924
G1 X55.879 Y143.622 E2.29852
G1 X56.229 Y142.542 E2.35763
G1 X56.847 Y141.589 E2.41682
G1 X57.692 Y140.827 E2.47607
G1 X58.704 Y140.311 E2.53525
G1 X59.816 Y140.074 E2.59448
G1 X60.950 Y140.133 E2.65366
G1 X62.032 Y140.485 E2.71292
G1 X62.985 Y141.103 E2.77210
G1 X63.508 Y141.684 E2.81280
G1 X71.715 Y141.684 E3.24035
G1 X72.499 Y141.005 F6000.000
G1 X72.499 Y147.163 F2160.000 E3.56111
G1 X64.328 Y147.163 E3.98677
G1 X63.989 Y147.683 E4.01912
G1 X63.014 Y148.565 E4.08759
G1 X61.840 Y149.162 E4.15620
G1 X60.556 Y149.436 E4.22461
G1 X59.240 Y149.368 E4.29325
G1 X57.991 Y148.960 E4.36172
G1 X56.889 Y148.245 E4.43016
G1 X56.007 Y147.268 E4.49872
G1 X55.410 Y146.097 E4.56721
G1 X55.136 Y144.811 E4.63569
G1 X55.206 Y143.496 E4.70429
G1 X55.611 Y142.248 E4.77267
G1 X56.327 Y141.145 E4.84116
G1 X57.304 Y140.263 E4.90972
G1 X58.475 Y139.666 E4.97822
G1 X59.762 Y139.392 E5.04675
G1 X61.075 Y139.460 E5.11526
G1 X62.327 Y139.868 E5.18383
G1 X63.430 Y140.583 E5.25231
G1 X63.810 Y141.005 E5.28193
G1 X72.394 Y141.005 E5.72909
G1 F1200.000 E4.72909
G92 E0
G1 X53.129 Y149.521 F6000.000
G1 F1200.000 E1.00000
G1 X53.129 Y90.479 F2160.000 E4.07588
G1 X140.371 Y90.479 E8.62085
G1 X140.371 Y110.566 E9.66730
G1 X141.534 Y110.775 E9.72882
G1 X142.247 Y110.978 E9.76747
G1 X142.936 Y111.247 E9.80601
G1 X143.598 Y111.585 E9.84471
G1 X144.225 Y111.982 E9.88338
G1 X144.808 Y112.436 E9.92188
G1 X145.349 Y112.949 E9.96069
G1 X145.835 Y113.507 E9.99928
G1 X146.266 Y114.112 E10.03796
G1 X146.636 Y114.755 E10.07660
G1 X146.871 Y115.273 E10.10623
G1 X146.871 Y129.994 E10.87313
G1 X146.489 Y133.480 E11.05585
G1 X146.206 Y135.197 E11.14651
G1 X145.441 Y138.659 E11.33118
G1 X144.441 Y142.013 E11.51353
G1 X143.199 Y145.304 E11.69679
G1 X141.718 Y148.507 E11.88062
G1 X141.181 Y149.521 E11.94041
G1 X53.234 Y149.521 E16.52208
G1 X52.450 Y150.200 F6000.000
G1 X52.450 Y89.800 F2160.000 E19.66866
G1 X141.050 Y89.800 E24.28433
G1 X141.050 Y109.999 E25.33658
G1 X141.687 Y110.113 E25.37030
G1 X142.464 Y110.334 E25.41239
G1 X143.214 Y110.628 E25.45436
G1 X143.935 Y110.994 E25.49646
G1 X144.616 Y111.427 E25.53851
G1 X145.224 Y111.900 E25.57863
G1 X145.228 Y111.900 E25.57885
G1 X145.232 Y111.903 E25.57912
G1 X145.839 Y112.479 E25.62269
G1 X146.369 Y113.087 E25.66472
G1 X146.837 Y113.745 E25.70681
G1 X147.240 Y114.444 E25.74885
G1 X147.550 Y115.126 E25.78784
G1 X147.550 Y130.031 E26.56433
G1 X147.161 Y133.572 E26.74994
G1 X146.872 Y135.326 E26.84252
G1 X146.098 Y138.829 E27.02942
G1 X145.084 Y142.230 E27.21431
G1 X143.825 Y145.567 E27.40009
G1 X142.326 Y148.809 E27.58616
G1 X141.589 Y150.200 E27.66819
G1 X52.555 Y150.200 E32.30648
G1 F1200.000 E31.30648
G92 E0
G1 X120.028 Y136.848 F6000.000
G1 F1200.000 E1.00000
