; generated by Slic3r 0.7.2b on 2012-06-06 at 01:19:24

; layer_height = 0.20
; perimeters = 2
; solid_layers = 3
; fill_density = .6
; nozzle_diameter = 0.5
; filament_diameter = 1.81
; extrusion_multiplier = 1.02
; perimeter_speed = 60
; infill_speed = 75
; travel_speed = 100
; extrusion_width_ratio = 0
; scale = 1
; single wall width = 0.70mm

M104 S187 ; set temperature
G28 ; home all
M140 S70 ; turn on bed
M109 S187 ; wait for temperature to be reached
G90 ; use absolute coordinates
G21 ; set units to millimeters
G92 E0 ; reset extrusion distance
M82 ; use absolute distances for extrusion
M107
G1 Z0.200 F6000.000
G1 X48.720 Y85.650
G1 F1200.000 E1.00000
G1 X48.900 Y85.470 F2160.000 E1.01326
G1 X49.280 Y85.130 E1.03983
G1 X49.900 Y84.690 E1.07943
G1 X50.120 Y84.560 E1.09274
G1 X50.580 Y84.330 E1.11954
G1 X51.050 Y84.140 E1.14595
G1 X51.540 Y83.990 E1.17264
G1 X51.790 Y83.930 E1.18604
G1 X52.540 Y83.820 E1.22553
G1 X53.050 Y83.800 E1.25212
G1 X131.840 Y83.820 E5.35673
G1 X133.660 Y83.980 E5.45191
G1 X134.870 Y84.180 E5.51580
G1 X136.090 Y84.460 E5.58101
G1 X137.320 Y84.830 E5.64792
G1 X139.240 Y85.580 E5.75531
G1 X140.720 Y86.320 E5.84151
G1 X141.850 Y86.990 E5.90995
G1 X143.610 Y88.270 E6.02332
G1 X143.990 Y88.600 E6.04954
G1 X145.160 Y89.940 E6.14221
G1 X145.490 Y90.390 E6.17128
G1 X145.770 Y90.880 E6.20068
G1 X146.010 Y91.380 E6.22958
G1 X146.110 Y91.650 E6.24457
G1 X152.770 Y113.660 E7.44254
G1 X152.840 Y113.950 E7.45808
G1 X152.890 Y114.240 E7.47341
G1 X152.950 Y115.120 E7.51937
G1 X152.950 Y130.030 E8.29611
G1 X152.460 Y134.650 E8.53814
G1 X151.720 Y138.560 E8.74545
G1 X150.710 Y142.450 E8.95482
G1 X149.410 Y146.240 E9.16356
G1 X147.860 Y149.890 E9.37014
G1 X146.220 Y153.130 E9.55932
G1 X146.090 Y153.350 E9.57264
G1 X145.650 Y153.970 E9.61224
G1 X145.310 Y154.350 E9.63881
G1 X144.940 Y154.710 E9.66570
G1 X144.550 Y155.030 E9.69198
G1 X143.900 Y155.440 E9.73202
G1 X143.680 Y155.560 E9.74507
G1 X143.220 Y155.770 E9.77141
G1 X142.740 Y155.940 E9.79794
G1 X142.240 Y156.070 E9.82486
G1 X141.490 Y156.180 E9.86435
G1 X140.980 Y156.200 E9.89093
G1 X52.540 Y156.180 E14.49827
G1 X51.790 Y156.070 E14.53776
G1 X51.290 Y155.940 E14.56467
G1 X50.810 Y155.770 E14.59120
G1 X50.350 Y155.560 E14.61755
G1 X50.120 Y155.440 E14.63106
G1 X49.900 Y155.310 E14.64437
G1 X49.280 Y154.870 E14.68398
G1 X48.900 Y154.530 E14.71054
G1 X48.720 Y154.350 E14.72380
G1 X48.380 Y153.970 E14.75037
G1 X47.940 Y153.350 E14.78997
G1 X47.810 Y153.130 E14.80329
G1 X47.580 Y152.670 E14.83008
G1 X47.390 Y152.200 E14.85649
G1 X47.240 Y151.710 E14.88319
G1 X47.180 Y151.460 E14.89658
G1 X47.070 Y150.710 E14.93607
G1 X47.070 Y89.290 E18.13578
G1 X47.180 Y88.540 E18.17527
G1 X47.310 Y88.040 E18.20218
G1 X47.480 Y87.560 E18.22871
G1 X47.690 Y87.100 E18.25506
G1 X47.810 Y86.870 E18.26857
G1 X47.940 Y86.650 E18.28188
G1 X48.380 Y86.030 E18.32149
G1 X48.650 Y85.728 E18.34258
G1 F1200.000 E17.34258
G92 E0
G1 X62.619 Y134.872 F6000.000
G1 F1200.000 E1.00000
G1 X101.505 Y95.034 F2160.000 E3.90017
G1 X106.863 Y95.034 E4.17934
G1 X106.974 Y95.300 E4.19435
G1 X67.253 Y135.134 E7.12491
G1 X62.729 Y135.134 E7.36059
G1 X62.660 Y134.969 E7.36993
G1 X61.819 Y134.720 F6000.000
G1 X101.219 Y94.355 F2160.000 E10.30845
G1 X107.316 Y94.355 E10.62612
G1 X107.774 Y95.459 E10.68834
G1 X67.535 Y135.813 E13.65717
G1 X62.279 Y135.813 E13.93098
G1 X61.860 Y134.817 E13.98725
G1 F1200.000 E12.98725
G92 E0
G1 X59.646 Y135.134 F6000.000
G1 F1200.000 E1.00000
G1 X55.444 Y135.134 F2160.000 E1.21892
G1 X55.444 Y132.784 E1.34135
G1 X90.738 Y95.034 E4.03360
G1 X96.693 Y95.034 E4.34382
G1 X96.803 Y95.287 E4.35820
G1 X59.718 Y135.057 E7.19105
G1 F1200.000 E6.19105
G92 E0
G1 X55.727 Y128.690 F6000.000
G1 F1200.000 E1.00000
G1 X55.444 Y128.580 F2160.000 E1.01581
G1 X55.444 Y124.038 E1.25242
G1 X83.690 Y95.034 E3.36154
G1 X86.520 Y95.034 E3.50895
G1 X86.630 Y95.286 E3.52325
G1 X55.798 Y128.613 E5.88850
G1 F1200.000 E4.88850
G92 E0
G1 X55.711 Y120.838 F6000.000
G1 F1200.000 E1.00000
G1 X55.444 Y120.728 F2160.000 E1.01504
G1 X55.444 Y116.481 E1.23628
G1 X67.093 Y104.834 E2.09444
G1 X71.340 Y104.834 E2.31567
G1 X71.450 Y105.101 E2.33071
G1 X55.785 Y120.764 E3.48476
G1 F1200.000 E2.48476
G92 E0
G1 X55.711 Y113.470 F6000.000
G1 F1200.000 E1.00000
G1 X55.444 Y113.360 F2160.000 E1.01504
G1 X55.444 Y108.893 E1.24773
G1 X59.503 Y104.834 E1.54678
G1 X63.972 Y104.834 E1.77958
G1 X64.082 Y105.101 E1.79462
G1 X55.785 Y113.396 E2.40584
G1 F1200.000 E1.40584
G92 E0
G1 X59.522 Y99.867 F6000.000
G1 F1200.000 E1.00000
G1 X58.440 Y99.517 F2160.000 E1.05921
G1 X57.487 Y98.898 E1.11842
G1 X56.727 Y98.054 E1.17758
G1 X56.209 Y97.042 E1.23682
G1 X55.974 Y95.930 E1.29605
G1 X56.033 Y94.796 E1.35518
G1 X56.383 Y93.714 E1.41442
G1 X57.002 Y92.761 E1.47362
G1 X57.846 Y92.001 E1.53280
G1 X58.858 Y91.485 E1.59197
G1 X59.970 Y91.248 E1.65120
G1 X61.104 Y91.307 E1.71036
G1 X62.186 Y91.657 E1.76961
G1 X63.139 Y92.278 E1.82885
G1 X63.663 Y92.858 E1.86960
G1 X71.974 Y92.858 E2.30254
G1 X71.974 Y97.658 E2.55260
G1 X64.114 Y97.658 E2.96206
G1 X63.625 Y98.413 E3.00894
G1 X62.780 Y99.175 E3.06819
G1 X61.768 Y99.691 E3.12737
G1 X60.656 Y99.928 E3.18663
G1 X59.626 Y99.873 E3.24032
G1 X59.397 Y100.540 F6000.000
G1 X58.146 Y100.135 F2160.000 E3.30880
G1 X57.042 Y99.419 E3.37734
G1 X56.164 Y98.442 E3.44579
G1 X55.564 Y97.271 E3.51434
G1 X55.292 Y95.983 E3.58290
G1 X55.360 Y94.672 E3.65131
G1 X55.765 Y93.420 E3.71985
G1 X56.481 Y92.316 E3.78839
G1 X57.459 Y91.437 E3.85688
G1 X58.629 Y90.840 E3.92534
G1 X59.916 Y90.566 E3.99387
G1 X61.228 Y90.634 E4.06233
G1 X62.481 Y91.040 E4.13092
G1 X63.583 Y91.757 E4.19945
G1 X63.965 Y92.179 E4.22911
G1 X72.653 Y92.179 E4.68169
G1 X72.653 Y98.337 E5.00245
G1 X64.483 Y98.337 E5.42805
G1 X64.145 Y98.857 E5.46037
G1 X63.168 Y99.739 E5.52894
G1 X61.997 Y100.336 E5.59743
G1 X60.709 Y100.610 E5.66602
G1 X59.502 Y100.545 E5.72901
G1 F1200.000 E4.72901
G92 E0
G1 X73.552 Y99.095 F6000.000
G1 F1200.000 E1.00000
G1 X77.613 Y95.034 F2160.000 E1.29919
G1 X81.267 Y95.034 E1.48955
G1 X81.378 Y95.303 E1.50469
G1 X73.817 Y102.789 E2.05898
G1 X73.552 Y102.678 E2.07392
G1 X73.552 Y99.200 E2.25514
G1 X72.873 Y98.814 F6000.000
G1 X77.332 Y94.355 F2160.000 E2.58361
G1 X81.722 Y94.355 E2.81229
G1 X82.178 Y95.465 E2.87480
G1 X73.973 Y103.589 E3.47633
G1 X72.873 Y103.131 E3.53839
G1 X72.873 Y98.919 E3.75780
G1 F1200.000 E2.75780
G92 E0
G1 X70.437 Y134.864 F6000.000
G1 F1200.000 E1.00000
G1 X110.981 Y95.034 F2160.000 E3.96083
G1 X116.008 Y95.034 E4.22275
G1 X116.119 Y95.305 E4.23800
G1 X75.417 Y135.134 E7.20472
G1 X70.548 Y135.134 E7.45836
G1 X70.477 Y134.961 E7.46810
G1 X69.637 Y134.699 F6000.000
G1 X110.703 Y94.355 F2160.000 E10.46713
G1 X116.465 Y94.355 E10.76726
G1 X116.920 Y95.471 E10.83003
G1 X75.694 Y135.813 E13.83492
G1 X70.092 Y135.813 E14.12671
G1 X69.677 Y134.796 E14.18392
G1 F1200.000 E13.18392
G92 E0
G1 X74.924 Y139.337 F6000.000
G1 F1200.000 E1.00000
G1 X119.721 Y95.462 F2160.000 E4.26660
G1 X126.065 Y95.462 E4.59708
G1 X126.175 Y95.737 E4.61250
G1 X75.183 Y144.757 E8.29740
G1 X74.924 Y144.647 E8.31207
G1 X74.924 Y139.442 E8.58322
G1 X74.245 Y139.052 F6000.000
G1 X119.444 Y94.783 F2160.000 E11.87910
G1 X126.523 Y94.783 E12.24788
G1 X126.976 Y95.908 E12.31105
G1 X75.330 Y145.557 E16.04319
G1 X74.245 Y145.095 E16.10459
G1 X74.245 Y139.157 E16.41397
G1 F1200.000 E15.41397
G92 E0
G1 X79.149 Y144.259 F6000.000
G1 F1200.000 E1.00000
G1 X129.909 Y95.462 F2160.000 E4.66814
G1 X133.764 Y95.462 E4.86894
G1 X133.874 Y95.732 E4.88413
G1 X84.335 Y144.534 E8.50683
G1 X79.259 Y144.534 E8.77128
G1 X79.188 Y144.357 E8.78124
G1 X78.348 Y144.088 F6000.000
G1 X129.636 Y94.783 F2160.000 E12.48748
G1 X134.219 Y94.783 E12.72624
G1 X134.675 Y95.896 E12.78886
G1 X84.614 Y145.213 E16.44976
G1 X78.801 Y145.213 E16.75257
G1 X78.387 Y144.185 E16.81027
G1 F1200.000 E15.81027
G92 E0
G1 X87.499 Y144.266 F6000.000
G1 F1200.000 E1.00000
G1 X136.758 Y95.234 F2160.000 E4.62077
G1 X137.024 Y95.345 E4.63577
G1 X137.024 Y100.072 E4.88203
G1 X92.954 Y144.534 E8.14333
G1 X87.610 Y144.534 E8.42174
G1 X87.539 Y144.363 E8.43136
G1 X86.699 Y144.106 F6000.000
G1 X136.600 Y94.434 F2160.000 E12.09937
G1 X137.703 Y94.892 E12.16154
G1 X137.703 Y100.351 E12.44595
G1 X93.237 Y145.213 E15.73654
G1 X87.156 Y145.213 E16.05333
G1 X86.739 Y144.203 E16.11024
G1 F1200.000 E15.11024
G92 E0
G1 X96.429 Y144.266 F6000.000
G1 F1200.000 E1.00000
G1 X136.278 Y104.606 F2160.000 E3.92889
G1 X136.544 Y104.717 E3.94389
G1 X136.544 Y109.750 E4.20607
G1 X101.574 Y144.534 E6.77562
G1 X96.540 Y144.534 E7.03790
G1 X96.469 Y144.363 E7.04752
G1 X95.629 Y144.106 F6000.000
G1 X136.120 Y103.806 F2160.000 E10.02365
G1 X137.223 Y104.264 E10.08583
G1 X137.223 Y110.032 E10.38629
G1 X101.854 Y145.213 E12.98513
G1 X96.086 Y145.213 E13.28565
G1 X95.669 Y144.203 E13.34257
G1 F1200.000 E12.34257
G92 E0
G1 X105.610 Y144.268 F6000.000
G1 F1200.000 E1.00000
G1 X136.276 Y113.447 F2160.000 E3.26501
G1 X136.544 Y113.558 E3.28010
G1 X136.544 Y118.209 E3.52242
G1 X110.219 Y144.534 E5.46189
G1 X105.721 Y144.534 E5.69622
G1 X105.651 Y144.365 E5.70575
G1 X104.810 Y144.111 F6000.000
G1 X136.115 Y112.647 F2160.000 E8.01800
G1 X137.223 Y113.104 E8.08039
G1 X137.223 Y118.490 E8.36100
G1 X110.500 Y145.213 E10.32976
G1 X105.268 Y145.213 E10.60232
G1 X104.850 Y144.208 E10.65902
G1 F1200.000 E9.65902
G92 E0
G1 X114.196 Y144.267 F6000.000
G1 F1200.000 E1.00000
G1 X119.557 Y138.906 F2160.000 E1.39500
G1 X119.824 Y139.016 E1.41004
G1 X119.824 Y144.534 E1.69749
G1 X114.306 Y144.534 E1.98494
G1 X114.236 Y144.364 E1.99451
G1 F1200.000 E0.99451
G92 E0
G1 X121.227 Y143.094 F6000.000
G1 F1200.000 E1.00000
G1 X120.992 Y141.982 F2160.000 E1.05921
G1 X121.051 Y140.848 E1.11835
G1 X121.401 Y139.766 E1.17759
G1 X122.020 Y138.813 E1.23679
G1 X122.864 Y138.053 E1.29597
G1 X123.876 Y137.537 E1.35514
G1 X124.988 Y137.300 E1.41437
G1 X126.122 Y137.359 E1.47353
G1 X127.204 Y137.709 E1.53276
G1 X128.157 Y138.327 E1.59196
G1 X128.682 Y138.910 E1.63280
G1 X136.992 Y138.910 E2.06572
G1 X136.992 Y143.710 E2.31578
G1 X129.132 Y143.710 E2.72524
G1 X128.642 Y144.465 E2.77214
G1 X127.798 Y145.225 E2.83130
G1 X126.786 Y145.743 E2.89054
G1 X125.674 Y145.978 E2.94977
G1 X124.538 Y145.919 E3.00901
G1 X123.458 Y145.569 E3.06815
G1 X122.505 Y144.951 E3.12733
G1 X121.743 Y144.106 E3.18658
G1 X121.275 Y143.187 E3.24031
G1 X120.582 Y143.322 F6000.000
G1 X120.503 Y142.947 F2160.000 E3.26029
G1 X120.503 Y145.213 E3.37833
G1 X113.853 Y145.213 E3.72475
G1 X113.395 Y144.108 E3.78703
G1 X119.398 Y138.105 E4.22927
G1 X120.503 Y138.563 E4.29155
G1 X120.503 Y140.339 E4.38406
G1 X120.783 Y139.472 E4.43152
G1 X121.499 Y138.368 E4.50005
G1 X122.477 Y137.489 E4.56855
G1 X123.647 Y136.892 E4.63701
G1 X124.934 Y136.618 E4.70554
G1 X126.246 Y136.686 E4.77400
G1 X127.498 Y137.091 E4.84254
G1 X128.601 Y137.807 E4.91106
G1 X128.984 Y138.231 E4.94083
G1 X137.671 Y138.231 E5.39337
G1 X137.671 Y144.389 E5.71412
G1 X129.501 Y144.389 E6.13972
G1 X129.163 Y144.910 E6.17208
G1 X128.186 Y145.788 E6.24054
G1 X127.015 Y146.388 E6.30909
G1 X125.727 Y146.660 E6.37765
G1 X124.413 Y146.592 E6.44618
G1 X123.164 Y146.187 E6.51462
G1 X122.061 Y145.471 E6.58310
G1 X121.179 Y144.494 E6.65167
G1 X120.630 Y143.415 E6.71474
G1 F1200.000 E5.71474
G92 E0
G1 X123.596 Y135.134 F6000.000
G1 F1200.000 E1.00000
G1 X123.486 Y134.867 F2160.000 E1.01504
G1 X136.277 Y122.074 E1.95752
G1 X136.544 Y122.184 E1.97256
G1 X136.544 Y126.569 E2.20098
G1 X127.979 Y135.134 E2.83201
G1 X123.701 Y135.134 E3.05486
G1 X123.143 Y135.813 F6000.000
G1 X122.685 Y134.708 F2160.000 E3.11713
G1 X136.118 Y121.273 E4.10685
G1 X137.223 Y121.731 E4.16913
G1 X137.223 Y126.850 E4.43582
G1 X128.260 Y135.813 E5.09613
G1 X123.248 Y135.813 E5.35723
G1 F1200.000 E4.35723
G92 E0
G1 X131.436 Y134.867 F6000.000
G1 F1200.000 E1.00000
G1 X136.277 Y130.026 F2160.000 E1.35669
G1 X136.544 Y130.136 E1.37173
G1 X136.544 Y135.134 E1.63209
G1 X131.546 Y135.134 E1.89245
G1 X131.476 Y134.964 E1.90202
G1 X130.635 Y134.708 F6000.000
G1 X136.118 Y129.225 F2160.000 E2.30595
G1 X137.223 Y129.683 E2.36823
G1 X137.223 Y135.813 E2.68756
G1 X131.093 Y135.813 E3.00689
G1 X130.676 Y134.805 E3.06370
G1 F1200.000 E2.06370
G92 E0
G1 X56.087 Y148.021 F6000.000
G1 F1200.000 E1.00000
G1 X54.829 Y148.021 F2160.000 E1.06556
G1 X54.829 Y146.133 E1.16396
G1 X55.407 Y147.268 E1.23036
G1 X56.017 Y147.943 E1.27774
G1 F1200.000 E0.27774
G92 E0
G1 X54.829 Y142.811 F6000.000
G1 F1200.000 E1.00000
G1 X54.829 Y135.813 F2160.000 E1.36461
G1 X59.941 Y135.813 E1.63096
G1 X97.603 Y95.424 E4.50783
G1 X97.138 Y94.355 E4.56856
G1 X90.444 Y94.355 E4.91730
G1 X54.829 Y132.449 E7.63403
G1 X54.829 Y129.067 E7.81018
G1 X55.910 Y129.491 E7.87070
G1 X87.429 Y95.420 E10.28867
G1 X86.964 Y94.355 E10.34922
G1 X83.404 Y94.355 E10.53467
G1 X54.829 Y123.697 E12.66836
G1 X54.829 Y121.207 E12.79808
G1 X55.870 Y121.639 E12.85680
G1 X72.251 Y105.260 E14.06356
G1 X71.793 Y104.155 E14.12584
G1 X66.812 Y104.155 E14.38533
G1 X54.829 Y116.137 E15.26813
G1 X54.829 Y113.839 E15.38783
G1 X55.870 Y114.271 E15.44655
G1 X64.883 Y105.260 E16.11047
G1 X64.425 Y104.155 E16.17276
G1 X59.222 Y104.155 E16.44383
G1 X54.829 Y108.549 E16.76751
G1 X54.829 Y90.479 E17.70885
G1 X131.816 Y90.507 E21.71955
G1 X132.634 Y90.583 E21.76237
G1 X133.461 Y90.713 E21.80599
G1 X134.278 Y90.893 E21.84957
G1 X135.081 Y91.125 E21.89309
G1 X135.871 Y91.406 E21.93680
G1 X136.641 Y91.735 E21.98038
G1 X137.387 Y92.111 E22.02393
G1 X138.110 Y92.532 E22.06750
G1 X138.421 Y92.741 E22.08700
G1 X138.471 Y93.343 E22.11851
G1 X138.471 Y110.496 E23.01207
G1 X140.180 Y110.639 E23.10139
G1 X140.934 Y110.775 E23.14129
G1 X141.647 Y110.978 E23.17994
G1 X142.336 Y111.247 E23.21847
G1 X142.998 Y111.585 E23.25718
G1 X143.625 Y111.982 E23.29585
G1 X144.208 Y112.436 E23.33434
G1 X144.749 Y112.949 E23.37315
G1 X145.235 Y113.507 E23.41174
G1 X145.666 Y114.112 E23.45042
G1 X146.036 Y114.755 E23.48906
G1 X146.271 Y115.273 E23.51870
G1 X146.271 Y129.994 E24.28560
G1 X145.890 Y133.471 E24.46783
G1 X145.255 Y136.932 E24.65115
G1 X144.374 Y140.336 E24.83435
G1 X143.249 Y143.671 E25.01770
G1 X141.890 Y146.914 E25.20087
G1 X140.568 Y149.521 E25.35315
G1 X124.175 Y149.521 E26.20719
G1 X124.175 Y148.021 E26.28533
G1 X63.015 Y148.021 E29.47148
G1 X63.389 Y147.683 E29.49776
G1 X63.728 Y147.163 E29.53011
G1 X71.899 Y147.163 E29.95577
G1 X71.899 Y141.005 E30.27653
G1 X63.210 Y141.005 E30.72916
G1 X62.830 Y140.583 E30.75878
G1 X61.727 Y139.868 E30.82726
G1 X60.475 Y139.460 E30.89583
G1 X59.162 Y139.392 E30.96434
G1 X57.875 Y139.666 E31.03287
G1 X56.704 Y140.263 E31.10137
G1 X55.727 Y141.145 E31.16993
G1 X55.011 Y142.248 E31.23841
G1 X54.861 Y142.711 E31.26381
G1 X55.629 Y142.542 F6000.000
G1 X55.279 Y143.622 F2160.000 E31.32292
G1 X55.218 Y144.758 E31.38220
G1 X55.455 Y145.868 E31.44135
G1 X55.971 Y146.880 E31.50053
G1 X56.733 Y147.725 E31.55978
G1 X57.686 Y148.343 E31.61894
G1 X58.766 Y148.695 E31.67811
G1 X54.150 Y148.700 E31.91856
G1 X54.150 Y90.700 E34.94010
G1 X53.359 Y90.700 E34.98129
G1 X53.360 Y150.200 E38.08098
G1 X53.050 Y150.200 E38.09714
G1 X53.050 Y89.800 E41.24371
G1 X131.848 Y89.828 E45.34872
G1 X132.718 Y89.909 E45.39429
G1 X133.587 Y90.046 E45.44009
G1 X134.446 Y90.235 E45.48589
G1 X135.289 Y90.479 E45.53161
G1 X136.118 Y90.774 E45.57749
G1 X136.926 Y91.120 E45.62327
G1 X137.711 Y91.514 E45.66901
G1 X138.470 Y91.957 E45.71479
G1 X139.200 Y92.447 E45.76058
G1 X139.801 Y92.906 E45.80000
G1 X139.663 Y92.907 E45.80715
G1 X139.344 Y92.663 E45.82811
G1 X139.106 Y92.793 E45.84224
G1 X139.150 Y93.315 E45.86952
G1 X139.150 Y109.872 E46.73207
G1 X139.867 Y109.932 E46.76957
G1 X139.867 Y93.650 E47.61780
G1 X140.450 Y93.650 E47.64816
G1 X140.450 Y109.999 E48.49984
G1 X141.087 Y110.113 E48.53356
G1 X141.864 Y110.334 E48.57565
G1 X142.614 Y110.628 E48.61762
G1 X143.335 Y110.994 E48.65972
G1 X144.016 Y111.427 E48.70177
G1 X144.624 Y111.900 E48.74189
G1 X144.627 Y111.900 E48.74208
G1 X144.634 Y111.905 E48.74251
G1 X145.239 Y112.479 E48.78595
G1 X145.769 Y113.087 E48.82797
G1 X146.237 Y113.745 E48.87006
G1 X146.640 Y114.444 E48.91210
