; generated by Slic3r 0.7.2b on 2012-06-06 at 08:06:25

; layer_height = 0.20
; perimeters = 2
; solid_layers = 3
; fill_density = .6
; nozzle_diameter = 0.5
; filament_diameter = 1.81
; extrusion_multiplier = 1.02
; perimeter_speed = 60
; infill_speed = 75
; travel_speed = 100
; extrusion_width_ratio = 0
; scale = 1
; single wall width = 0.70mm

M104 S187 ; set temperature
G28 ; home all
M140 S70 ; turn on bed
M109 S187 ; wait for temperature to be reached
G90 ; use absolute coordinates
G21 ; set units to millimeters
G92 E0 ; reset extrusion distance
M82 ; use absolute distances for extrusion
M107
G1 Z0.200 F6000.000
G1 X50.410 Y85.216
G1 F1200.000 E1.00000
G1 X50.890 Y85.066 F2160.000 E1.02620
G1 X51.390 Y84.956 E1.05287
G1 X51.890 Y84.886 E1.07917
G1 X60.880 Y84.776 E1.54755
G1 X133.950 Y84.866 E5.35417
G1 X134.240 Y84.886 E5.36932
G1 X134.830 Y84.976 E5.40041
G1 X135.110 Y85.036 E5.41533
G1 X143.040 Y87.446 E5.84710
G1 X143.750 Y87.746 E5.88726
G1 X144.410 Y88.136 E5.92719
G1 X144.820 Y88.436 E5.95366
G1 X145.200 Y88.776 E5.98022
G1 X145.560 Y89.146 E6.00712
G1 X145.880 Y89.546 E6.03380
G1 X146.170 Y89.966 E6.06039
G1 X146.520 Y90.646 E6.10024
G1 X146.710 Y91.126 E6.12713
G1 X153.440 Y113.416 E7.34012
G1 X153.490 Y113.706 E7.35545
G1 X153.550 Y114.586 E7.40140
G1 X153.550 Y129.486 E8.17762
G1 X153.060 Y134.116 E8.42017
G1 X152.320 Y138.036 E8.62799
G1 X151.310 Y141.906 E8.83636
G1 X150.170 Y145.286 E9.02218
G1 X148.450 Y149.366 E9.25285
G1 X146.810 Y152.596 E9.44157
G1 X146.530 Y153.046 E9.46918
G1 X146.210 Y153.476 E9.49710
G1 X146.040 Y153.676 E9.51077
G1 X145.860 Y153.866 E9.52441
G1 X145.470 Y154.226 E9.55206
G1 X145.260 Y154.396 E9.56613
G1 X144.610 Y154.836 E9.60703
G1 X144.140 Y155.086 E9.63476
G1 X143.400 Y155.376 E9.67616
G1 X142.630 Y155.566 E9.71748
G1 X142.110 Y155.636 E9.74481
G1 X141.580 Y155.656 E9.77244
G1 X51.940 Y155.636 E14.44230
G1 X51.190 Y155.526 E14.48179
G1 X50.690 Y155.396 E14.50870
G1 X50.210 Y155.226 E14.53523
G1 X49.750 Y155.016 E14.56157
G1 X49.520 Y154.896 E14.57508
G1 X49.300 Y154.766 E14.58840
G1 X48.680 Y154.326 E14.62800
G1 X48.300 Y153.986 E14.65457
G1 X48.120 Y153.806 E14.66783
G1 X47.780 Y153.426 E14.69439
G1 X47.340 Y152.806 E14.73400
G1 X47.210 Y152.586 E14.74731
G1 X46.980 Y152.126 E14.77410
G1 X46.790 Y151.656 E14.80051
G1 X46.640 Y151.166 E14.82721
G1 X46.580 Y150.916 E14.84060
G1 X46.470 Y150.166 E14.88009
G1 X46.470 Y90.346 E17.99645
G1 X46.580 Y89.596 E18.03594
G1 X46.710 Y89.106 E18.06235
G1 X47.080 Y88.166 E18.11498
G1 X47.330 Y87.726 E18.14134
G1 X47.610 Y87.306 E18.16764
G1 X48.100 Y86.726 E18.20719
G1 X48.460 Y86.376 E18.23335
G1 X48.660 Y86.206 E18.24703
G1 X49.060 Y85.906 E18.27307
G1 X49.270 Y85.766 E18.28622
G1 X49.710 Y85.516 E18.31259
G1 X50.170 Y85.306 E18.33893
G1 X50.312 Y85.253 E18.34681
G1 F1200.000 E17.34681
G92 E0
G1 X63.219 Y134.336 F6000.000
G1 F1200.000 E1.00000
G1 X102.105 Y94.498 F2160.000 E3.90017
G1 X107.463 Y94.498 E4.17934
G1 X107.574 Y94.764 E4.19435
G1 X67.853 Y134.598 E7.12491
G1 X63.329 Y134.598 E7.36059
G1 X63.260 Y134.433 E7.36993
G1 X62.419 Y134.184 F6000.000
G1 X101.819 Y93.819 F2160.000 E10.30845
G1 X107.916 Y93.819 E10.62612
G1 X108.374 Y94.923 E10.68834
G1 X68.135 Y135.277 E13.65717
G1 X62.879 Y135.277 E13.93098
G1 X62.460 Y134.281 E13.98725
G1 F1200.000 E12.98725
G92 E0
G1 X60.246 Y134.598 F6000.000
G1 F1200.000 E1.00000
G1 X56.044 Y134.598 F2160.000 E1.21892
G1 X56.044 Y132.248 E1.34135
G1 X91.338 Y94.498 E4.03360
G1 X97.293 Y94.498 E4.34382
G1 X97.403 Y94.751 E4.35820
G1 X60.318 Y134.521 E7.19105
G1 X60.541 Y135.277 F6000.000
G1 X55.365 Y135.277 F2160.000 E7.46069
G1 X55.365 Y131.980 E7.63242
G1 X91.044 Y93.819 E10.35397
G1 X97.738 Y93.819 E10.70271
G1 X98.203 Y94.888 E10.76343
G1 X60.613 Y135.200 E13.63484
G1 F1200.000 E12.63484
G92 E0
G1 X56.327 Y128.154 F6000.000
G1 F1200.000 E1.00000
G1 X56.044 Y128.044 F2160.000 E1.01581
G1 X56.044 Y123.502 E1.25242
G1 X84.290 Y94.498 E3.36154
G1 X87.120 Y94.498 E3.50895
G1 X87.230 Y94.750 E3.52325
G1 X56.398 Y128.077 E5.88850
G1 X56.510 Y128.955 F6000.000
G1 X55.365 Y128.507 F2160.000 E5.95255
G1 X55.365 Y123.226 E6.22765
G1 X84.004 Y93.819 E8.36605
G1 X87.564 Y93.819 E8.55150
G1 X88.029 Y94.884 E8.61205
G1 X56.582 Y128.878 E11.02455
G1 F1200.000 E10.02455
G92 E0
G1 X56.311 Y120.302 F6000.000
G1 F1200.000 E1.00000
G1 X56.044 Y120.192 F2160.000 E1.01504
G1 X56.044 Y115.945 E1.23628
G1 X67.693 Y104.298 E2.09444
G1 X71.940 Y104.298 E2.31567
G1 X72.050 Y104.565 E2.33071
G1 X56.385 Y120.228 E3.48476
G1 X56.470 Y121.103 F6000.000
G1 X55.365 Y120.645 F2160.000 E3.54704
G1 X55.365 Y115.664 E3.80654
G1 X67.412 Y103.619 E4.69398
G1 X72.393 Y103.619 E4.95348
G1 X72.851 Y104.724 E5.01576
G1 X56.544 Y121.028 E6.21705
G1 F1200.000 E5.21705
G92 E0
G1 X56.311 Y112.934 F6000.000
G1 F1200.000 E1.00000
G1 X56.044 Y112.824 F2160.000 E1.01504
G1 X56.044 Y108.357 E1.24773
G1 X60.103 Y104.298 E1.54678
G1 X64.572 Y104.298 E1.77958
G1 X64.682 Y104.565 E1.79462
G1 X56.385 Y112.860 E2.40584
G1 X56.470 Y113.735 F6000.000
G1 X55.365 Y113.277 F2160.000 E2.46812
G1 X55.365 Y108.076 E2.73907
G1 X59.822 Y103.619 E3.06740
G1 X65.025 Y103.619 E3.33847
G1 X65.483 Y104.724 E3.40075
G1 X56.544 Y113.660 E4.05921
G1 F1200.000 E3.05921
G92 E0
G1 X74.152 Y102.142 F6000.000
G1 F1200.000 E1.00000
G1 X74.152 Y98.559 F2160.000 E1.18668
G1 X78.213 Y94.498 E1.48588
G1 X81.867 Y94.498 E1.67623
G1 X81.978 Y94.767 E1.69137
G1 X74.417 Y102.253 E2.24566
G1 X74.249 Y102.183 E2.25514
G1 X73.473 Y102.595 F6000.000
G1 X73.473 Y98.278 F2160.000 E2.48002
G1 X77.932 Y93.819 E2.80849
G1 X82.322 Y93.819 E3.03717
G1 X82.778 Y94.929 E3.09968
G1 X74.573 Y103.053 E3.70121
G1 X73.570 Y102.635 E3.75780
G1 F1200.000 E2.75780
G92 E0
G1 X71.037 Y134.328 F6000.000
G1 F1200.000 E1.00000
G1 X111.581 Y94.498 F2160.000 E3.96083
G1 X116.608 Y94.498 E4.22275
G1 X116.719 Y94.769 E4.23800
G1 X76.017 Y134.598 E7.20472
G1 X71.148 Y134.598 E7.45836
G1 X71.077 Y134.425 E7.46810
G1 X70.237 Y134.163 F6000.000
G1 X111.303 Y93.819 F2160.000 E10.46713
G1 X117.065 Y93.819 E10.76726
G1 X117.520 Y94.935 E10.83003
G1 X76.294 Y135.277 E13.83492
G1 X70.692 Y135.277 E14.12671
G1 X70.277 Y134.260 E14.18392
G1 F1200.000 E13.18392
G92 E0
G1 X75.524 Y138.801 F6000.000
G1 F1200.000 E1.00000
G1 X120.321 Y94.926 F2160.000 E4.26660
G1 X126.665 Y94.926 E4.59708
G1 X126.775 Y95.201 E4.61250
G1 X75.783 Y144.221 E8.29740
G1 X75.524 Y144.111 E8.31207
G1 X75.524 Y138.906 E8.58322
G1 X74.845 Y138.516 F6000.000
G1 X120.044 Y94.247 F2160.000 E11.87910
G1 X127.123 Y94.247 E12.24788
G1 X127.576 Y95.372 E12.31105
G1 X75.930 Y145.021 E16.04319
G1 X74.845 Y144.559 E16.10459
G1 X74.845 Y138.621 E16.41397
G1 F1200.000 E15.41397
G92 E0
G1 X79.749 Y143.723 F6000.000
G1 F1200.000 E1.00000
G1 X130.509 Y94.926 F2160.000 E4.66814
G1 X134.364 Y94.926 E4.86894
G1 X134.474 Y95.196 E4.88413
G1 X84.935 Y143.998 E8.50683
G1 X79.859 Y143.998 E8.77128
G1 X79.788 Y143.821 E8.78124
G1 X78.948 Y143.552 F6000.000
G1 X130.236 Y94.247 F2160.000 E12.48748
G1 X134.819 Y94.247 E12.72624
G1 X135.275 Y95.360 E12.78886
G1 X85.214 Y144.677 E16.44976
G1 X79.401 Y144.677 E16.75257
G1 X78.987 Y143.649 E16.81027
G1 F1200.000 E15.81027
G92 E0
G1 X88.099 Y143.730 F6000.000
G1 F1200.000 E1.00000
G1 X137.358 Y94.698 F2160.000 E4.62077
G1 X137.624 Y94.809 E4.63577
G1 X137.624 Y99.536 E4.88203
G1 X93.554 Y143.998 E8.14333
G1 X88.210 Y143.998 E8.42174
G1 X88.139 Y143.827 E8.43136
G1 X87.299 Y143.570 F6000.000
G1 X137.200 Y93.898 F2160.000 E12.09937
G1 X138.303 Y94.356 E12.16154
G1 X138.303 Y99.815 E12.44595
G1 X93.837 Y144.677 E15.73654
G1 X87.756 Y144.677 E16.05333
G1 X87.339 Y143.667 E16.11024
G1 F1200.000 E15.11024
G92 E0
G1 X97.029 Y143.730 F6000.000
G1 F1200.000 E1.00000
G1 X136.878 Y104.070 F2160.000 E3.92889
G1 X137.144 Y104.181 E3.94389
G1 X137.144 Y109.214 E4.20607
G1 X102.174 Y143.998 E6.77562
G1 X97.140 Y143.998 E7.03790
G1 X97.069 Y143.827 E7.04752
G1 X96.229 Y143.570 F6000.000
G1 X136.720 Y103.270 F2160.000 E10.02365
G1 X137.823 Y103.728 E10.08583
G1 X137.823 Y109.496 E10.38629
G1 X102.454 Y144.677 E12.98513
G1 X96.686 Y144.677 E13.28565
G1 X96.269 Y143.667 E13.34257
G1 F1200.000 E12.34257
G92 E0
G1 X106.210 Y143.732 F6000.000
G1 F1200.000 E1.00000
G1 X136.876 Y112.911 F2160.000 E3.26501
G1 X137.144 Y113.022 E3.28010
G1 X137.144 Y117.673 E3.52242
G1 X110.819 Y143.998 E5.46189
G1 X106.321 Y143.998 E5.69622
G1 X106.251 Y143.829 E5.70575
G1 X105.410 Y143.575 F6000.000
G1 X136.715 Y112.111 F2160.000 E8.01800
G1 X137.823 Y112.568 E8.08039
G1 X137.823 Y117.954 E8.36100
G1 X111.100 Y144.677 E10.32976
G1 X105.868 Y144.677 E10.60232
G1 X105.450 Y143.672 E10.65902
G1 F1200.000 E9.65902
G92 E0
G1 X114.796 Y143.731 F6000.000
G1 F1200.000 E1.00000
G1 X120.157 Y138.370 F2160.000 E1.39500
G1 X120.424 Y138.480 E1.41004
G1 X120.424 Y143.998 E1.69749
G1 X114.906 Y143.998 E1.98494
G1 X114.836 Y143.828 E1.99451
G1 F1200.000 E0.99451
G92 E0
G1 X121.827 Y142.558 F6000.000
G1 F1200.000 E1.00000
G1 X121.592 Y141.446 F2160.000 E1.05921
G1 X121.651 Y140.312 E1.11835
G1 X122.001 Y139.230 E1.17759
G1 X122.620 Y138.277 E1.23679
G1 X123.464 Y137.517 E1.29597
G1 X124.476 Y137.001 E1.35514
G1 X125.588 Y136.764 E1.41437
G1 X126.722 Y136.823 E1.47353
G1 X127.804 Y137.173 E1.53276
G1 X128.757 Y137.791 E1.59196
G1 X129.282 Y138.374 E1.63280
G1 X137.592 Y138.374 E2.06572
G1 X137.592 Y143.174 E2.31578
G1 X129.732 Y143.174 E2.72524
G1 X129.242 Y143.929 E2.77214
G1 X128.398 Y144.689 E2.83130
G1 X127.386 Y145.207 E2.89054
G1 X126.274 Y145.442 E2.94977
G1 X125.138 Y145.383 E3.00901
G1 X124.058 Y145.033 E3.06815
G1 X123.105 Y144.415 E3.12733
G1 X122.343 Y143.570 E3.18658
G1 X121.875 Y142.651 E3.24031
G1 X121.182 Y142.786 F6000.000
G1 X121.103 Y142.411 F2160.000 E3.26029
G1 X121.103 Y144.677 E3.37833
G1 X114.453 Y144.677 E3.72475
G1 X113.995 Y143.572 E3.78703
G1 X119.998 Y137.569 E4.22927
G1 X121.103 Y138.027 E4.29155
G1 X121.103 Y139.803 E4.38406
G1 X121.383 Y138.936 E4.43152
G1 X122.099 Y137.832 E4.50005
G1 X123.077 Y136.953 E4.56855
G1 X124.247 Y136.356 E4.63701
G1 X125.534 Y136.082 E4.70554
G1 X126.846 Y136.150 E4.77400
G1 X128.098 Y136.555 E4.84254
G1 X129.201 Y137.271 E4.91106
G1 X129.584 Y137.695 E4.94083
G1 X138.271 Y137.695 E5.39337
G1 X138.271 Y143.853 E5.71412
G1 X130.101 Y143.853 E6.13972
G1 X129.763 Y144.374 E6.17208
G1 X128.786 Y145.252 E6.24054
G1 X127.615 Y145.852 E6.30909
G1 X126.327 Y146.124 E6.37765
G1 X125.013 Y146.056 E6.44618
G1 X123.764 Y145.651 E6.51462
G1 X122.661 Y144.935 E6.58310
G1 X121.779 Y143.958 E6.65167
G1 X121.230 Y142.879 E6.71474
G1 F1200.000 E5.71474
G92 E0
G1 X124.196 Y134.598 F6000.000
G1 F1200.000 E1.00000
G1 X124.086 Y134.331 F2160.000 E1.01504
G1 X136.877 Y121.538 E1.95752
G1 X137.144 Y121.648 E1.97256
G1 X137.144 Y126.033 E2.20098
G1 X128.579 Y134.598 E2.83201
G1 X124.301 Y134.598 E3.05486
G1 X123.743 Y135.277 F6000.000
G1 X123.285 Y134.172 F2160.000 E3.11713
G1 X136.718 Y120.737 E4.10685
G1 X137.823 Y121.195 E4.16913
G1 X137.823 Y126.314 E4.43582
G1 X128.860 Y135.277 E5.09613
G1 X123.848 Y135.277 E5.35723
G1 F1200.000 E4.35723
G92 E0
G1 X132.036 Y134.331 F6000.000
G1 F1200.000 E1.00000
G1 X136.877 Y129.490 F2160.000 E1.35669
G1 X137.144 Y129.600 E1.37173
G1 X137.144 Y134.598 E1.63209
G1 X132.146 Y134.598 E1.89245
G1 X132.076 Y134.428 E1.90202
G1 X131.235 Y134.172 F6000.000
G1 X136.718 Y128.689 F2160.000 E2.30595
G1 X137.823 Y129.147 E2.36823
G1 X137.823 Y135.277 E2.68756
G1 X131.693 Y135.277 E3.00689
G1 X131.276 Y134.269 E3.06370
G1 F1200.000 E2.06370
G92 E0
G1 X71.820 Y141.148 F6000.000
G1 F1200.000 E1.00000
G1 X71.820 Y145.948 F2160.000 E1.25006
G1 X63.960 Y145.948 E1.65954
G1 X63.469 Y146.703 E1.70647
G1 X62.626 Y147.465 E1.76563
G1 X61.612 Y147.981 E1.82492
G1 X60.502 Y148.218 E1.88404
G1 X59.366 Y148.159 E1.94333
G1 X58.286 Y147.807 E2.00249
G1 X57.333 Y147.189 E2.06166
G1 X56.571 Y146.344 E2.12091
G1 X56.055 Y145.332 E2.18009
G1 X55.818 Y144.222 E2.23924
G1 X55.879 Y143.086 E2.29852
G1 X56.229 Y142.006 E2.35763
G1 X56.847 Y141.053 E2.41682
G1 X57.692 Y140.291 E2.47607
G1 X58.704 Y139.775 E2.53525
G1 X59.816 Y139.538 E2.59448
G1 X60.950 Y139.597 E2.65366
G1 X62.032 Y139.949 E2.71292
G1 X62.985 Y140.567 E2.77210
G1 X63.508 Y141.148 E2.81280
G1 X71.715 Y141.148 E3.24035
G1 X72.499 Y140.469 F6000.000
G1 X72.499 Y146.627 F2160.000 E3.56111
G1 X64.328 Y146.627 E3.98677
G1 X63.989 Y147.147 E4.01912
G1 X63.014 Y148.029 E4.08759
G1 X61.840 Y148.626 E4.15620
G1 X60.556 Y148.900 E4.22461
G1 X59.240 Y148.832 E4.29325
G1 X57.991 Y148.424 E4.36172
G1 X56.889 Y147.709 E4.43016
G1 X56.007 Y146.732 E4.49872
G1 X55.410 Y145.561 E4.56721
G1 X55.136 Y144.275 E4.63569
G1 X55.206 Y142.960 E4.70429
G1 X55.611 Y141.712 E4.77267
G1 X56.327 Y140.609 E4.84116
G1 X57.304 Y139.727 E4.90972
G1 X58.475 Y139.130 E4.97822
G1 X59.762 Y138.856 E5.04675
G1 X61.075 Y138.924 E5.11526
G1 X62.327 Y139.332 E5.18383
G1 X63.430 Y140.047 E5.25231
G1 X63.810 Y140.469 E5.28193
G1 X72.394 Y140.469 E5.72909
G1 F1200.000 E4.72909
G92 E0
G1 X53.129 Y148.985 F6000.000
G1 F1200.000 E1.00000
G1 X53.129 Y91.543 F2160.000 E3.99252
G1 X57.345 Y91.543 E4.21220
G1 X57.081 Y91.780 E4.23072
G1 X56.365 Y92.884 E4.29926
G1 X55.960 Y94.136 E4.36779
G1 X55.892 Y95.447 E4.43620
G1 X56.164 Y96.735 E4.50476
G1 X56.764 Y97.906 E4.57332
G1 X57.642 Y98.883 E4.64177
G1 X58.746 Y99.599 E4.71030
G1 X59.997 Y100.004 E4.77879
G1 X61.309 Y100.074 E4.84725
G1 X62.597 Y99.800 E4.91584
G1 X63.768 Y99.203 E4.98433
G1 X64.745 Y98.321 E5.05290
G1 X65.083 Y97.801 E5.08522
G1 X73.253 Y97.801 E5.51082
G1 X73.253 Y91.643 E5.83158
G1 X64.565 Y91.643 E6.28417
G1 X64.474 Y91.543 E6.29125
G1 X132.971 Y91.543 E9.85968
G1 X132.971 Y93.793 E9.97690
G1 X140.371 Y93.793 E10.36240
G1 X140.371 Y110.030 E11.20829
G1 X141.534 Y110.239 E11.26981
G1 X142.247 Y110.442 E11.30846
G1 X142.936 Y110.711 E11.34699
G1 X143.598 Y111.049 E11.38569
G1 X144.225 Y111.446 E11.42436
G1 X144.808 Y111.900 E11.46286
G1 X145.349 Y112.413 E11.50167
G1 X145.835 Y112.971 E11.54026
G1 X146.266 Y113.576 E11.57894
G1 X146.636 Y114.219 E11.61758
G1 X146.871 Y114.737 E11.64721
G1 X146.871 Y129.458 E12.41411
G1 X146.490 Y132.935 E12.59635
G1 X145.855 Y136.396 E12.77967
G1 X144.974 Y139.800 E12.96287
G1 X143.849 Y143.135 E13.14622
G1 X142.490 Y146.378 E13.32939
G1 X141.168 Y148.985 E13.48167
G1 X53.234 Y148.985 E18.06268
G1 X52.450 Y149.664 F6000.000
G1 X52.450 Y90.864 F2160.000 E21.12590
G1 X59.858 Y90.864 E21.51182
G1 X59.458 Y90.949 E21.53312
G1 X58.446 Y91.465 E21.59229
G1 X57.602 Y92.225 E21.65147
G1 X56.983 Y93.178 E21.71067
G1 X56.633 Y94.260 E21.76991
G1 X56.574 Y95.394 E21.82904
G1 X56.809 Y96.506 E21.88827
G1 X57.327 Y97.518 E21.94751
G1 X58.087 Y98.362 E22.00667
G1 X59.040 Y98.981 E22.06588
G1 X60.122 Y99.331 E22.12509
G1 X61.256 Y99.392 E22.18425
G1 X62.368 Y99.155 E22.24350
G1 X63.380 Y98.639 E22.30269
G1 X64.225 Y97.877 E22.36194
G1 X64.714 Y97.122 E22.40882
G1 X72.574 Y97.122 E22.81828
G1 X72.574 Y92.322 E23.06834
G1 X64.263 Y92.322 E23.50128
G1 X63.739 Y91.742 E23.54203
G1 X62.786 Y91.121 E23.60127
G1 X61.992 Y90.864 E23.64477
G1 X133.650 Y90.864 E27.37786
G1 X133.650 Y93.114 E27.49507
G1 X141.050 Y93.114 E27.88058
G1 X141.050 Y109.463 E28.73227
G1 X141.687 Y109.577 E28.76598
G1 X142.464 Y109.798 E28.80807
G1 X143.214 Y110.092 E28.85005
G1 X143.935 Y110.458 E28.89214
G1 X144.616 Y110.891 E28.93419
G1 X145.224 Y111.364 E28.97432
G1 X145.228 Y111.364 E28.97453
G1 X145.232 Y111.367 E28.97480
G1 X145.839 Y111.943 E29.01838
G1 X146.369 Y112.551 E29.06040
G1 X146.837 Y113.209 E29.10249
G1 X147.240 Y113.908 E29.14453
G1 X147.550 Y114.590 E29.18353
G1 X147.550 Y129.495 E29.96002
G1 X147.161 Y133.033 E30.14546
G1 X146.518 Y136.542 E30.33132
G1 X145.624 Y139.994 E30.51707
G1 X144.484 Y143.375 E30.70296
G1 X143.106 Y146.663 E30.88867
G1 X141.585 Y149.664 E31.06394
G1 X52.555 Y149.664 E35.70202
G1 F1200.000 E34.70202
G92 E0
G1 X60.941 Y90.778 F6000.000
G1 F1200.000 E1.00000
G1 X60.838 Y90.806 F2160.000 E1.00552
G1 F1200.000 E0.00552
G92 E0
G1 X120.028 Y136.312 F6000.000
G1 F1200.000 E1.00000
