; generated by Slic3r 0.7.2b on 2012-06-06 at 23:28:22

; layer_height = 0.20
; perimeters = 2
; solid_layers = 3
; fill_density = .6
; nozzle_diameter = 0.5
; filament_diameter = 1.81
; extrusion_multiplier = 1.02
; perimeter_speed = 60
; infill_speed = 75
; travel_speed = 100
; extrusion_width_ratio = 0
; scale = 1
; single wall width = 0.70mm

M104 S187 ; set temperature
G28 ; home all
M140 S70 ; turn on bed
M109 S187 ; wait for temperature to be reached
G90 ; use absolute coordinates
G21 ; set units to millimeters
G92 E0 ; reset extrusion distance
M82 ; use absolute distances for extrusion
M107
G1 Z0.200 F6000.000
G1 X52.720 Y88.378
G1 F1200.000 E1.00000
G1 X52.780 Y88.138 F2160.000 E1.01289
G1 X53.040 Y87.408 E1.05326
G1 X53.270 Y86.938 E1.08052
G1 X53.530 Y86.498 E1.10714
G1 X54.000 Y85.878 E1.14767
G1 X54.350 Y85.498 E1.17459
G1 X54.940 Y84.998 E1.21488
G1 X55.150 Y84.848 E1.22832
G1 X55.590 Y84.568 E1.25549
G1 X55.810 Y84.448 E1.26855
G1 X56.280 Y84.228 E1.29558
G1 X56.770 Y84.058 E1.32260
G1 X57.270 Y83.928 E1.34951
G1 X57.780 Y83.838 E1.37649
G1 X58.030 Y83.808 E1.38961
G1 X58.550 Y83.788 E1.41672
G1 X148.060 Y83.808 E6.07980
G1 X148.810 Y83.918 E6.11929
G1 X149.310 Y84.048 E6.14620
G1 X149.790 Y84.218 E6.17273
G1 X150.250 Y84.428 E6.19907
G1 X150.480 Y84.548 E6.21259
G1 X150.700 Y84.678 E6.22590
G1 X151.320 Y85.118 E6.26551
G1 X151.700 Y85.458 E6.29207
G1 X151.880 Y85.638 E6.30533
G1 X152.220 Y86.018 E6.33189
G1 X152.660 Y86.638 E6.37150
G1 X152.790 Y86.858 E6.38481
G1 X153.020 Y87.318 E6.41161
G1 X153.210 Y87.788 E6.43802
G1 X153.360 Y88.278 E6.46471
G1 X153.420 Y88.528 E6.47811
G1 X153.530 Y89.278 E6.51760
G1 X153.530 Y150.698 E9.71731
G1 X153.420 Y151.448 E9.75680
G1 X153.290 Y151.948 E9.78371
G1 X153.120 Y152.428 E9.81024
G1 X152.910 Y152.888 E9.83658
G1 X152.790 Y153.118 E9.85010
G1 X152.660 Y153.338 E9.86341
G1 X152.220 Y153.958 E9.90302
G1 X151.880 Y154.338 E9.92958
G1 X151.700 Y154.518 E9.94284
G1 X151.320 Y154.858 E9.96940
G1 X150.700 Y155.298 E10.00901
G1 X150.480 Y155.428 E10.02232
G1 X150.020 Y155.658 E10.04912
G1 X149.550 Y155.848 E10.07553
G1 X149.060 Y155.998 E10.10222
G1 X148.810 Y156.058 E10.11562
G1 X148.060 Y156.168 E10.15511
G1 X147.550 Y156.188 E10.18169
G1 X57.900 Y156.168 E14.85207
G1 X57.150 Y156.058 E14.89156
G1 X56.650 Y155.928 E14.91847
G1 X56.170 Y155.758 E14.94500
G1 X55.710 Y155.548 E14.97134
G1 X55.050 Y155.158 E15.01128
G1 X54.840 Y155.018 E15.02443
G1 X54.450 Y154.698 E15.05071
G1 X53.910 Y154.158 E15.09049
G1 X53.740 Y153.958 E15.10417
G1 X53.300 Y153.338 E15.14377
G1 X53.170 Y153.118 E15.15709
G1 X51.350 Y149.488 E15.36863
G1 X49.830 Y145.808 E15.57605
G1 X48.570 Y142.018 E15.78412
G1 X47.580 Y138.138 E15.99273
G1 X46.880 Y134.208 E16.20068
G1 X46.450 Y130.018 E16.42011
G1 X46.460 Y114.828 E17.21144
G1 X46.510 Y114.258 E17.24125
G1 X52.695 Y88.480 E18.62229
G1 F1200.000 E17.62229
G92 E0
G1 X105.186 Y111.441 F6000.000
G1 F1200.000 E1.00000
G1 X107.570 Y110.475 F2160.000 E1.13403
G1 X108.017 Y112.832 E1.25901
G1 X106.144 Y113.608 E1.36461
G1 X105.228 Y111.537 E1.48258
G1 X104.753 Y110.464 F6000.000
G1 X103.093 Y106.712 F2160.000 E1.69631
G1 X106.629 Y105.511 E1.89083
G1 X107.392 Y109.534 E2.10416
G1 X104.852 Y110.429 E2.24445
G1 X104.387 Y111.312 F6000.000
G1 X104.386 Y111.312 F2160.000 E2.24447
G1 X102.172 Y106.308 E2.52955
G1 X107.150 Y104.618 E2.80340
G1 X108.083 Y109.536 E3.06418
G1 X108.083 Y109.536 E3.06419
G1 X108.786 Y113.248 E3.26104
G1 X105.792 Y114.489 E3.42990
G1 X104.429 Y111.408 E3.60539
G1 F1200.000 E2.60539
G92 E0
G1 X102.294 Y104.906 F6000.000
G1 F1200.000 E1.00000
G1 X100.628 Y101.141 F2160.000 E1.21451
G1 X105.528 Y99.704 E1.48050
G1 X106.254 Y103.536 E1.68371
G1 X102.393 Y104.872 E1.89653
G1 X101.926 Y105.751 F6000.000
G1 X99.695 Y100.707 F2160.000 E2.18388
G1 X106.055 Y98.842 E2.52919
G1 X107.030 Y103.985 E2.80193
G1 X102.025 Y105.717 E3.07781
G1 F1200.000 E2.07781
G92 E0
G1 X109.312 Y105.277 F6000.000
G1 F1200.000 E1.00000
G1 X111.125 Y105.158 F2160.000 E1.09465
G1 X113.195 Y105.569 E1.20461
G1 X112.498 Y109.579 E1.41665
G1 X110.721 Y109.247 E1.51084
G1 X109.409 Y109.347 E1.57939
G1 X109.315 Y105.382 E1.78604
G1 F1200.000 E0.78604
G92 E0
G1 X110.149 Y110.259 F6000.000
G1 F1200.000 E1.00000
G1 X112.325 Y110.564 F2160.000 E1.11446
G1 X111.921 Y112.889 E1.23741
G1 X110.051 Y112.643 E1.33568
G1 X109.489 Y112.714 E1.36520
G1 X109.435 Y110.348 E1.48851
G1 X110.045 Y110.272 E1.52051
G1 F1200.000 E0.52051
G92 E0
G1 X113.776 Y110.966 F6000.000
G1 F1200.000 E1.00000
G1 X115.795 Y111.824 F2160.000 E1.11431
G1 X116.946 Y112.725 E1.19045
G1 X115.554 Y114.634 E1.31355
G1 X114.518 Y113.840 E1.38155
G1 X112.923 Y113.179 E1.47149
G1 X113.738 Y111.064 E1.58954
G1 X114.163 Y109.970 F6000.000
G1 X115.642 Y106.145 F2160.000 E1.80317
G1 X119.190 Y107.894 E2.00927
G1 X119.974 Y108.580 E2.06350
G1 X117.560 Y111.886 E2.27676
G1 X116.797 Y111.234 E2.32902
G1 X114.258 Y110.015 E2.47578
G1 X113.397 Y110.069 F6000.000
G1 X115.276 Y105.208 F2160.000 E2.74725
G1 X119.570 Y107.325 E2.99663
G1 X120.888 Y108.478 E3.08787
G1 X117.676 Y112.878 E3.37167
G1 X117.675 Y112.877 E3.37172
G1 X115.692 Y115.595 E3.54700
G1 X114.175 Y114.432 E3.64656
G1 X112.187 Y113.608 E3.75871
G1 X110.049 Y113.327 E3.87101
G1 X108.828 Y113.481 E3.93516
G1 X108.750 Y110.078 E4.11249
G1 X108.748 Y110.079 E4.11262
G1 X108.618 Y104.642 E4.39591
G1 X111.170 Y104.475 E4.52911
G1 X113.977 Y105.033 E4.67824
G1 X113.049 Y110.373 E4.96059
G1 X113.046 Y110.372 E4.96072
G1 X112.858 Y111.461 E5.01828
G1 X113.358 Y110.163 E5.09073
G1 F1200.000 E4.09073
G92 E0
G1 X116.353 Y104.304 F6000.000
G1 F1200.000 E1.00000
G1 X117.837 Y100.464 F2160.000 E1.21450
G1 X123.600 Y103.610 E1.55654
G1 X121.139 Y106.984 E1.77409
G1 X120.202 Y106.173 E1.83863
G1 X116.448 Y104.350 E2.05602
G1 X115.496 Y104.642 F6000.000
G1 X117.483 Y99.497 F2160.000 E2.34336
G1 X124.604 Y103.385 E2.76600
G1 X121.252 Y107.979 E3.06226
G1 X119.825 Y106.744 E3.16058
G1 X115.590 Y104.688 E3.40584
G1 F1200.000 E2.40584
G92 E0
G1 X113.536 Y103.621 F6000.000
G1 F1200.000 E1.00000
G1 X111.141 Y103.160 F2160.000 E1.12704
G1 X109.265 Y103.296 E1.22504
G1 X109.172 Y99.328 E1.43177
G1 X112.452 Y99.251 E1.60269
G1 X114.221 Y99.681 E1.69754
G1 X113.554 Y103.518 E1.90039
G1 X114.086 Y104.418 F6000.000
G1 X111.101 Y103.844 F2160.000 E2.05876
G1 X108.603 Y104.023 E2.18922
G1 X108.478 Y98.666 E2.46839
G1 X112.525 Y98.571 E2.67931
G1 X114.998 Y99.172 E2.81189
G1 X114.104 Y104.314 E3.08381
G1 F1200.000 E2.08381
G92 E0
G1 X118.582 Y114.251 F6000.000
G1 F1200.000 E1.00000
G1 X119.901 Y116.002 F2160.000 E1.11423
G1 X120.450 Y117.357 E1.19036
G1 X118.288 Y118.315 E1.31355
G1 X117.788 Y117.109 E1.38160
G1 X116.736 Y115.738 E1.47161
G1 X118.500 Y114.316 E1.58963
G1 X119.415 Y113.581 F6000.000
G1 X122.608 Y111.005 F2160.000 E1.80337
G1 X124.807 Y114.296 E2.00952
G1 X125.143 Y115.282 E2.06382
G1 X121.398 Y116.939 E2.27714
G1 X121.063 Y115.992 E2.32947
G1 X119.474 Y113.667 E2.47617
G1 X118.703 Y113.283 F6000.000
G1 X122.760 Y110.011 F2160.000 E2.74772
G1 X125.420 Y113.993 E2.99717
G1 X125.985 Y115.652 E3.08847
G1 X121.002 Y117.856 E3.37232
G1 X121.002 Y117.854 E3.37243
G1 X117.927 Y119.218 E3.54765
G1 X117.196 Y117.451 E3.64727
G1 X115.794 Y115.626 E3.76715
G1 X118.621 Y113.348 E3.95626
G1 F1200.000 E2.95626
G92 E0
G1 X124.144 Y109.768 F6000.000
G1 F1200.000 E1.00000
G1 X127.349 Y107.185 F2160.000 E1.21444
G1 X130.769 Y112.793 E1.55660
G1 X126.950 Y114.482 E1.77414
G1 X126.544 Y113.312 E1.83864
G1 X124.202 Y109.855 E2.05620
G1 X123.232 Y109.631 F6000.000
G1 X127.526 Y106.172 F2160.000 E2.34347
G1 X131.751 Y113.100 E2.76624
G1 X126.550 Y115.401 E3.06250
G1 X125.933 Y113.619 E3.16075
G1 X123.290 Y109.718 E3.40619
G1 F1200.000 E2.40619
G92 E0
G1 X126.210 Y118.701 F6000.000
G1 F1200.000 E1.00000
G1 X126.470 Y122.649 F2160.000 E1.20610
G1 X126.059 Y124.720 E1.31608
G1 X122.047 Y124.020 E1.52824
G1 X122.380 Y122.245 E1.62233
G1 X122.156 Y119.332 E1.77452
G1 X126.106 Y118.718 E1.98277
G1 F1200.000 E0.98277
G92 E0
G1 X121.101 Y119.496 F6000.000
G1 F1200.000 E1.00000
G1 X121.369 Y121.673 F2160.000 E1.11426
G1 X121.062 Y123.849 E1.22874
G1 X118.739 Y123.443 E1.35158
G1 X118.985 Y121.576 E1.44968
G1 X118.758 Y119.863 E1.53970
G1 X120.997 Y119.513 E1.65778
G1 X121.689 Y118.718 F6000.000
G1 X126.838 Y117.917 F2160.000 E1.92926
G1 X127.153 Y122.694 E2.17865
G1 X126.595 Y125.502 E2.32781
G1 X121.636 Y124.637 E2.59004
G1 X121.636 Y124.638 E2.59010
G1 X117.982 Y123.999 E2.78336
G1 X118.301 Y121.576 E2.91068
G1 X117.999 Y119.295 E3.03055
G1 X121.586 Y118.734 E3.21971
G1 F1200.000 E2.21971
G92 E0
G1 X118.002 Y125.517 F6000.000
G1 F1200.000 E1.00000
G1 X120.084 Y126.655 F2160.000 E1.12361
G1 X119.802 Y127.319 E1.16120
G1 X117.984 Y129.645 E1.31502
G1 X117.404 Y130.085 E1.35294
G1 X115.793 Y128.333 E1.47692
G1 X116.368 Y127.892 E1.51467
G1 X117.788 Y126.042 E1.63614
G1 X117.962 Y125.614 E1.66023
G1 F1200.000 E0.66023
G92 E0
G1 X120.962 Y127.134 F6000.000
G1 F1200.000 E1.00000
G1 X124.536 Y129.086 F2160.000 E1.21214
G1 X123.734 Y130.714 E1.30672
G1 X120.928 Y133.914 E1.52840
G1 X118.168 Y130.914 E1.74076
G1 X120.392 Y128.319 E1.91883
G1 X120.917 Y127.229 E1.98185
G1 X120.660 Y126.197 F6000.000
G1 X120.660 Y126.196 F2160.000 E1.98187
G1 X125.433 Y128.802 E2.26512
G1 X124.303 Y131.094 E2.39827
G1 X120.941 Y134.929 E2.66395
G1 X117.323 Y130.998 E2.94226
G1 X117.322 Y130.999 E2.94232
G1 X114.791 Y128.246 E3.13713
G1 X115.885 Y127.408 E3.20887
G1 X117.194 Y125.702 E3.32092
G1 X117.661 Y124.557 E3.38532
G1 X120.568 Y126.146 E3.55794
G1 F1200.000 E2.55794
G92 E0
G1 X126.275 Y130.035 F6000.000
G1 F1200.000 E1.00000
G1 X129.757 Y131.937 F2160.000 E1.20666
G1 X128.185 Y134.816 E1.37757
G1 X124.913 Y138.246 E1.62451
G1 X122.285 Y135.387 E1.82683
G1 X125.455 Y131.726 E2.07913
G1 X126.230 Y130.129 E2.17157
G1 X125.976 Y129.098 F6000.000
G1 X130.677 Y131.666 F2160.000 E2.45067
G1 X128.738 Y135.220 E2.66158
G1 X124.904 Y139.239 E2.95093
G1 X121.376 Y135.401 E3.22253
G1 X124.884 Y131.349 E3.50171
G1 X125.930 Y129.192 E3.62659
G1 F1200.000 E2.62659
G92 E0
G1 X132.305 Y141.197 F6000.000
G1 F1200.000 E1.00000
G1 X132.708 Y141.029 F2160.000 E1.02274
G1 X133.142 Y140.971 E1.04555
G1 X133.576 Y141.029 E1.06836
G1 X133.978 Y141.196 E1.09102
G1 X134.325 Y141.460 E1.11375
G1 X134.592 Y141.808 E1.13657
G1 X134.759 Y142.210 E1.15928
G1 X134.817 Y142.644 E1.18209
G1 X134.759 Y143.078 E1.20490
G1 X134.592 Y143.481 E1.22761
G1 X134.326 Y143.827 E1.25036
G1 X133.981 Y144.093 E1.27306
G1 X133.577 Y144.261 E1.29585
G1 X133.144 Y144.317 E1.31859
G1 X132.711 Y144.261 E1.34134
G1 X132.307 Y144.094 E1.36410
G1 X131.960 Y143.828 E1.38688
G1 X131.694 Y143.481 E1.40967
G1 X131.527 Y143.077 E1.43243
G1 X131.471 Y142.644 E1.45518
G1 X131.527 Y142.213 E1.47780
G1 X131.694 Y141.807 E1.50068
G1 X131.960 Y141.463 E1.52337
G1 X132.222 Y141.261 E1.54057
G1 X131.962 Y140.604 F6000.000
G1 X132.530 Y140.369 F2160.000 E1.57262
G1 X133.142 Y140.286 E1.60480
G1 X133.754 Y140.369 E1.63698
G1 X134.319 Y140.603 E1.66881
G1 X134.808 Y140.975 E1.70084
G1 X135.184 Y141.465 E1.73305
G1 X135.419 Y142.032 E1.76500
G1 X135.502 Y142.644 E1.79719
G1 X135.419 Y143.256 E1.82937
G1 X135.184 Y143.823 E1.86132
G1 X134.811 Y144.310 E1.89332
G1 X134.324 Y144.686 E1.92532
G1 X133.754 Y144.923 E1.95752
G1 X133.144 Y145.001 E1.98953
G1 X132.535 Y144.923 E2.02155
G1 X131.965 Y144.686 E2.05366
G1 X131.476 Y144.312 E2.08575
G1 X131.102 Y143.823 E2.11784
G1 X130.865 Y143.254 E2.14995
G1 X130.787 Y142.644 E2.18198
G1 X130.865 Y142.037 E2.21383
G1 X131.102 Y141.465 E2.24611
G1 X131.477 Y140.979 E2.27808
G1 X131.878 Y140.669 E2.30452
G1 F1200.000 E1.30452
G92 E0
G1 X131.947 Y125.745 F6000.000
G1 F1200.000 E1.00000
G1 X128.005 Y125.060 F2160.000 E1.20845
G1 X128.466 Y122.665 E1.33549
G1 X128.160 Y118.396 E1.55848
G1 X132.228 Y117.763 E1.77298
G1 X132.375 Y123.974 E2.09663
G1 X131.972 Y125.643 E2.18610
G1 X132.458 Y126.523 F6000.000
G1 X127.208 Y125.610 F2160.000 E2.46367
G1 X127.782 Y122.625 E2.62204
G1 X127.438 Y117.821 E2.87292
G1 X132.889 Y116.973 E3.16026
G1 X133.055 Y124.047 E3.52884
G1 X132.482 Y126.420 E3.65606
G1 F1200.000 E2.65606
G92 E0
G1 X114.918 Y131.711 F6000.000
G1 F1200.000 E1.00000
G1 X112.886 Y132.532 F2160.000 E1.11416
G1 X111.081 Y132.753 E1.20891
G1 X110.641 Y130.432 E1.33200
G1 X112.362 Y130.203 E1.42246
G1 X113.960 Y129.542 E1.51253
G1 X114.876 Y131.615 E1.63060
G1 F1200.000 E0.63060
G92 E0
G1 X110.670 Y132.806 F6000.000
G1 F1200.000 E1.00000
G1 X109.952 Y132.891 F2160.000 E1.03763
G1 X107.777 Y132.587 E1.15206
G1 X108.183 Y130.261 E1.27504
G1 X110.051 Y130.509 E1.37323
G1 X110.612 Y130.433 E1.40273
G1 X110.667 Y132.701 E1.52095
G1 F1200.000 E0.52095
G92 E0
G1 X106.326 Y132.184 F6000.000
G1 F1200.000 E1.00000
G1 X104.309 Y131.326 F2160.000 E1.11421
G1 X103.156 Y130.425 E1.19044
G1 X104.549 Y128.516 E1.31358
G1 X105.585 Y129.312 E1.38164
G1 X107.180 Y129.971 E1.47155
G1 X106.364 Y132.086 E1.58962
G1 X105.941 Y133.180 F6000.000
G1 X104.462 Y137.007 F2160.000 E1.80334
G1 X100.912 Y135.256 E2.00961
G1 X100.131 Y134.570 E2.06375
G1 X102.544 Y131.264 E2.27697
G1 X103.307 Y131.916 E2.32923
G1 X105.846 Y133.135 E2.47599
G1 X107.606 Y133.571 F6000.000
G1 X109.381 Y133.904 F2160.000 E2.57007
G1 X110.693 Y133.803 E2.63862
G1 X110.790 Y137.873 E2.85073
G1 X108.977 Y137.992 E2.94538
G1 X106.906 Y137.581 E3.05536
G1 X107.588 Y133.674 E3.26194
G1 F1200.000 E2.26194
G92 E0
G1 X111.271 Y133.759 F6000.000
G1 F1200.000 E1.00000
G1 X112.595 Y133.657 F2160.000 E1.06918
G1 X115.351 Y132.689 E1.22135
G1 X117.011 Y136.438 E1.43497
G1 X113.263 Y137.712 E1.64121
G1 X112.036 Y137.791 E1.70526
G1 X111.291 Y133.863 E1.91358
G1 F1200.000 E0.91358
G92 E0
G1 X111.273 Y129.663 F6000.000
G1 F1200.000 E1.00000
G1 X112.185 Y129.542 F2160.000 E1.04795
G1 X114.313 Y128.662 E1.16792
G1 X115.717 Y131.841 E1.34898
G1 X115.718 Y131.841 E1.34902
G1 X117.932 Y136.842 E1.63395
G1 X113.396 Y138.384 E1.88352
G1 X111.484 Y138.507 E1.98335
G1 X111.484 Y138.508 E1.98341
G1 X108.932 Y138.675 E2.11662
G1 X106.124 Y138.117 E2.26577
G1 X106.989 Y133.161 E2.52784
G1 X106.988 Y133.161 E2.52789
G1 X107.245 Y131.687 E2.60588
G1 X106.707 Y133.083 E2.68384
G1 X106.706 Y133.083 E2.68387
G1 X104.828 Y137.944 E2.95538
G1 X100.531 Y135.825 E3.20496
G1 X99.217 Y134.671 E3.29608
G1 X102.221 Y130.556 E3.56149
G1 X102.220 Y130.556 E3.56152
G1 X104.411 Y127.554 E3.75512
G1 X105.927 Y128.719 E3.85475
G1 X107.916 Y129.541 E3.96685
G1 X110.050 Y129.824 E4.07903
G1 X111.174 Y129.671 E4.13811
G1 F1200.000 E3.13811
G92 E0
G1 X112.405 Y139.743 F6000.000
G1 F1200.000 E1.00000
G1 X113.765 Y139.644 F2160.000 E1.07104
G1 X117.808 Y138.244 E1.29393
G1 X119.474 Y142.009 E1.50844
G1 X113.186 Y143.857 E1.84982
G1 X112.424 Y139.847 E2.06246
G1 X111.596 Y139.122 F6000.000
G1 X113.627 Y138.974 F2160.000 E2.16853
G1 X118.176 Y137.398 E2.41932
G1 X120.407 Y142.442 E2.70665
G1 X112.659 Y144.719 E3.12733
G1 X111.616 Y139.225 E3.41864
G1 X110.837 Y139.855 F6000.000
G1 X110.932 Y143.822 F2160.000 E3.62537
G1 X107.652 Y143.899 E3.79628
G1 X105.881 Y143.471 E3.89123
G1 X106.568 Y139.529 E4.09969
G1 X108.963 Y139.990 E4.22672
G1 X110.732 Y139.862 E4.31914
G1 X111.498 Y139.127 F6000.000
G1 X111.627 Y144.484 F2160.000 E4.59832
G1 X107.580 Y144.580 E4.80923
G1 X105.103 Y143.981 E4.94196
G1 X106.019 Y138.732 E5.21953
G1 X109.003 Y139.306 E5.37787
G1 X111.394 Y139.134 E5.50272
G1 F1200.000 E4.50272
G92 E0
G1 X103.751 Y138.846 F6000.000
G1 F1200.000 E1.00000
G1 X102.267 Y142.687 F2160.000 E1.21450
G1 X96.502 Y139.540 E1.55663
G1 X98.963 Y136.167 E1.77418
G1 X99.900 Y136.977 E1.83873
G1 X103.656 Y138.800 E2.05621
G1 X104.609 Y138.508 F6000.000
G1 X102.621 Y143.653 F2160.000 E2.34355
G1 X95.498 Y139.765 E2.76628
G1 X98.850 Y135.171 E3.06256
G1 X100.277 Y136.406 E3.16086
G1 X104.514 Y138.462 E3.40623
G1 F1200.000 E2.40623
G92 E0
G1 X97.496 Y132.145 F6000.000
G1 F1200.000 E1.00000
G1 X95.295 Y128.854 F2160.000 E1.20622
G1 X94.962 Y127.869 E1.26039
G1 X98.707 Y126.213 E1.47371
G1 X99.039 Y127.158 E1.52593
G1 X100.690 Y129.569 E1.67815
