; generated by Slic3r 0.8.2 on 2012-06-07 at 09:17:24

; layer_height = 0.20
; perimeters = 2
; solid_layers = 3
; fill_density = .6
; nozzle_diameter = 0.5
; filament_diameter = 1.81
; extrusion_multiplier = 1.02
; perimeter_speed = 60
; infill_speed = 75
; travel_speed = 100
; extrusion_width_ratio = 0
; scale = 1
; single wall width = 0.70mm

M107
M104 S187 ; set temperature
G28 ; home all
M140 S70 ; turn on bed
M109 S187 ; wait for temperature to be reached
G90 ; use absolute coordinates
G21 ; set units to millimeters
G92 E0 ; reset extrusion distance
M82 ; use absolute distances for extrusion
G1 Z0.200 F6000.000
G1 X48.120 Y85.650
G1 F1200.000 E1.00000
G1 X48.300 Y85.470 F2160.000 E1.01326
G1 X48.680 Y85.130 E1.03983
G1 X49.300 Y84.690 E1.07943
G1 X49.520 Y84.560 E1.09274
G1 X49.980 Y84.330 E1.11954
G1 X50.450 Y84.140 E1.14595
G1 X50.940 Y83.990 E1.17264
G1 X51.190 Y83.930 E1.18604
G1 X51.940 Y83.820 E1.22553
G1 X52.450 Y83.800 E1.25212
G1 X141.560 Y83.820 E5.89436
G1 X142.070 Y83.890 E5.92117
G1 X142.570 Y83.990 E5.94774
G1 X143.050 Y84.140 E5.97394
G1 X143.290 Y84.230 E5.98729
G1 X143.760 Y84.450 E6.01432
G1 X144.420 Y84.830 E6.05400
G1 X144.630 Y84.980 E6.06744
G1 X145.020 Y85.300 E6.09372
G1 X145.390 Y85.660 E6.12062
G1 X145.730 Y86.040 E6.14718
G1 X146.030 Y86.450 E6.17365
G1 X146.420 Y87.110 E6.21358
G1 X146.710 Y87.820 E6.25354
G1 X153.430 Y113.920 E7.65758
G1 X153.520 Y114.520 E7.68919
G1 X153.550 Y130.030 E8.49719
G1 X153.080 Y134.540 E8.73341
G1 X151.940 Y140.190 E9.03369
G1 X150.730 Y144.250 E9.25439
G1 X148.500 Y149.810 E9.56647
G1 X147.720 Y151.420 E9.65967
G1 X146.760 Y153.230 E9.76640
G1 X146.480 Y153.670 E9.79357
G1 X146.160 Y154.080 E9.82067
G1 X145.800 Y154.460 E9.84794
G1 X145.420 Y154.810 E9.87485
G1 X145.000 Y155.130 E9.90236
G1 X144.560 Y155.410 E9.92953
G1 X144.340 Y155.530 E9.94258
G1 X143.860 Y155.750 E9.97009
G1 X143.370 Y155.930 E9.99728
G1 X142.870 Y156.060 E10.02420
G1 X142.360 Y156.150 E10.05118
G1 X142.100 Y156.180 E10.06481
G1 X141.580 Y156.200 E10.09192
G1 X51.940 Y156.180 E14.76177
G1 X51.190 Y156.070 E14.80126
G1 X50.690 Y155.940 E14.82818
G1 X50.210 Y155.770 E14.85470
G1 X49.750 Y155.560 E14.88105
G1 X49.520 Y155.440 E14.89456
G1 X49.300 Y155.310 E14.90787
G1 X48.680 Y154.870 E14.94748
G1 X48.300 Y154.530 E14.97404
G1 X48.120 Y154.350 E14.98731
G1 X47.780 Y153.970 E15.01387
G1 X47.340 Y153.350 E15.05348
G1 X47.210 Y153.130 E15.06679
G1 X46.980 Y152.670 E15.09358
G1 X46.790 Y152.200 E15.11999
G1 X46.640 Y151.710 E15.14669
G1 X46.580 Y151.460 E15.16008
G1 X46.470 Y150.710 E15.19957
G1 X46.470 Y89.290 E18.39928
G1 X46.580 Y88.540 E18.43877
G1 X46.710 Y88.040 E18.46569
G1 X46.880 Y87.560 E18.49221
G1 X47.090 Y87.100 E18.51856
G1 X47.210 Y86.870 E18.53207
G1 X47.340 Y86.650 E18.54538
G1 X47.780 Y86.030 E18.58499
G1 X48.050 Y85.728 E18.60608
G1 F1200.000 E17.60608
G92 E0
G1 X122.099 Y138.368 F6000.000
G1 F1200.000 E1.00000
G1 X123.077 Y137.489 F2160.000 E1.06850
G1 X124.247 Y136.892 E1.13695
G1 X125.534 Y136.618 E1.20549
G1 X126.846 Y136.686 E1.27395
G1 X128.098 Y137.091 E1.34249
G1 X129.201 Y137.807 E1.41101
G1 X129.584 Y138.231 E1.44078
G1 X138.271 Y138.231 E1.89331
G1 X138.271 Y144.389 E2.21407
G1 X130.101 Y144.389 E2.63967
G1 X129.763 Y144.910 E2.67203
G1 X128.786 Y145.788 E2.74048
G1 X127.615 Y146.388 E2.80903
G1 X126.831 Y146.554 E2.85077
G1 X126.831 Y146.686 E2.85768
G1 X126.327 Y146.660 E2.88395
G1 X126.327 Y146.660 E2.88395
G1 X125.013 Y146.592 E2.95248
G1 X123.764 Y146.187 E3.02092
G1 X122.661 Y145.471 E3.08940
G1 X121.779 Y144.494 E3.15797
G1 X121.182 Y143.322 E3.22651
G1 X120.910 Y142.035 E3.29503
G1 X120.978 Y140.724 E3.36344
G1 X121.383 Y139.472 E3.43197
G1 X122.042 Y138.456 E3.49504
G1 X122.620 Y138.813 F6000.000
G1 X123.464 Y138.053 F2160.000 E3.55422
G1 X124.476 Y137.537 E3.61339
G1 X125.588 Y137.300 E3.67262
G1 X126.722 Y137.359 E3.73178
G1 X127.804 Y137.709 E3.79101
G1 X128.757 Y138.327 E3.85021
G1 X129.282 Y138.910 E3.89105
G1 X137.592 Y138.910 E4.32397
G1 X137.592 Y143.710 E4.57403
G1 X129.732 Y143.710 E4.98349
G1 X129.242 Y144.465 E5.03039
G1 X128.398 Y145.225 E5.08955
G1 X127.386 Y145.743 E5.14879
G1 X126.274 Y145.978 E5.20802
G1 X126.152 Y145.972 E5.21435
G1 X126.152 Y145.972 E5.21435
G1 X125.138 Y145.919 E5.26726
G1 X124.058 Y145.569 E5.32640
G1 X123.105 Y144.951 E5.38558
G1 X122.343 Y144.106 E5.44483
G1 X121.827 Y143.094 E5.50403
G1 X121.592 Y141.982 E5.56325
G1 X121.651 Y140.848 E5.62238
G1 X122.001 Y139.766 E5.68162
G1 X122.562 Y138.901 E5.73535
G1 F1200.000 E4.73535
G92 E0
G1 X73.253 Y98.337 F6000.000
G1 F1200.000 E1.00000
G1 X65.083 Y98.337 F2160.000 E1.42560
G1 X64.745 Y98.857 E1.45792
G1 X63.768 Y99.739 E1.52649
G1 X62.597 Y100.336 E1.59498
G1 X61.309 Y100.610 E1.66357
G1 X59.997 Y100.540 E1.73204
G1 X58.746 Y100.135 E1.80052
G1 X57.642 Y99.419 E1.86906
G1 X56.764 Y98.442 E1.93751
G1 X56.164 Y97.271 E2.00606
G1 X55.892 Y95.983 E2.07462
G1 X55.960 Y94.672 E2.14303
G1 X56.365 Y93.420 E2.21157
G1 X57.081 Y92.316 E2.28010
G1 X58.059 Y91.437 E2.34860
G1 X59.229 Y90.840 E2.41706
G1 X60.516 Y90.566 E2.48559
G1 X61.828 Y90.634 E2.55405
G1 X63.081 Y91.040 E2.62263
G1 X64.183 Y91.757 E2.69117
G1 X64.565 Y92.179 E2.72083
G1 X73.253 Y92.179 E3.17341
G1 X73.253 Y98.232 E3.48870
G1 X72.574 Y97.658 F6000.000
G1 X64.714 Y97.658 F2160.000 E3.89816
G1 X64.225 Y98.413 E3.94504
G1 X63.380 Y99.175 E4.00429
G1 X62.368 Y99.691 E4.06347
G1 X61.256 Y99.928 E4.12272
G1 X60.122 Y99.867 E4.18189
G1 X59.040 Y99.517 E4.24110
G1 X58.087 Y98.898 E4.30030
G1 X57.327 Y98.054 E4.35947
G1 X56.809 Y97.042 E4.41870
G1 X56.574 Y95.930 E4.47793
G1 X56.633 Y94.796 E4.53707
G1 X56.983 Y93.714 E4.59630
G1 X57.602 Y92.761 E4.65551
G1 X58.446 Y92.001 E4.71469
G1 X59.458 Y91.485 E4.77385
G1 X60.570 Y91.248 E4.83309
G1 X61.704 Y91.307 E4.89225
G1 X62.786 Y91.657 E4.95149
G1 X63.739 Y92.278 E5.01073
G1 X64.263 Y92.858 E5.05149
G1 X72.574 Y92.858 E5.48443
G1 X72.574 Y97.553 E5.72902
G1 F1200.000 E4.72902
G92 E0
G1 X72.499 Y141.005 F6000.000
G1 F1200.000 E1.00000
G1 X72.499 Y147.163 F2160.000 E1.32076
G1 X64.328 Y147.163 E1.74641
G1 X63.989 Y147.683 E1.77877
G1 X63.014 Y148.565 E1.84724
G1 X61.840 Y149.162 E1.91585
G1 X60.556 Y149.436 E1.98426
G1 X59.240 Y149.368 E2.05290
G1 X57.991 Y148.960 E2.12137
G1 X56.889 Y148.245 E2.18980
G1 X56.007 Y147.268 E2.25837
G1 X55.410 Y146.097 E2.32685
G1 X55.136 Y144.811 E2.39533
G1 X55.206 Y143.496 E2.46393
G1 X55.611 Y142.248 E2.53232
G1 X56.327 Y141.145 E2.60080
G1 X57.304 Y140.263 E2.66937
G1 X58.475 Y139.666 E2.73786
G1 X59.762 Y139.392 E2.80640
G1 X61.075 Y139.460 E2.87491
G1 X62.327 Y139.868 E2.94348
G1 X63.430 Y140.583 E3.01195
G1 X63.810 Y141.005 E3.04157
G1 X72.394 Y141.005 E3.48874
G1 X71.820 Y141.684 F6000.000
G1 X71.820 Y146.484 F2160.000 E3.73880
G1 X63.960 Y146.484 E4.14828
G1 X63.469 Y147.239 E4.19521
G1 X62.626 Y148.001 E4.25437
G1 X61.612 Y148.517 E4.31366
G1 X60.502 Y148.754 E4.37278
G1 X59.366 Y148.695 E4.43207
G1 X58.286 Y148.343 E4.49123
G1 X57.333 Y147.725 E4.55040
G1 X56.571 Y146.880 E4.60965
G1 X56.055 Y145.868 E4.66883
G1 X55.818 Y144.758 E4.72798
G1 X55.879 Y143.622 E4.78726
G1 X56.229 Y142.542 E4.84637
G1 X56.847 Y141.589 E4.90556
G1 X57.692 Y140.827 E4.96481
G1 X58.704 Y140.311 E5.02399
G1 X59.816 Y140.074 E5.08322
G1 X60.950 Y140.133 E5.14240
G1 X62.032 Y140.485 E5.20166
G1 X62.985 Y141.103 E5.26084
G1 X63.508 Y141.684 E5.30154
G1 X71.715 Y141.684 E5.72909
G1 F1200.000 E4.72909
G92 E0
G1 X141.181 Y149.521 F6000.000
G1 F1200.000 E1.00000
G1 X53.129 Y149.521 F2160.000 E5.58714
G1 X53.129 Y90.479 E8.66302
G1 X140.371 Y90.479 E13.20799
G1 X140.371 Y110.566 E14.25444
G1 X141.534 Y110.775 E14.31596
G1 X142.247 Y110.978 E14.35461
G1 X142.936 Y111.247 E14.39315
G1 X143.598 Y111.585 E14.43185
G1 X144.225 Y111.982 E14.47052
G1 X144.753 Y112.393 E14.50538
G1 X145.351 Y112.952 E14.54802
G1 X145.835 Y113.507 E14.58640
G1 X146.266 Y114.112 E14.62508
G1 X146.636 Y114.755 E14.66372
G1 X146.871 Y115.273 E14.69335
G1 X146.871 Y130.003 E15.46074
G1 X146.490 Y133.471 E15.64249
G1 X145.855 Y136.932 E15.82582
G1 X144.974 Y140.336 E16.00899
G1 X143.850 Y143.671 E16.19232
G1 X142.490 Y146.914 E16.37554
G1 X141.230 Y149.429 E16.52206
G1 X141.589 Y150.200 F6000.000
G1 X52.450 Y150.200 F2160.000 E21.16582
G1 X52.450 Y89.800 E24.31240
G1 X141.050 Y89.800 E28.92807
G1 X141.050 Y109.999 E29.98032
G1 X141.687 Y110.113 E30.01404
G1 X142.464 Y110.334 E30.05613
G1 X143.214 Y110.628 E30.09811
G1 X143.935 Y110.994 E30.14020
G1 X144.616 Y111.427 E30.18225
G1 X145.194 Y111.877 E30.22039
G1 X145.840 Y112.480 E30.26644
G1 X146.369 Y113.087 E30.30839
G1 X146.837 Y113.745 E30.35048
G1 X147.240 Y114.444 E30.39252
G1 X147.550 Y115.126 E30.43152
G1 X147.550 Y130.034 E31.20817
G1 X147.162 Y133.569 E31.39345
G1 X146.518 Y137.079 E31.57932
G1 X145.625 Y140.530 E31.76505
G1 X144.484 Y143.910 E31.95090
G1 X143.106 Y147.199 E32.13666
G1 X141.638 Y150.107 E32.30637
G1 X140.726 Y149.041 F6000.000
G1 X136.554 Y144.869 F2700.000 E32.61636
G1 X135.591 Y144.869 F6000.000
G1 X139.763 Y149.041 F2700.000 E32.92640
G1 X138.799 Y149.041 F6000.000
G1 X134.627 Y144.869 F2700.000 E33.23639
G1 X133.664 Y144.869 F6000.000
G1 X137.836 Y149.041 F2700.000 E33.54638
G1 X136.873 Y149.041 F6000.000
G1 X132.700 Y144.869 F2700.000 E33.85642
G1 X131.736 Y144.869 F6000.000
G1 X135.908 Y149.041 F2700.000 E34.16641
G1 X134.945 Y149.041 F6000.000
G1 X130.773 Y144.869 F2700.000 E34.47640
G1 X130.090 Y145.149 F6000.000
G1 X133.982 Y149.041 F2700.000 E34.76559
G1 X133.018 Y149.041 F6000.000
G1 X129.584 Y145.607 F2700.000 E35.02073
G1 X129.077 Y146.064 F6000.000
G1 X132.054 Y149.041 F2700.000 E35.24198
G1 X131.091 Y149.040 F6000.000
G1 X128.465 Y146.415 F2700.000 E35.43706
G1 X127.827 Y146.742 F6000.000
G1 X130.127 Y149.041 F2700.000 E35.60792
G1 X129.164 Y149.041 F6000.000
G1 X127.311 Y147.189 F2700.000 E35.74558
G1 X126.310 Y147.150 F6000.000
G1 X128.200 Y149.040 F2700.000 E35.88602
G1 X127.236 Y149.041 F6000.000
G1 X125.294 Y147.099 F2700.000 E36.03035
G1 X124.111 Y146.879 F6000.000
G1 X126.273 Y149.041 F2700.000 E36.19102
G1 X125.309 Y149.040 F6000.000
G1 X122.143 Y145.874 F2700.000 E36.42630
G1 X122.015 Y145.746 F6000.000
G1 X73.733 Y97.464 F2700.000 E40.01381
G1 X73.733 Y96.501 F6000.000
G1 X120.669 Y143.437 F2700.000 E43.50130
G1 X120.428 Y142.233 F6000.000
G1 X73.733 Y95.538 F2700.000 E46.97095
G1 X73.733 Y94.574 F6000.000
G1 X120.476 Y141.317 F2700.000 E50.44414
G1 X120.605 Y140.482 F6000.000
G1 X73.733 Y93.610 F2700.000 E53.92690
G1 X73.733 Y92.647 F6000.000
G1 X120.840 Y139.755 F2700.000 E57.42718
G1 X121.145 Y139.095 F6000.000
G1 X73.733 Y91.683 F2700.000 E60.95008
G1 X73.749 Y91.699 F6000.000
G1 X73.009 Y90.959 F2700.000 E61.00506
G1 X72.785 Y91.699 F6000.000
G1 X72.045 Y90.959 F2700.000 E61.06005
G1 X71.822 Y91.699 F6000.000
G1 X71.082 Y90.959 F2700.000 E61.11504
G1 X70.858 Y91.699 F6000.000
G1 X70.118 Y90.959 F2700.000 E61.17003
G1 X69.894 Y91.699 F6000.000
G1 X69.154 Y90.959 F2700.000 E61.22502
G1 X68.931 Y91.699 F6000.000
G1 X68.191 Y90.959 F2700.000 E61.28000
G1 X67.968 Y91.699 F6000.000
G1 X67.228 Y90.959 F2700.000 E61.33499
G1 X67.004 Y91.699 F6000.000
G1 X66.264 Y90.959 F2700.000 E61.38998
G1 X66.040 Y91.699 F6000.000
G1 X65.300 Y90.959 F2700.000 E61.44496
G1 X64.788 Y91.410 F6000.000
G1 X64.337 Y90.959 F2700.000 E61.47847
G1 X64.554 Y91.176 F6000.000
G1 X65.077 Y91.699 F2700.000 E61.51733
G1 F1200.000 E60.51733
G92 E0
G1 X65.449 Y98.817 F6000.000
G1 F1200.000 E1.00000
G1 X115.674 Y149.041 F2700.000 E4.73184
G1 X114.711 Y149.041 F6000.000
G1 X64.913 Y99.243 F2700.000 E8.43202
G1 X64.406 Y99.701 F6000.000
G1 X113.746 Y149.041 F2700.000 E12.09820
G1 X112.783 Y149.041 F6000.000
G1 X63.884 Y100.142 F2700.000 E15.73158
G1 X63.246 Y100.467 F6000.000
G1 X111.820 Y149.041 F2700.000 E19.34081
G1 X110.855 Y149.041 F6000.000
G1 X62.602 Y100.788 F2700.000 E22.92619
G1 X61.808 Y100.957 F6000.000
G1 X109.892 Y149.041 F2700.000 E26.49900
G1 X108.928 Y149.040 F6000.000
G1 X60.972 Y101.084 F2700.000 E30.06234
G1 X59.953 Y101.030 F6000.000
G1 X107.965 Y149.041 F2700.000 E33.62977
G1 X107.002 Y149.041 F6000.000
G1 X58.640 Y100.680 F2700.000 E37.22321
G1 F1200.000 E36.22321
G92 E0
G1 X55.779 Y97.818 F6000.000
G1 F1200.000 E1.00000
G1 X53.609 Y95.648 F2700.000 E1.16124
G1 X53.609 Y94.685 F6000.000
G1 X55.474 Y96.551 F2700.000 E1.29986
G1 X55.443 Y95.555 F6000.000
G1 X53.609 Y93.721 F2700.000 E1.43612
G1 X53.609 Y92.758 F6000.000
G1 X55.512 Y94.661 F2700.000 E1.57755
G1 X55.748 Y93.934 F6000.000
G1 X53.609 Y91.795 F2700.000 E1.73649
G1 X53.737 Y90.959 F6000.000
G1 X56.007 Y93.229 F2700.000 E1.90515
G1 X56.386 Y92.644 F6000.000
G1 X54.701 Y90.959 F2700.000 E2.03037
G1 X55.664 Y90.959 F6000.000
G1 X56.767 Y92.062 F2700.000 E2.11232
G1 X57.204 Y91.535 F6000.000
G1 X56.628 Y90.959 F2700.000 E2.15515
G1 F1200.000 E1.15515
G92 E0
G1 X53.609 Y96.612 F6000.000
G1 F1200.000 E1.00000
G1 X106.038 Y149.040 F2700.000 E4.89565
G1 X105.074 Y149.041 F6000.000
G1 X53.609 Y97.576 F2700.000 E8.71972
G1 X53.609 Y98.539 F6000.000
G1 X104.111 Y149.041 F2700.000 E12.47221
G1 X103.147 Y149.040 F6000.000
G1 X53.609 Y99.502 F2700.000 E16.15307
G1 X53.609 Y100.467 F6000.000
G1 X102.183 Y149.041 F2700.000 E19.76235
G1 X101.220 Y149.041 F6000.000
G1 X53.609 Y101.430 F2700.000 E23.30006
G1 X53.609 Y102.393 F6000.000
G1 X100.257 Y149.040 F2700.000 E26.76613
G1 X99.293 Y149.041 F6000.000
G1 X53.609 Y103.357 F2700.000 E30.16062
G1 X53.609 Y104.321 F6000.000
G1 X98.330 Y149.041 F2700.000 E33.48353
G1 X97.366 Y149.040 F6000.000
G1 X53.609 Y105.284 F2700.000 E36.73482
G1 X53.609 Y106.248 F6000.000
G1 X96.402 Y149.041 F2700.000 E39.91452
G1 X95.439 Y149.041 F6000.000
G1 X53.609 Y107.211 F2700.000 E43.02264
G1 X53.609 Y108.175 F6000.000
G1 X94.475 Y149.040 F2700.000 E46.05913
G1 X93.511 Y149.041 F6000.000
G1 X53.609 Y109.139 F2700.000 E49.02405
G1 X53.609 Y110.102 F6000.000
G1 X92.548 Y149.041 F2700.000 E51.91738
G1 X91.584 Y149.041 F6000.000
G1 X53.609 Y111.066 F2700.000 E54.73909
G1 X53.609 Y112.029 F6000.000
G1 X90.621 Y149.041 F2700.000 E57.48922
G1 X89.658 Y149.041 F6000.000
G1 X53.609 Y112.993 F2700.000 E60.16777
G1 X53.609 Y113.957 F6000.000
G1 X88.693 Y149.041 F2700.000 E62.77468
G1 X87.730 Y149.041 F6000.000
G1 X53.609 Y114.920 F2700.000 E65.31002
G1 X53.609 Y115.883 F6000.000
G1 X86.767 Y149.041 F2700.000 E67.77378
G1 X85.803 Y149.041 F6000.000
G1 X53.609 Y116.847 F2700.000 E70.16591
G1 X53.609 Y117.811 F6000.000
G1 X84.839 Y149.041 F2700.000 E72.48646
G1 X83.876 Y149.040 F6000.000
G1 X53.609 Y118.774 F2700.000 E74.73538
G1 X53.609 Y119.738 F6000.000
G1 X82.912 Y149.041 F2700.000 E76.91272
G1 X81.949 Y149.041 F6000.000
G1 X53.609 Y120.701 F2700.000 E79.01848
G1 X53.609 Y121.665 F6000.000
G1 X72.469 Y140.525 F2700.000 E80.41986
G1 X72.979 Y141.035 F6000.000
G1 X80.985 Y149.040 F2700.000 E81.01472
G1 X80.021 Y149.041 F6000.000
G1 X72.978 Y141.998 F2700.000 E81.53803
G1 X72.979 Y142.962 F6000.000
G1 X79.058 Y149.041 F2700.000 E81.98972
G1 X78.094 Y149.040 F6000.000
G1 X72.979 Y143.925 F2700.000 E82.36980
G1 X72.978 Y144.889 F6000.000
G1 X77.131 Y149.041 F2700.000 E82.67832
G1 X76.168 Y149.041 F6000.000
G1 X72.979 Y145.853 F2700.000 E82.91523
G1 X72.979 Y146.816 F6000.000
G1 X75.204 Y149.040 F2700.000 E83.08052
G1 X74.240 Y149.041 F6000.000
G1 X72.842 Y147.643 F2700.000 E83.18439
G1 X71.878 Y147.643 F6000.000
G1 X73.277 Y149.041 F2700.000 E83.28832
G1 X72.313 Y149.040 F6000.000
G1 X70.915 Y147.643 F2700.000 E83.39219
G1 X69.951 Y147.643 F6000.000
G1 X71.349 Y149.041 F2700.000 E83.49606
G1 X70.386 Y149.041 F6000.000
G1 X68.988 Y147.643 F2700.000 E83.59999
G1 X68.024 Y147.643 F6000.000
G1 X69.422 Y149.041 F2700.000 E83.70386
G1 X68.459 Y149.041 F6000.000
G1 X67.061 Y147.643 F2700.000 E83.80774
G1 X66.097 Y147.643 F6000.000
G1 X67.496 Y149.041 F2700.000 E83.91166
G1 X66.531 Y149.041 F6000.000
G1 X65.133 Y147.643 F2700.000 E84.01553
G1 X64.369 Y147.842 F6000.000
G1 X65.568 Y149.041 F2700.000 E84.10464
G1 X64.605 Y149.041 F6000.000
G1 X63.882 Y148.318 F2700.000 E84.15839
G1 F1200.000 E83.15839
G92 E0
G1 X64.760 Y140.525 F6000.000
