; generated by Slic3r 0.7.2b on 2012-06-07 at 08:30:06

; layer_height = 0.20
; perimeters = 2
; solid_layers = 3
; fill_density = .6
; nozzle_diameter = 0.5
; filament_diameter = 1.81
; extrusion_multiplier = 1.02
; perimeter_speed = 60
; infill_speed = 75
; travel_speed = 100
; extrusion_width_ratio = 0
; scale = 1
; single wall width = 0.70mm

M104 S187 ; set temperature
G28 ; home all
M140 S70 ; turn on bed
M109 S187 ; wait for temperature to be reached
G90 ; use absolute coordinates
G21 ; set units to millimeters
G92 E0 ; reset extrusion distance
M82 ; use absolute distances for extrusion
M107
G1 Z0.200 F6000.000
G1 X52.718 Y88.394
G1 F1200.000 E1.00000
G1 X52.778 Y88.144 F2160.000 E1.01339
G1 X53.038 Y87.414 E1.05376
G1 X53.268 Y86.944 E1.08102
G1 X53.528 Y86.504 E1.10765
G1 X53.998 Y85.884 E1.14818
G1 X54.348 Y85.504 E1.17509
G1 X54.938 Y85.004 E1.21538
G1 X55.148 Y84.854 E1.22883
G1 X55.588 Y84.574 E1.25600
G1 X55.808 Y84.454 E1.26905
G1 X56.278 Y84.234 E1.29609
G1 X56.768 Y84.064 E1.32311
G1 X57.268 Y83.934 E1.35002
G1 X57.778 Y83.844 E1.37700
G1 X58.028 Y83.814 E1.39012
G1 X58.548 Y83.794 E1.41723
G1 X148.058 Y83.824 E6.08030
G1 X148.808 Y83.934 E6.11979
G1 X149.308 Y84.064 E6.14671
G1 X149.788 Y84.234 E6.17324
G1 X150.248 Y84.444 E6.19958
G1 X150.478 Y84.564 E6.21309
G1 X150.698 Y84.694 E6.22641
G1 X151.318 Y85.134 E6.26601
G1 X151.698 Y85.474 E6.29258
G1 X151.878 Y85.654 E6.30584
G1 X152.218 Y86.034 E6.33240
G1 X152.658 Y86.654 E6.37201
G1 X152.788 Y86.874 E6.38532
G1 X153.018 Y87.334 E6.41211
G1 X153.208 Y87.804 E6.43852
G1 X153.358 Y88.294 E6.46522
G1 X153.418 Y88.544 E6.47861
G1 X153.528 Y89.294 E6.51810
G1 X153.518 Y143.094 E9.32085
G1 X153.448 Y143.614 E9.34818
G1 X153.338 Y144.114 E9.37485
G1 X153.268 Y144.364 E9.38838
G1 X153.088 Y144.854 E9.41557
G1 X152.748 Y145.554 E9.45611
G1 X152.468 Y145.994 E9.48328
G1 X152.318 Y146.204 E9.49672
G1 X151.978 Y146.604 E9.52407
G1 X151.618 Y146.974 E9.55097
G1 X151.218 Y147.314 E9.57832
G1 X150.798 Y147.614 E9.60520
G1 X150.578 Y147.754 E9.61879
G1 X149.878 Y148.104 E9.65956
G1 X149.388 Y148.284 E9.68676
G1 X144.128 Y149.524 E9.96829
G1 X99.998 Y154.904 E12.28429
G1 X80.598 Y156.194 E13.29718
G1 X57.878 Y156.174 E14.48079
G1 X57.358 Y156.104 E14.50812
G1 X56.588 Y155.914 E14.54944
G1 X55.848 Y155.624 E14.59085
G1 X55.378 Y155.374 E14.61858
G1 X54.728 Y154.934 E14.65947
G1 X54.128 Y154.404 E14.70118
G1 X53.948 Y154.214 E14.71481
G1 X53.778 Y154.014 E14.72849
G1 X53.458 Y153.584 E14.75641
G1 X53.178 Y153.134 E14.78402
G1 X51.348 Y149.504 E14.99580
G1 X49.828 Y145.824 E15.20322
G1 X48.568 Y142.034 E15.41129
G1 X47.578 Y138.144 E15.62040
G1 X46.878 Y134.224 E15.82784
G1 X46.448 Y130.024 E16.04779
G1 X46.458 Y114.844 E16.83860
G1 X46.508 Y114.274 E16.86841
G1 X52.693 Y88.496 E18.24945
G1 F1200.000 E17.24945
G92 E0
G1 X105.183 Y111.453 F6000.000
G1 F1200.000 E1.00000
G1 X107.570 Y110.490 F2160.000 E1.13410
G1 X108.017 Y112.844 E1.25895
G1 X106.144 Y113.620 E1.36453
G1 X105.226 Y111.549 E1.48257
G1 X104.753 Y110.476 F6000.000
G1 X103.093 Y106.724 F2160.000 E1.69630
G1 X106.629 Y105.523 E1.89083
G1 X107.415 Y109.666 E2.11050
G1 X107.052 Y109.666 E2.12941
G1 X104.852 Y110.441 E2.25091
G1 X104.281 Y111.085 F6000.000
G1 X102.172 Y106.320 F2160.000 E2.52238
G1 X107.150 Y104.629 E2.79623
G1 X108.234 Y110.344 E3.09927
G1 X108.234 Y110.344 E3.09929
G1 X108.786 Y113.260 E3.25389
G1 X105.793 Y114.500 E3.42270
G1 X104.320 Y111.180 E3.61192
G1 F1200.000 E2.61192
G92 E0
G1 X102.294 Y104.920 F6000.000
G1 F1200.000 E1.00000
G1 X100.628 Y101.155 F2160.000 E1.21451
G1 X105.528 Y99.715 E1.48053
G1 X106.254 Y103.548 E1.68374
G1 X102.393 Y104.886 E1.89660
G1 X101.926 Y105.766 F6000.000
G1 X99.695 Y100.722 F2160.000 E2.18394
G1 X106.055 Y98.853 E2.52928
G1 X107.030 Y103.997 E2.80202
G1 X102.026 Y105.731 E3.07794
G1 F1200.000 E2.07794
G92 E0
G1 X109.314 Y105.288 F6000.000
G1 F1200.000 E1.00000
G1 X111.127 Y105.172 F2160.000 E1.09466
G1 X113.195 Y105.583 E1.20451
G1 X112.498 Y109.593 E1.41654
G1 X110.723 Y109.260 E1.51064
G1 X109.411 Y109.361 E1.57919
G1 X109.317 Y105.393 E1.78595
G1 F1200.000 E0.78595
G92 E0
G1 X110.149 Y110.271 F6000.000
G1 F1200.000 E1.00000
G1 X112.325 Y110.578 F2160.000 E1.11447
G1 X111.921 Y112.901 E1.23729
G1 X110.053 Y112.655 E1.33549
G1 X109.489 Y112.731 E1.36511
G1 X109.435 Y110.360 E1.48868
G1 X110.045 Y110.284 E1.52070
G1 F1200.000 E0.52070
G92 E0
G1 X113.776 Y110.980 F6000.000
G1 F1200.000 E1.00000
G1 X115.795 Y111.838 F2160.000 E1.11430
G1 X116.946 Y112.739 E1.19045
G1 X115.554 Y114.648 E1.31354
G1 X114.518 Y113.854 E1.38154
G1 X112.923 Y113.192 E1.47149
G1 X113.738 Y111.078 E1.58953
G1 X114.163 Y109.984 F6000.000
G1 X115.642 Y106.159 F2160.000 E1.80316
G1 X119.190 Y107.908 E2.00926
G1 X119.974 Y108.594 E2.06351
G1 X117.557 Y111.900 E2.27686
G1 X116.797 Y111.248 E2.32906
G1 X114.257 Y110.029 E2.47580
G1 X113.397 Y110.082 F6000.000
G1 X115.276 Y105.222 F2160.000 E2.74727
G1 X119.570 Y107.339 E2.99664
G1 X120.889 Y108.492 E3.08791
G1 X117.880 Y112.608 E3.35352
G1 X117.881 Y112.609 E3.35358
G1 X115.692 Y115.609 E3.54703
G1 X114.175 Y114.446 E3.64659
G1 X112.180 Y113.619 E3.75914
G1 X110.054 Y113.340 E3.87085
G1 X108.828 Y113.505 E3.93528
G1 X108.750 Y110.092 E4.11311
G1 X108.749 Y110.092 E4.11313
G1 X108.620 Y104.653 E4.39659
G1 X111.172 Y104.489 E4.52983
G1 X113.977 Y105.047 E4.67881
G1 X113.049 Y110.387 E4.96117
G1 X113.047 Y110.386 E4.96128
G1 X112.857 Y111.475 E5.01886
G1 X113.358 Y110.177 E5.09134
G1 F1200.000 E4.09134
G92 E0
G1 X116.353 Y104.318 F6000.000
G1 F1200.000 E1.00000
G1 X117.837 Y100.477 F2160.000 E1.21450
G1 X123.602 Y103.624 E1.55664
G1 X121.138 Y106.997 E1.77425
G1 X120.202 Y106.187 E1.83879
G1 X116.448 Y104.364 E2.05618
G1 X115.496 Y104.656 F6000.000
G1 X117.483 Y99.511 F2160.000 E2.34350
G1 X124.607 Y103.399 E2.76627
G1 X121.252 Y107.993 E3.06260
G1 X119.825 Y106.758 E3.16089
G1 X115.590 Y104.702 E3.40615
G1 F1200.000 E2.40615
G92 E0
G1 X113.536 Y103.635 F6000.000
G1 F1200.000 E1.00000
G1 X111.141 Y103.174 F2160.000 E1.12703
G1 X109.267 Y103.309 E1.22492
G1 X109.172 Y99.342 E1.43165
G1 X112.452 Y99.265 E1.60257
G1 X114.223 Y99.693 E1.69752
G1 X113.554 Y103.531 E1.90051
G1 X114.085 Y104.432 F6000.000
G1 X111.101 Y103.857 F2160.000 E2.05885
G1 X108.606 Y104.037 E2.18917
G1 X108.477 Y98.680 E2.46835
G1 X112.524 Y98.584 E2.67926
G1 X115.001 Y99.183 E2.81199
G1 X114.103 Y104.328 E3.08410
G1 F1200.000 E2.08410
G92 E0
G1 X118.582 Y114.264 F6000.000
G1 F1200.000 E1.00000
G1 X119.901 Y116.016 F2160.000 E1.11426
G1 X120.447 Y117.373 E1.19044
G1 X118.286 Y118.329 E1.31355
G1 X117.786 Y117.122 E1.38159
G1 X116.737 Y115.752 E1.47152
G1 X118.500 Y114.330 E1.58952
G1 X119.414 Y113.594 F6000.000
G1 X122.608 Y111.021 F2160.000 E1.80320
G1 X124.807 Y114.312 E2.00936
G1 X125.140 Y115.297 E2.06352
G1 X121.395 Y116.953 E2.27686
G1 X121.063 Y116.005 E2.32919
G1 X119.474 Y113.681 E2.47587
G1 X118.702 Y113.297 F6000.000
G1 X122.761 Y110.027 F2160.000 E2.74735
G1 X125.421 Y114.009 E2.99683
G1 X125.982 Y115.666 E3.08796
G1 X121.321 Y117.728 E3.35346
G1 X121.321 Y117.729 E3.35348
G1 X117.925 Y119.231 E3.54696
G1 X117.193 Y117.464 E3.64656
G1 X115.795 Y115.639 E3.76634
G1 X118.621 Y113.362 E3.95538
G1 F1200.000 E2.95538
G92 E0
G1 X124.143 Y109.784 F6000.000
G1 F1200.000 E1.00000
G1 X127.351 Y107.199 F2160.000 E1.21460
G1 X130.769 Y112.807 E1.55670
G1 X126.950 Y114.496 E1.77424
G1 X126.544 Y113.326 E1.83874
G1 X124.202 Y109.870 E2.05621
G1 X123.231 Y109.647 F6000.000
G1 X127.528 Y106.185 F2160.000 E2.34366
G1 X131.751 Y113.114 E2.76638
G1 X126.550 Y115.415 E3.06262
G1 X125.933 Y113.633 E3.16087
G1 X123.290 Y109.734 E3.40623
G1 F1200.000 E2.40623
G92 E0
G1 X126.210 Y118.715 F6000.000
G1 F1200.000 E1.00000
G1 X126.468 Y122.665 F2160.000 E1.20622
G1 X126.057 Y124.733 E1.31608
G1 X122.047 Y124.036 E1.52811
G1 X122.380 Y122.261 E1.62221
G1 X122.156 Y119.348 E1.77439
G1 X126.107 Y118.731 E1.98268
G1 F1200.000 E0.98268
G92 E0
G1 X121.099 Y119.513 F6000.000
G1 F1200.000 E1.00000
G1 X121.367 Y121.687 F2160.000 E1.11413
G1 X121.062 Y123.863 E1.22858
G1 X118.737 Y123.459 E1.35152
G1 X118.983 Y121.590 E1.44976
G1 X118.759 Y119.877 E1.53977
G1 X120.995 Y119.529 E1.65770
G1 X121.687 Y118.735 F6000.000
G1 X126.839 Y117.930 F2160.000 E1.92935
G1 X127.151 Y122.710 E2.17889
G1 X126.593 Y125.515 E2.32790
G1 X121.253 Y124.587 E2.61025
G1 X121.253 Y124.584 E2.61038
G1 X117.980 Y124.017 E2.78348
G1 X118.299 Y121.590 E2.91100
G1 X118.000 Y119.308 E3.03089
G1 X121.583 Y118.751 E3.21982
G1 F1200.000 E2.21982
G92 E0
G1 X118.005 Y125.532 F6000.000
G1 F1200.000 E1.00000
G1 X120.084 Y126.669 F2160.000 E1.12344
G1 X119.802 Y127.333 E1.16104
G1 X117.984 Y129.659 E1.31486
G1 X117.404 Y130.099 E1.35276
G1 X115.791 Y128.347 E1.47682
G1 X116.366 Y127.906 E1.51459
G1 X117.787 Y126.055 E1.63613
G1 X117.964 Y125.629 E1.66017
G1 F1200.000 E0.66017
G92 E0
G1 X120.959 Y127.148 F6000.000
G1 F1200.000 E1.00000
G1 X124.535 Y129.100 F2160.000 E1.21221
G1 X123.729 Y130.728 E1.30685
G1 X120.926 Y133.928 E1.52845
G1 X118.166 Y130.928 E1.74083
G1 X120.392 Y128.335 E1.91887
G1 X120.914 Y127.242 E1.98196
G1 X120.948 Y126.369 F6000.000
G1 X125.432 Y128.817 F2160.000 E2.24807
G1 X124.298 Y131.109 E2.38128
G1 X120.939 Y134.943 E2.64687
G1 X117.258 Y130.944 E2.93004
G1 X117.259 Y130.943 E2.93009
G1 X114.789 Y128.260 E3.12006
G1 X115.883 Y127.422 E3.19185
G1 X117.194 Y125.712 E3.30412
G1 X117.669 Y124.576 E3.36829
G1 X120.857 Y126.318 E3.55757
G1 F1200.000 E2.55757
G92 E0
G1 X126.273 Y130.049 F6000.000
G1 F1200.000 E1.00000
G1 X129.755 Y131.951 F2160.000 E1.20668
G1 X128.183 Y134.830 E1.37758
G1 X124.911 Y138.260 E1.62451
G1 X122.283 Y135.403 E1.82675
G1 X125.453 Y131.742 E2.07906
G1 X126.227 Y130.143 E2.17159
G1 X125.973 Y129.112 F6000.000
G1 X130.675 Y131.680 F2160.000 E2.45073
G1 X128.736 Y135.234 E2.66163
G1 X124.902 Y139.252 E2.95096
G1 X121.373 Y135.417 E3.22248
G1 X124.882 Y131.365 E3.50167
G1 X125.927 Y129.206 E3.62666
G1 F1200.000 E2.62666
G92 E0
G1 X132.303 Y141.210 F6000.000
G1 F1200.000 E1.00000
G1 X132.707 Y141.043 F2160.000 E1.02276
G1 X133.140 Y140.987 E1.04550
G1 X133.573 Y141.043 E1.06825
G1 X133.977 Y141.210 E1.09101
G1 X134.324 Y141.476 E1.11379
G1 X134.590 Y141.823 E1.13658
G1 X134.757 Y142.227 E1.15934
G1 X134.813 Y142.660 E1.18208
G1 X134.757 Y143.093 E1.20482
G1 X134.589 Y143.497 E1.22762
G1 X134.323 Y143.842 E1.25032
G1 X133.977 Y144.108 E1.27307
G1 X133.574 Y144.275 E1.29578
G1 X133.140 Y144.333 E1.31859
G1 X132.709 Y144.275 E1.34123
G1 X132.304 Y144.110 E1.36402
G1 X131.958 Y143.843 E1.38679
G1 X131.692 Y143.497 E1.40954
G1 X131.525 Y143.094 E1.43225
G1 X131.467 Y142.660 E1.45506
G1 X131.525 Y142.226 E1.47787
G1 X131.692 Y141.824 E1.50054
G1 X131.956 Y141.477 E1.52326
G1 X132.220 Y141.274 E1.54061
G1 F1200.000 E0.54061
G92 E0
G1 X131.945 Y125.761 F6000.000
G1 F1200.000 E1.00000
G1 X128.005 Y125.074 F2160.000 E1.20834
G1 X128.466 Y122.679 E1.33537
G1 X128.158 Y118.412 E1.55825
G1 X132.226 Y117.777 E1.77278
G1 X132.375 Y123.990 E2.09655
G1 X131.970 Y125.659 E2.18604
G1 X132.454 Y126.539 F6000.000
G1 X127.208 Y125.623 F2160.000 E2.46346
G1 X127.782 Y122.639 E2.62179
G1 X127.436 Y117.838 E2.87255
G1 X132.886 Y116.987 E3.15992
G1 X133.055 Y124.063 E3.52866
G1 X132.479 Y126.437 E3.65592
G1 F1200.000 E2.65592
G92 E0
G1 X114.916 Y131.725 F6000.000
G1 F1200.000 E1.00000
G1 X112.884 Y132.546 F2160.000 E1.11416
G1 X111.079 Y132.767 E1.20891
G1 X110.639 Y130.443 E1.33214
G1 X112.363 Y130.217 E1.42269
G1 X113.958 Y129.556 E1.51265
G1 X114.874 Y131.629 E1.63074
G1 F1200.000 E0.63074
G92 E0
G1 X110.668 Y132.816 F6000.000
G1 F1200.000 E1.00000
G1 X109.951 Y132.905 F2160.000 E1.03760
G1 X107.775 Y132.600 E1.15208
G1 X108.181 Y130.275 E1.27504
G1 X110.051 Y130.521 E1.37329
G1 X110.611 Y130.450 E1.40269
G1 X110.665 Y132.711 E1.52055
G1 F1200.000 E0.52055
G92 E0
G1 X106.324 Y132.195 F6000.000
G1 F1200.000 E1.00000
G1 X104.307 Y131.340 F2160.000 E1.11413
G1 X103.153 Y130.439 E1.19038
G1 X104.549 Y128.530 E1.31358
G1 X105.583 Y129.324 E1.38149
G1 X107.180 Y129.985 E1.47155
G1 X106.362 Y132.097 E1.58953
G1 X105.939 Y133.192 F6000.000
G1 X104.458 Y137.019 F2160.000 E1.80330
G1 X100.909 Y135.269 E2.00943
G1 X100.129 Y134.581 E2.06363
G1 X102.543 Y131.276 E2.27686
G1 X103.305 Y131.930 E2.32920
G1 X105.845 Y133.147 E2.47591
G1 X107.604 Y133.585 F6000.000
G1 X109.379 Y133.917 F2160.000 E2.56999
G1 X110.691 Y133.817 E2.63854
G1 X110.788 Y137.887 E2.85065
G1 X108.975 Y138.006 E2.94530
G1 X106.904 Y137.595 E3.05528
G1 X107.586 Y133.688 E3.26187
G1 F1200.000 E2.26187
G92 E0
G1 X111.269 Y133.773 F6000.000
G1 F1200.000 E1.00000
G1 X112.593 Y133.671 F2160.000 E1.06918
G1 X115.349 Y132.703 E1.22135
G1 X117.009 Y136.452 E1.43497
G1 X113.261 Y137.726 E1.64121
G1 X112.034 Y137.805 E1.70526
G1 X111.289 Y133.876 E1.91357
G1 F1200.000 E0.91357
G92 E0
G1 X110.048 Y129.836 F6000.000
G1 F1200.000 E1.00000
G1 X112.186 Y129.556 F2160.000 E1.11230
G1 X114.311 Y128.675 E1.23215
G1 X115.715 Y131.855 E1.41324
G1 X115.716 Y131.855 E1.41328
G1 X117.930 Y136.856 E1.69821
G1 X113.394 Y138.398 E1.94778
G1 X111.482 Y138.521 E2.04760
G1 X111.482 Y138.522 E2.04767
G1 X108.930 Y138.689 E2.18087
G1 X106.122 Y138.131 E2.33003
G1 X106.987 Y133.175 E2.59210
G1 X106.986 Y133.175 E2.59215
G1 X107.243 Y131.700 E2.67014
G1 X106.798 Y132.851 E2.73444
G1 X106.799 Y132.852 E2.73451
G1 X104.823 Y137.956 E3.01962
G1 X100.529 Y135.838 E3.26909
G1 X99.216 Y134.681 E3.36023
G1 X102.218 Y130.570 E3.62545
G1 X102.218 Y130.569 E3.62548
G1 X104.411 Y127.568 E3.81912
G1 X105.925 Y128.732 E3.91856
G1 X107.917 Y129.556 E4.03088
G1 X109.944 Y129.823 E4.13739
G1 F1200.000 E3.13739
G92 E0
G1 X112.403 Y139.755 F6000.000
G1 F1200.000 E1.00000
G1 X113.763 Y139.658 F2160.000 E1.07104
G1 X117.806 Y138.258 E1.29392
G1 X119.472 Y142.023 E1.50843
G1 X113.182 Y143.869 E1.84990
G1 X112.422 Y139.858 E2.06255
G1 X111.594 Y139.132 F6000.000
G1 X113.626 Y138.988 F2160.000 E2.16864
G1 X118.174 Y137.412 E2.41938
G1 X120.405 Y142.457 E2.70674
G1 X112.655 Y144.730 E3.12752
G1 X111.614 Y139.235 E3.41889
G1 X110.835 Y139.869 F6000.000
G1 X110.928 Y143.836 F2160.000 E3.62562
G1 X107.650 Y143.913 E3.79643
G1 X105.879 Y143.483 E3.89138
G1 X106.564 Y139.543 E4.09971
G1 X108.959 Y140.004 E4.22675
G1 X110.731 Y139.876 E4.31929
G1 X111.497 Y139.141 F6000.000
G1 X111.622 Y144.498 F2160.000 E4.59846
G1 X107.577 Y144.593 E4.80927
G1 X105.102 Y143.992 E4.94196
G1 X106.014 Y138.746 E5.21936
G1 X108.999 Y139.320 E5.37773
G1 X111.392 Y139.148 E5.50272
G1 F1200.000 E4.50272
G92 E0
G1 X103.749 Y138.860 F6000.000
G1 F1200.000 E1.00000
G1 X102.262 Y142.700 F2160.000 E1.21454
G1 X96.500 Y139.552 E1.55663
G1 X98.962 Y136.180 E1.77409
G1 X99.898 Y136.991 E1.83863
G1 X103.654 Y138.814 E2.05612
G1 X104.607 Y138.522 F6000.000
G1 X102.616 Y143.667 F2160.000 E2.34352
G1 X95.496 Y139.776 E2.76620
G1 X98.848 Y135.185 E3.06236
G1 X100.275 Y136.420 E3.16065
G1 X104.513 Y138.476 E3.40604
G1 F1200.000 E2.40604
G92 E0
G1 X97.494 Y132.157 F6000.000
G1 F1200.000 E1.00000
G1 X95.296 Y128.866 F2160.000 E1.20614
G1 X94.959 Y127.882 E1.26035
G1 X98.705 Y126.225 E1.47374
G1 X99.037 Y127.172 E1.52606
G1 X100.688 Y129.583 E1.67828
G1 X97.575 Y132.091 E1.88649
G1 F1200.000 E0.88649
G92 E0
G1 X101.520 Y128.911 F6000.000
G1 F1200.000 E1.00000
G1 X100.201 Y127.162 F2160.000 E1.11415
G1 X99.653 Y125.805 E1.19040
G1 X101.814 Y124.849 E1.31352
G1 X102.314 Y126.053 E1.38145
G1 X103.366 Y127.424 E1.47146
G1 X101.602 Y128.845 E1.58947
G1 X101.602 Y129.717 F6000.000
G1 X101.602 Y129.718 F2160.000 E1.58953
G1 X97.341 Y133.150 E1.87456
G1 X94.682 Y129.170 E2.12397
G1 X94.116 Y127.513 E2.21519
G1 X98.778 Y125.450 E2.48074
G1 X98.777 Y125.450 E2.48076
G1 X102.175 Y123.948 E2.67428
G1 X102.906 Y125.711 E2.77374
G1 X104.308 Y127.537 E2.89363
G1 X101.683 Y129.651 E3.06921
G1 F1200.000 E2.06921
G92 E0
G1 X101.344 Y123.301 F6000.000
G1 F1200.000 E1.00000
G1 X99.001 Y123.665 F2160.000 E1.12353
G1 X98.733 Y121.489 E1.23777
G1 X99.040 Y119.313 E1.35224
G1 X101.363 Y119.719 E1.47509
G1 X101.117 Y121.588 E1.57328
G1 X101.330 Y123.197 E1.65786
